; generated by PrusaSlicer 2.9.5 on 2026-06-09 at 11:58:38 UTC

; 

; external perimeters extrusion width = 0.45mm
; perimeters extrusion width = 0.45mm
; infill extrusion width = 0.45mm
; solid infill extrusion width = 0.45mm
; top infill extrusion width = 0.42mm
; support material extrusion width = 0.36mm
; first layer extrusion width = 0.50mm

; external perimeters extrusion width = 0.45mm
; perimeters extrusion width = 0.45mm
; infill extrusion width = 0.45mm
; solid infill extrusion width = 0.45mm
; top infill extrusion width = 0.42mm
; support material extrusion width = 0.36mm
; first layer extrusion width = 0.50mm

; external perimeters extrusion width = 0.45mm
; perimeters extrusion width = 0.45mm
; infill extrusion width = 0.45mm
; solid infill extrusion width = 0.45mm
; top infill extrusion width = 0.42mm
; support material extrusion width = 0.36mm
; first layer extrusion width = 0.50mm

M73 P0 R187
;TYPE:Custom
M104 ; prevent pusaslicer from adding temperature commands
; run custom start G-code
T-1  ; clear tool selection
M144 S1 ; set bed as active
M140 S0 R0 ; set bed temp
G29 S1 ; activate mesh bed compensation and load saved heightmap

; turn off unused heaters



M104 T3 S0

; homming
G28 ; homing
; try picking tools used in print
G1 F24000
;
;T1
;T2
;
G0 Z5 ; add Z clearance
M190 S0 ; wait for bed temp

; set extruder temp
M104 T0 S220
M104 T1 S220
M104 T2 S240



;
; purge second tool
;
G1 F24000
T-1 ; park the tool
M109 T1 S220
T1 ; pick the tool
G92 E0 ; reset extruder position

G0 X320 Y155 Z10 F24000 ; move close to the sheet's edge
G0 E30 X310 Z0.2 F170 ; purge while moving towards the sheet
G0 X285 E39 F800 ; continue purging and wipe the nozzle
G0 X282 Z0.05 F8000 ; wipe, move close to the bed
G0 X279 Z0.2 F8000 ; wipe, move quickly away from the bed
G1 E-1.2 F2400 ; retract

G92 E0 ; reset extruder position

M104 S100 T1


;
; purge third tool
;
G1 F24000
T-1 ; park the tool
M109 T2 S240
T2 ; pick the tool
G92 E0 ; reset extruder position

G0 X320 Y135 Z10 F24000 ; move close to the sheet's edge
G0 E30 X310 Z0.2 F170 ; purge while moving towards the sheet
G0 X285 E39 F800 ; continue purging and wipe the nozzle
G0 X282 Z0.05 F8000 ; wipe, move close to the bed
G0 X279 Z0.2 F8000 ; wipe, move quickly away from the bed
G1 E-1.2 F2400 ; retract

G92 E0 ; reset extruder position

M104 S100 T2


;
; purge initial tool
;
G1 F24000
T-1 ; park the tool
M109 T0 S220
T0 ; pick the tool
G92 E0 ; reset extruder position

G0 X320 Y195 Z10 F24000 ; move close to the sheet's edge
G0 E30 X310 Z0.2 F170 ; purge while moving towards the sheet
G0 X285 E39 F800 ; continue purging and wipe the nozzle
G0 X282 Z0.05 F8000 ; wipe, move close to the bed
G0 X279 Z0.2 F8000 ; wipe, move quickly away from the bed
G1 E-1.5 F2400 ; retract



G92 E0 ; reset extruder position

G21 ; set units to millimeters
G90 ; use absolute coordinates
M83 ; use relative distances for extrusion
; Change Tool-1 -> Tool0 (layer -1)

; check if tool is already active at startup
T0 ; tool already active, don't change tools
; Filament gcode
M107
;LAYER_CHANGE
;Z:0.2
;HEIGHT:0.2
G1 Z.2 F720
G1 X81.424 Y105.041 F24000
G1 Z.2 F720
G1 E1.5 F3000
;TYPE:Skirt/Brim
;WIDTH:0.5
;HEIGHT:0.2
G1 F1640.852
G1 X132.464 Y65.477 E2.52803
G1 X134.356 Y64.512 E.08314
G1 X135.948 Y64.285 E.06295
G1 X170.948 Y64.285 E1.37013
G1 X173.034 Y64.681 E.08312
G1 X174.829 Y65.816 E.08314
G1 X176.082 Y67.529 E.08308
G1 X176.633 Y69.97 E.09796
G1 X176.633 Y104.97 E1.37013
G1 X176.237 Y107.056 E.08312
G1 X174.52 Y109.394 E.11355
G1 X136.389 Y140.19 E1.91873
G1 X134.517 Y141.192 E.08312
G1 X132.864 Y141.452 E.0655
G1 X99.664 Y141.731 E1.29971
G1 X66.37 Y141.452 E1.30339
G1 X64.287 Y141.039 E.08313
G1 X62.502 Y139.889 E.08312
G1 X61.262 Y138.165 E.08313
G1 X60.732 Y135.767 E.09614
G1 X60.732 Y123.868 E.4658
G1 X61.128 Y121.782 E.08312
G1 X62.934 Y119.374 E.11783
G1 X81.377 Y105.078 E.91348
G1 E-1.5 F3000
G1 X70.117 Y127.568 F24000
G1 E1.5 F3000
;HEIGHT:0.2
;TYPE:Wipe tower
;WIDTH:0.5
G1 X129.117 Y127.568 E2.2424 F1641
G1 Y128.568 E0.0380
G1 X70.117 E2.2424
G1 Y127.568 E0.0380
G1 X129.117
G1 Y128.568
G1 X129.617 Y127.068
G1 Y132.568 E0.2090
G1 X100.820 E1.0945
G1 X100.763 Y132.592 E0.0024
G1 X100.706 Y132.615 E0.0024
G1 X100.648 Y132.637 E0.0024
G1 X100.589 Y132.658 E0.0024
G1 X100.531 Y132.677 E0.0024
G1 X100.472 Y132.695 E0.0024
G1 X100.412 Y132.712 E0.0024
G1 X100.352 Y132.728 E0.0024
G1 X100.292 Y132.743 E0.0024
G1 X100.232 Y132.756 E0.0024
G1 X100.171 Y132.768 E0.0024
G1 X100.110 Y132.779 E0.0024
G1 X100.049 Y132.788 E0.0024
G1 X99.987 Y132.797 E0.0024
G1 X99.926 Y132.804 E0.0024
G1 X99.864 Y132.809 E0.0024
G1 X99.803 Y132.814 E0.0024
G1 X99.741 Y132.817 E0.0024
G1 X99.679 Y132.819 E0.0024
G1 X99.617 Y132.820 E0.0024
G1 X99.555 Y132.819 E0.0024
G1 X99.493 Y132.817 E0.0024
G1 X99.431 Y132.814 E0.0024
G1 X99.370 Y132.809 E0.0024
G1 X99.308 Y132.804 E0.0024
G1 X99.247 Y132.797 E0.0024
G1 X99.185 Y132.788 E0.0024
G1 X99.124 Y132.779 E0.0024
G1 X99.063 Y132.768 E0.0024
G1 X99.002 Y132.756 E0.0024
G1 X98.942 Y132.743 E0.0024
G1 X98.882 Y132.728 E0.0024
G1 X98.822 Y132.712 E0.0024
G1 X98.762 Y132.695 E0.0024
G1 X98.703 Y132.677 E0.0024
G1 X98.645 Y132.658 E0.0024
G1 X98.586 Y132.637 E0.0024
G1 X98.528 Y132.615 E0.0024
G1 X98.471 Y132.592 E0.0024
G1 X98.414 Y132.568 E0.0024
G1 X69.617 E1.0945
G1 Y127.068 E0.2090
G1 X98.414 E1.0945
G1 X98.471 Y127.044 E0.0024
G1 X98.528 Y127.021 E0.0024
G1 X98.586 Y126.999 E0.0024
G1 X98.645 Y126.978 E0.0024
G1 X98.703 Y126.959 E0.0024
G1 X98.762 Y126.941 E0.0024
G1 X98.822 Y126.924 E0.0024
G1 X98.882 Y126.908 E0.0024
G1 X98.942 Y126.893 E0.0024
G1 X99.002 Y126.880 E0.0024
G1 X99.063 Y126.868 E0.0024
G1 X99.124 Y126.857 E0.0024
G1 X99.185 Y126.848 E0.0024
G1 X99.247 Y126.839 E0.0024
G1 X99.308 Y126.832 E0.0024
G1 X99.370 Y126.827 E0.0024
G1 X99.431 Y126.822 E0.0024
G1 X99.493 Y126.819 E0.0024
G1 X99.555 Y126.817 E0.0024
G1 X99.617 Y126.816 E0.0024
G1 X99.679 Y126.817 E0.0024
G1 X99.741 Y126.819 E0.0024
G1 X99.803 Y126.822 E0.0024
G1 X99.864 Y126.827 E0.0024
G1 X99.926 Y126.832 E0.0024
G1 X99.987 Y126.839 E0.0024
G1 X100.049 Y126.848 E0.0024
G1 X100.110 Y126.857 E0.0024
G1 X100.171 Y126.868 E0.0024
G1 X100.232 Y126.880 E0.0024
G1 X100.292 Y126.893 E0.0024
G1 X100.352 Y126.908 E0.0024
G1 X100.412 Y126.924 E0.0024
G1 X100.472 Y126.941 E0.0024
G1 X100.531 Y126.959 E0.0024
G1 X100.589 Y126.978 E0.0024
G1 X100.648 Y126.999 E0.0024
G1 X100.706 Y127.021 E0.0024
G1 X100.763 Y127.044 E0.0024
G1 X100.820 Y127.068 E0.0024
G1 X129.617 E1.0945
G1 X130.074 Y126.611
G1 Y133.025 E0.2438
G1 X100.912 E1.1084
G1 X100.872 Y133.041 E0.0016
G1 X100.805 Y133.066 E0.0027
G1 X100.738 Y133.090 E0.0027
G1 X100.670 Y133.113 E0.0027
G1 X100.602 Y133.134 E0.0027
G1 X100.533 Y133.153 E0.0027
G1 X100.464 Y133.171 E0.0027
G1 X100.395 Y133.188 E0.0027
G1 X100.325 Y133.204 E0.0027
G1 X100.255 Y133.217 E0.0027
G1 X100.185 Y133.230 E0.0027
G1 X100.115 Y133.241 E0.0027
G1 X100.044 Y133.250 E0.0027
G1 X99.973 Y133.258 E0.0027
G1 X99.902 Y133.265 E0.0027
G1 X99.831 Y133.270 E0.0027
G1 X99.760 Y133.274 E0.0027
G1 X99.688 Y133.276 E0.0027
G1 X99.617 Y133.277 E0.0027
G1 X99.546 Y133.276 E0.0027
G1 X99.474 Y133.274 E0.0027
G1 X99.403 Y133.270 E0.0027
G1 X99.332 Y133.265 E0.0027
G1 X99.261 Y133.258 E0.0027
G1 X99.190 Y133.250 E0.0027
G1 X99.119 Y133.241 E0.0027
G1 X99.049 Y133.230 E0.0027
G1 X98.979 Y133.217 E0.0027
G1 X98.909 Y133.204 E0.0027
G1 X98.839 Y133.188 E0.0027
G1 X98.770 Y133.171 E0.0027
G1 X98.701 Y133.153 E0.0027
G1 X98.632 Y133.134 E0.0027
G1 X98.564 Y133.113 E0.0027
G1 X98.496 Y133.090 E0.0027
G1 X98.429 Y133.066 E0.0027
G1 X98.362 Y133.041 E0.0027
G1 X98.322 Y133.025 E0.0016
G1 X69.160 E1.1084
G1 Y126.611 E0.2438
M73 P0 R186
G1 X98.322 E1.1084
G1 X98.362 Y126.595 E0.0016
G1 X98.429 Y126.570 E0.0027
G1 X98.496 Y126.546 E0.0027
G1 X98.564 Y126.523 E0.0027
G1 X98.632 Y126.502 E0.0027
G1 X98.701 Y126.483 E0.0027
G1 X98.770 Y126.465 E0.0027
G1 X98.839 Y126.448 E0.0027
G1 X98.909 Y126.432 E0.0027
G1 X98.979 Y126.419 E0.0027
G1 X99.049 Y126.406 E0.0027
G1 X99.119 Y126.395 E0.0027
G1 X99.190 Y126.386 E0.0027
G1 X99.261 Y126.378 E0.0027
G1 X99.332 Y126.371 E0.0027
G1 X99.403 Y126.366 E0.0027
G1 X99.474 Y126.362 E0.0027
G1 X99.546 Y126.360 E0.0027
G1 X99.617 Y126.359 E0.0027
G1 X99.688 Y126.360 E0.0027
G1 X99.760 Y126.362 E0.0027
G1 X99.831 Y126.366 E0.0027
G1 X99.902 Y126.371 E0.0027
G1 X99.973 Y126.378 E0.0027
G1 X100.044 Y126.386 E0.0027
G1 X100.115 Y126.395 E0.0027
G1 X100.185 Y126.406 E0.0027
G1 X100.255 Y126.419 E0.0027
G1 X100.325 Y126.432 E0.0027
G1 X100.395 Y126.448 E0.0027
G1 X100.464 Y126.465 E0.0027
G1 X100.533 Y126.483 E0.0027
G1 X100.602 Y126.502 E0.0027
G1 X100.670 Y126.523 E0.0027
G1 X100.738 Y126.546 E0.0027
G1 X100.805 Y126.570 E0.0027
G1 X100.872 Y126.595 E0.0027
G1 X100.912 Y126.611 E0.0016
G1 X130.074 E1.1084
G1 X130.531 Y126.154
G1 Y133.482 E0.2785
G1 X100.998 E1.1225
G1 X100.962 Y133.496 E0.0015
G1 X100.886 Y133.523 E0.0031
G1 X100.809 Y133.548 E0.0031
G1 X100.732 Y133.572 E0.0031
G1 X100.654 Y133.594 E0.0031
G1 X100.576 Y133.615 E0.0031
G1 X100.498 Y133.634 E0.0031
G1 X100.419 Y133.651 E0.0031
G1 X100.340 Y133.667 E0.0031
G1 X100.260 Y133.681 E0.0031
G1 X100.180 Y133.693 E0.0031
G1 X100.100 Y133.704 E0.0031
G1 X100.020 Y133.713 E0.0031
G1 X99.940 Y133.721 E0.0031
G1 X99.859 Y133.726 E0.0031
G1 X99.778 Y133.731 E0.0031
G1 X99.698 Y133.733 E0.0031
G1 X99.617 Y133.734 E0.0031
G1 X99.536 Y133.733 E0.0031
G1 X99.456 Y133.731 E0.0031
G1 X99.375 Y133.726 E0.0031
G1 X99.294 Y133.721 E0.0031
G1 X99.214 Y133.713 E0.0031
G1 X99.134 Y133.704 E0.0031
G1 X99.054 Y133.693 E0.0031
G1 X98.974 Y133.681 E0.0031
G1 X98.894 Y133.667 E0.0031
G1 X98.815 Y133.651 E0.0031
G1 X98.736 Y133.634 E0.0031
G1 X98.658 Y133.615 E0.0031
G1 X98.580 Y133.594 E0.0031
G1 X98.502 Y133.572 E0.0031
G1 X98.425 Y133.548 E0.0031
G1 X98.348 Y133.523 E0.0031
G1 X98.272 Y133.496 E0.0031
G1 X98.236 Y133.482 E0.0015
G1 X68.703 E1.1225
G1 Y126.154 E0.2785
G1 X98.236 E1.1225
G1 X98.272 Y126.140 E0.0015
G1 X98.348 Y126.113 E0.0031
G1 X98.425 Y126.088 E0.0031
G1 X98.502 Y126.064 E0.0031
G1 X98.580 Y126.042 E0.0031
G1 X98.658 Y126.021 E0.0031
G1 X98.736 Y126.002 E0.0031
G1 X98.815 Y125.985 E0.0031
G1 X98.894 Y125.969 E0.0031
G1 X98.974 Y125.955 E0.0031
G1 X99.054 Y125.943 E0.0031
G1 X99.134 Y125.932 E0.0031
G1 X99.214 Y125.923 E0.0031
G1 X99.294 Y125.915 E0.0031
G1 X99.375 Y125.910 E0.0031
G1 X99.456 Y125.905 E0.0031
G1 X99.536 Y125.903 E0.0031
G1 X99.617 Y125.902 E0.0031
G1 X99.698 Y125.903 E0.0031
G1 X99.778 Y125.905 E0.0031
G1 X99.859 Y125.910 E0.0031
G1 X99.940 Y125.915 E0.0031
G1 X100.020 Y125.923 E0.0031
G1 X100.100 Y125.932 E0.0031
G1 X100.180 Y125.943 E0.0031
G1 X100.260 Y125.955 E0.0031
G1 X100.340 Y125.969 E0.0031
G1 X100.419 Y125.985 E0.0031
G1 X100.498 Y126.002 E0.0031
G1 X100.576 Y126.021 E0.0031
G1 X100.654 Y126.042 E0.0031
G1 X100.732 Y126.064 E0.0031
G1 X100.809 Y126.088 E0.0031
G1 X100.886 Y126.113 E0.0031
G1 X100.962 Y126.140 E0.0031
G1 X100.998 Y126.154 E0.0015
G1 X130.531 E1.1225
G1 X130.988 Y125.697
G1 Y133.939 E0.3133
G1 X101.079 E1.1368
G1 X101.034 Y133.955 E0.0018
G1 X100.948 Y133.983 E0.0034
G1 X100.862 Y134.010 E0.0034
G1 X100.775 Y134.035 E0.0034
G1 X100.688 Y134.058 E0.0034
G1 X100.600 Y134.079 E0.0034
G1 X100.512 Y134.098 E0.0034
G1 X100.424 Y134.116 E0.0034
G1 X100.335 Y134.132 E0.0034
G1 X100.246 Y134.146 E0.0034
G1 X100.157 Y134.158 E0.0034
G1 X100.067 Y134.168 E0.0034
G1 X99.977 Y134.176 E0.0034
G1 X99.887 Y134.183 E0.0034
G1 X99.797 Y134.187 E0.0034
G1 X99.707 Y134.190 E0.0034
G1 X99.617 Y134.191 E0.0034
G1 X99.527 Y134.190 E0.0034
G1 X99.437 Y134.187 E0.0034
G1 X99.347 Y134.183 E0.0034
G1 X99.257 Y134.176 E0.0034
G1 X99.167 Y134.168 E0.0034
G1 X99.077 Y134.158 E0.0034
G1 X98.988 Y134.146 E0.0034
G1 X98.899 Y134.132 E0.0034
G1 X98.810 Y134.116 E0.0034
G1 X98.722 Y134.098 E0.0034
G1 X98.634 Y134.079 E0.0034
G1 X98.546 Y134.058 E0.0034
G1 X98.459 Y134.035 E0.0034
G1 X98.372 Y134.010 E0.0034
G1 X98.286 Y133.983 E0.0034
G1 X98.200 Y133.955 E0.0034
G1 X98.155 Y133.939 E0.0018
G1 X68.246 E1.1368
G1 Y125.697 E0.3133
G1 X98.155 E1.1368
G1 X98.200 Y125.681 E0.0018
G1 X98.286 Y125.653 E0.0034
G1 X98.372 Y125.626 E0.0034
G1 X98.459 Y125.601 E0.0034
G1 X98.546 Y125.578 E0.0034
G1 X98.634 Y125.557 E0.0034
G1 X98.722 Y125.538 E0.0034
G1 X98.810 Y125.520 E0.0034
G1 X98.899 Y125.504 E0.0034
G1 X98.988 Y125.490 E0.0034
G1 X99.077 Y125.478 E0.0034
G1 X99.167 Y125.468 E0.0034
G1 X99.257 Y125.460 E0.0034
G1 X99.347 Y125.453 E0.0034
G1 X99.437 Y125.449 E0.0034
G1 X99.527 Y125.446 E0.0034
G1 X99.617 Y125.445 E0.0034
G1 X99.707 Y125.446 E0.0034
G1 X99.797 Y125.449 E0.0034
G1 X99.887 Y125.453 E0.0034
G1 X99.977 Y125.460 E0.0034
G1 X100.067 Y125.468 E0.0034
G1 X100.157 Y125.478 E0.0034
G1 X100.246 Y125.490 E0.0034
G1 X100.335 Y125.504 E0.0034
G1 X100.424 Y125.520 E0.0034
G1 X100.512 Y125.538 E0.0034
G1 X100.600 Y125.557 E0.0034
G1 X100.688 Y125.578 E0.0034
G1 X100.775 Y125.601 E0.0034
G1 X100.862 Y125.626 E0.0034
G1 X100.948 Y125.653 E0.0034
G1 X101.034 Y125.681 E0.0034
G1 X101.079 Y125.697 E0.0018
G1 X130.988 E1.1368
G1 X131.445 Y125.240
G1 Y134.396 E0.3480
G1 X101.155 E1.1512
G1 X101.087 Y134.419 E0.0027
G1 X100.992 Y134.448 E0.0038
G1 X100.896 Y134.476 E0.0038
G1 X100.800 Y134.501 E0.0038
G1 X100.703 Y134.524 E0.0038
G1 X100.606 Y134.546 E0.0038
G1 X100.508 Y134.565 E0.0038
G1 X100.410 Y134.583 E0.0038
G1 X100.312 Y134.598 E0.0038
G1 X100.213 Y134.611 E0.0038
G1 X100.114 Y134.622 E0.0038
G1 X100.015 Y134.632 E0.0038
G1 X99.916 Y134.639 E0.0038
G1 X99.816 Y134.644 E0.0038
G1 X99.717 Y134.647 E0.0038
G1 X99.617 Y134.648 E0.0038
G1 X99.517 Y134.647 E0.0038
G1 X99.418 Y134.644 E0.0038
G1 X99.318 Y134.639 E0.0038
G1 X99.219 Y134.632 E0.0038
G1 X99.120 Y134.622 E0.0038
G1 X99.021 Y134.611 E0.0038
G1 X98.922 Y134.598 E0.0038
G1 X98.824 Y134.583 E0.0038
G1 X98.726 Y134.565 E0.0038
G1 X98.628 Y134.546 E0.0038
G1 X98.531 Y134.524 E0.0038
G1 X98.434 Y134.501 E0.0038
G1 X98.338 Y134.476 E0.0038
G1 X98.242 Y134.448 E0.0038
G1 X98.147 Y134.419 E0.0038
G1 X98.079 Y134.396 E0.0027
G1 X67.789 E1.1512
G1 Y125.240 E0.3480
G1 X98.079 E1.1512
G1 X98.147 Y125.217 E0.0027
G1 X98.242 Y125.188 E0.0038
G1 X98.338 Y125.160 E0.0038
G1 X98.434 Y125.135 E0.0038
G1 X98.531 Y125.112 E0.0038
G1 X98.628 Y125.090 E0.0038
G1 X98.726 Y125.071 E0.0038
G1 X98.824 Y125.053 E0.0038
G1 X98.922 Y125.038 E0.0038
G1 X99.021 Y125.025 E0.0038
G1 X99.120 Y125.014 E0.0038
G1 X99.219 Y125.004 E0.0038
G1 X99.318 Y124.997 E0.0038
G1 X99.418 Y124.992 E0.0038
G1 X99.517 Y124.989 E0.0038
G1 X99.617 Y124.988 E0.0038
G1 X99.717 Y124.989 E0.0038
G1 X99.816 Y124.992 E0.0038
G1 X99.916 Y124.997 E0.0038
G1 X100.015 Y125.004 E0.0038
G1 X100.114 Y125.014 E0.0038
G1 X100.213 Y125.025 E0.0038
G1 X100.312 Y125.038 E0.0038
G1 X100.410 Y125.053 E0.0038
G1 X100.508 Y125.071 E0.0038
G1 X100.606 Y125.090 E0.0038
G1 X100.703 Y125.112 E0.0038
G1 X100.800 Y125.135 E0.0038
G1 X100.896 Y125.160 E0.0038
G1 X100.992 Y125.188 E0.0038
G1 X101.087 Y125.217 E0.0038
G1 X101.155 Y125.240 E0.0027
G1 X131.445 E1.1512
G1 X131.902 Y124.783
G1 Y134.853 E0.3828
G1 X101.229 E1.1658
G1 X101.226 Y134.854 E0.0001
G1 X101.122 Y134.886 E0.0041
G1 X101.017 Y134.916 E0.0041
G1 X100.912 Y134.944 E0.0041
G1 X100.806 Y134.970 E0.0041
G1 X100.700 Y134.993 E0.0041
G1 X100.593 Y135.014 E0.0041
G1 X100.485 Y135.033 E0.0041
G1 X100.378 Y135.050 E0.0041
G1 X100.269 Y135.065 E0.0041
G1 X100.161 Y135.077 E0.0041
G1 X100.053 Y135.087 E0.0041
G1 X99.944 Y135.095 E0.0041
G1 X99.835 Y135.101 E0.0041
G1 X99.726 Y135.104 E0.0041
G1 X99.617 Y135.105 E0.0041
G1 X99.508 Y135.104 E0.0041
G1 X99.399 Y135.101 E0.0041
G1 X99.290 Y135.095 E0.0041
G1 X99.181 Y135.087 E0.0041
G1 X99.073 Y135.077 E0.0041
G1 X98.965 Y135.065 E0.0041
G1 X98.856 Y135.050 E0.0041
G1 X98.749 Y135.033 E0.0041
G1 X98.641 Y135.014 E0.0041
G1 X98.534 Y134.993 E0.0041
G1 X98.428 Y134.970 E0.0041
G1 X98.322 Y134.944 E0.0041
G1 X98.217 Y134.916 E0.0041
G1 X98.112 Y134.886 E0.0041
G1 X98.008 Y134.854 E0.0041
