; generated by PrusaSlicer 2.9.5 on 2026-06-04 at 09:23:55 UTC

; 

; external perimeters extrusion width = 0.45mm
; perimeters extrusion width = 0.45mm
; infill extrusion width = 0.45mm
; solid infill extrusion width = 0.45mm
; top infill extrusion width = 0.42mm
; support material extrusion width = 0.36mm
; first layer extrusion width = 0.50mm

; external perimeters extrusion width = 0.45mm
; perimeters extrusion width = 0.45mm
; infill extrusion width = 0.45mm
; solid infill extrusion width = 0.45mm
; top infill extrusion width = 0.42mm
; support material extrusion width = 0.36mm
; first layer extrusion width = 0.50mm

; external perimeters extrusion width = 0.45mm
; perimeters extrusion width = 0.45mm
; infill extrusion width = 0.45mm
; solid infill extrusion width = 0.45mm
; top infill extrusion width = 0.42mm
; support material extrusion width = 0.36mm
; first layer extrusion width = 0.50mm

M73 P0 R119
;TYPE:Custom
M104 ; prevent pusaslicer from adding temperature commands
; run custom start G-code
T-1  ; clear tool selection
M144 S1 ; set bed as active
M140 S0 R0 ; set bed temp
G29 S1 ; activate mesh bed compensation and load saved heightmap

; turn off unused heaters



M104 T3 S0

; homming
G28 ; homing
; try picking tools used in print
G1 F24000
;
;T1
;T2
;
G0 Z5 ; add Z clearance
M190 S0 ; wait for bed temp

; set extruder temp
M104 T0 S220
M104 T1 S220
M104 T2 S240



;
; purge second tool
;
G1 F24000
T-1 ; park the tool
M109 T1 S220
T1 ; pick the tool
G92 E0 ; reset extruder position

G0 X320 Y155 Z10 F24000 ; move close to the sheet's edge
G0 E30 X310 Z0.2 F170 ; purge while moving towards the sheet
G0 X285 E39 F800 ; continue purging and wipe the nozzle
G0 X282 Z0.05 F8000 ; wipe, move close to the bed
G0 X279 Z0.2 F8000 ; wipe, move quickly away from the bed
G1 E-1.2 F2400 ; retract

G92 E0 ; reset extruder position

M104 S100 T1


;
; purge third tool
;
G1 F24000
T-1 ; park the tool
M109 T2 S240
T2 ; pick the tool
G92 E0 ; reset extruder position

G0 X320 Y135 Z10 F24000 ; move close to the sheet's edge
G0 E30 X310 Z0.2 F170 ; purge while moving towards the sheet
G0 X285 E39 F800 ; continue purging and wipe the nozzle
G0 X282 Z0.05 F8000 ; wipe, move close to the bed
G0 X279 Z0.2 F8000 ; wipe, move quickly away from the bed
G1 E-1.2 F2400 ; retract

G92 E0 ; reset extruder position

M104 S100 T2


;
; purge initial tool
;
G1 F24000
T-1 ; park the tool
M109 T0 S220
T0 ; pick the tool
G92 E0 ; reset extruder position

G0 X320 Y195 Z10 F24000 ; move close to the sheet's edge
G0 E30 X310 Z0.2 F170 ; purge while moving towards the sheet
G0 X285 E39 F800 ; continue purging and wipe the nozzle
G0 X282 Z0.05 F8000 ; wipe, move close to the bed
G0 X279 Z0.2 F8000 ; wipe, move quickly away from the bed
G1 E-1.5 F2400 ; retract



G92 E0 ; reset extruder position

G21 ; set units to millimeters
G90 ; use absolute coordinates
M83 ; use relative distances for extrusion
; Change Tool-1 -> Tool0 (layer -1)

; check if tool is already active at startup
T0 ; tool already active, don't change tools
; Filament gcode
M107
;LAYER_CHANGE
;Z:0.2
;HEIGHT:0.2
G1 Z.2 F720
G1 X120.2 Y91.85 F24000
G1 Z.2 F720
G1 E1.5 F3000
;HEIGHT:0.2
;TYPE:Wipe tower
;WIDTH:0.5
G1 X179.200 Y91.850 E2.2424 F1641
G1 Y94.850 E0.1140
G1 X120.200 E2.2424
G1 Y91.850 E0.1140
G1 X179.200
G1 Y94.850
G1 X178.200
;--------------------
; CP EMPTY GRID START
; layer #1
G1 Y94.350 E0.0190
G1 X120.700 E2.1854
G1 Y93.850 E0.0190
G1 X178.700 E2.2044
G1 Y93.350 E0.0190
G1 X120.700 E2.2044
G1 Y92.850 E0.0190
G1 X178.700 E2.2044
G1 Y92.350 E0.0190
G1 X120.700 E2.2044
G1 Y91.850 E0.0190
; CP EMPTY GRID END
;------------------






G1 X119.700 Y91.350
G1 X148.242 E1.0848
G1 X148.306 Y91.305 E0.0030
G1 X148.371 Y91.262 E0.0030
G1 X148.437 Y91.221 E0.0030
G1 X148.505 Y91.183 E0.0030
G1 X148.574 Y91.146 E0.0030
G1 X148.644 Y91.112 E0.0030
G1 X148.715 Y91.080 E0.0030
G1 X148.787 Y91.050 E0.0030
G1 X148.860 Y91.022 E0.0030
G1 X148.933 Y90.997 E0.0030
G1 X149.008 Y90.974 E0.0030
G1 X149.083 Y90.953 E0.0030
G1 X149.159 Y90.935 E0.0030
G1 X149.235 Y90.919 E0.0030
G1 X149.312 Y90.906 E0.0030
G1 X149.389 Y90.895 E0.0030
G1 X149.466 Y90.886 E0.0030
G1 X149.544 Y90.880 E0.0030
G1 X149.622 Y90.876 E0.0030
G1 X149.700 Y90.875 E0.0030
G1 X149.778 Y90.876 E0.0030
G1 X149.856 Y90.880 E0.0030
G1 X149.934 Y90.886 E0.0030
G1 X150.011 Y90.895 E0.0030
G1 X150.088 Y90.906 E0.0030
G1 X150.165 Y90.919 E0.0030
G1 X150.241 Y90.935 E0.0030
G1 X150.317 Y90.953 E0.0030
G1 X150.392 Y90.974 E0.0030
G1 X150.467 Y90.997 E0.0030
G1 X150.540 Y91.022 E0.0030
G1 X150.613 Y91.050 E0.0030
G1 X150.685 Y91.080 E0.0030
G1 X150.756 Y91.112 E0.0030
G1 X150.826 Y91.146 E0.0030
G1 X150.895 Y91.183 E0.0030
G1 X150.963 Y91.221 E0.0030
G1 X151.029 Y91.262 E0.0030
G1 X151.094 Y91.305 E0.0030
G1 X151.158 Y91.350 E0.0030
G1 X179.700 E1.0848
G1 Y95.350 E0.1520
G1 X151.158 E1.0848
G1 X151.094 Y95.395 E0.0030
G1 X151.029 Y95.438 E0.0030
G1 X150.963 Y95.479 E0.0030
G1 X150.895 Y95.517 E0.0030
G1 X150.826 Y95.554 E0.0030
G1 X150.756 Y95.588 E0.0030
G1 X150.685 Y95.620 E0.0030
G1 X150.613 Y95.650 E0.0030
G1 X150.540 Y95.678 E0.0030
G1 X150.467 Y95.703 E0.0030
G1 X150.392 Y95.726 E0.0030
G1 X150.317 Y95.747 E0.0030
G1 X150.241 Y95.765 E0.0030
G1 X150.165 Y95.781 E0.0030
G1 X150.088 Y95.794 E0.0030
G1 X150.011 Y95.805 E0.0030
G1 X149.934 Y95.814 E0.0030
G1 X149.856 Y95.820 E0.0030
G1 X149.778 Y95.824 E0.0030
G1 X149.700 Y95.825 E0.0030
G1 X149.622 Y95.824 E0.0030
G1 X149.544 Y95.820 E0.0030
G1 X149.466 Y95.814 E0.0030
G1 X149.389 Y95.805 E0.0030
G1 X149.312 Y95.794 E0.0030
G1 X149.235 Y95.781 E0.0030
G1 X149.159 Y95.765 E0.0030
G1 X149.083 Y95.747 E0.0030
G1 X149.008 Y95.726 E0.0030
G1 X148.933 Y95.703 E0.0030
G1 X148.860 Y95.678 E0.0030
G1 X148.787 Y95.650 E0.0030
G1 X148.715 Y95.620 E0.0030
G1 X148.644 Y95.588 E0.0030
G1 X148.574 Y95.554 E0.0030
G1 X148.505 Y95.517 E0.0030
G1 X148.437 Y95.479 E0.0030
G1 X148.371 Y95.438 E0.0030
G1 X148.306 Y95.395 E0.0030
G1 X148.242 Y95.350 E0.0030
G1 X119.700 E1.0848
G1 Y91.350 E0.1520
G1 X119.243 Y90.893
G1 X148.100 E1.0968
G1 X148.125 Y90.877 E0.0011
G1 X148.204 Y90.828 E0.0035
G1 X148.284 Y90.782 E0.0035
G1 X148.366 Y90.739 E0.0035
G1 X148.449 Y90.698 E0.0035
G1 X148.533 Y90.660 E0.0035
G1 X148.618 Y90.625 E0.0035
G1 X148.704 Y90.592 E0.0035
G1 X148.792 Y90.562 E0.0035
G1 X148.880 Y90.535 E0.0035
G1 X148.969 Y90.510 E0.0035
G1 X149.059 Y90.489 E0.0035
G1 X149.149 Y90.470 E0.0035
G1 X149.240 Y90.454 E0.0035
G1 X149.332 Y90.441 E0.0035
G1 X149.423 Y90.431 E0.0035
G1 X149.515 Y90.424 E0.0035
G1 X149.608 Y90.419 E0.0035
G1 X149.700 Y90.418 E0.0035
G1 X149.792 Y90.419 E0.0035
G1 X149.885 Y90.424 E0.0035
G1 X149.977 Y90.431 E0.0035
G1 X150.068 Y90.441 E0.0035
G1 X150.160 Y90.454 E0.0035
G1 X150.251 Y90.470 E0.0035
G1 X150.341 Y90.489 E0.0035
G1 X150.431 Y90.510 E0.0035
G1 X150.520 Y90.535 E0.0035
G1 X150.608 Y90.562 E0.0035
G1 X150.696 Y90.592 E0.0035
G1 X150.782 Y90.625 E0.0035
G1 X150.867 Y90.660 E0.0035
G1 X150.951 Y90.698 E0.0035
G1 X151.034 Y90.739 E0.0035
G1 X151.116 Y90.782 E0.0035
G1 X151.196 Y90.828 E0.0035
G1 X151.275 Y90.877 E0.0035
G1 X151.300 Y90.893 E0.0011
G1 X180.157 E1.0968
G1 Y95.807 E0.1868
G1 X151.300 E1.0968
M73 P0 R118
G1 X151.275 Y95.823 E0.0011
G1 X151.196 Y95.872 E0.0035
G1 X151.116 Y95.918 E0.0035
G1 X151.034 Y95.961 E0.0035
G1 X150.951 Y96.002 E0.0035
G1 X150.867 Y96.040 E0.0035
G1 X150.782 Y96.075 E0.0035
G1 X150.696 Y96.108 E0.0035
G1 X150.608 Y96.138 E0.0035
G1 X150.520 Y96.165 E0.0035
G1 X150.431 Y96.190 E0.0035
G1 X150.341 Y96.211 E0.0035
G1 X150.251 Y96.230 E0.0035
G1 X150.160 Y96.246 E0.0035
G1 X150.068 Y96.259 E0.0035
G1 X149.977 Y96.269 E0.0035
G1 X149.885 Y96.276 E0.0035
G1 X149.792 Y96.281 E0.0035
G1 X149.700 Y96.282 E0.0035
G1 X149.608 Y96.281 E0.0035
G1 X149.515 Y96.276 E0.0035
G1 X149.423 Y96.269 E0.0035
G1 X149.332 Y96.259 E0.0035
G1 X149.240 Y96.246 E0.0035
G1 X149.149 Y96.230 E0.0035
G1 X149.059 Y96.211 E0.0035
G1 X148.969 Y96.190 E0.0035
G1 X148.880 Y96.165 E0.0035
G1 X148.792 Y96.138 E0.0035
G1 X148.704 Y96.108 E0.0035
G1 X148.618 Y96.075 E0.0035
G1 X148.533 Y96.040 E0.0035
G1 X148.449 Y96.002 E0.0035
G1 X148.366 Y95.961 E0.0035
G1 X148.284 Y95.918 E0.0035
G1 X148.204 Y95.872 E0.0035
G1 X148.125 Y95.823 E0.0035
G1 X148.100 Y95.807 E0.0011
G1 X119.243 E1.0968
G1 Y90.893 E0.1868
G1 X118.786 Y90.436
G1 X147.969 E1.1092
G1 X147.971 Y90.435 E0.0001
G1 X148.063 Y90.382 E0.0041
G1 X148.158 Y90.332 E0.0041
G1 X148.253 Y90.285 E0.0041
G1 X148.351 Y90.241 E0.0041
G1 X148.449 Y90.200 E0.0041
G1 X148.549 Y90.162 E0.0041
G1 X148.650 Y90.127 E0.0041
G1 X148.752 Y90.096 E0.0041
G1 X148.855 Y90.068 E0.0041
G1 X148.959 Y90.043 E0.0041
G1 X149.063 Y90.021 E0.0041
G1 X149.168 Y90.003 E0.0041
G1 X149.274 Y89.988 E0.0041
G1 X149.380 Y89.976 E0.0041
G1 X149.487 Y89.967 E0.0041
G1 X149.593 Y89.962 E0.0041
G1 X149.700 Y89.961 E0.0041
G1 X149.807 Y89.962 E0.0041
G1 X149.913 Y89.967 E0.0041
G1 X150.020 Y89.976 E0.0041
G1 X150.126 Y89.988 E0.0041
G1 X150.232 Y90.003 E0.0041
G1 X150.337 Y90.021 E0.0041
G1 X150.441 Y90.043 E0.0041
G1 X150.545 Y90.068 E0.0041
G1 X150.648 Y90.096 E0.0041
G1 X150.750 Y90.127 E0.0041
G1 X150.851 Y90.162 E0.0041
G1 X150.951 Y90.200 E0.0041
G1 X151.049 Y90.241 E0.0041
G1 X151.147 Y90.285 E0.0041
G1 X151.242 Y90.332 E0.0041
G1 X151.337 Y90.382 E0.0041
G1 X151.429 Y90.435 E0.0041
G1 X151.431 Y90.436 E0.0001
G1 X180.614 E1.1092
G1 Y96.264 E0.2215
G1 X151.431 E1.1092
G1 X151.429 Y96.265 E0.0001
G1 X151.337 Y96.318 E0.0041
G1 X151.242 Y96.368 E0.0041
G1 X151.147 Y96.415 E0.0041
G1 X151.049 Y96.459 E0.0041
G1 X150.951 Y96.500 E0.0041
G1 X150.851 Y96.538 E0.0041
G1 X150.750 Y96.573 E0.0041
G1 X150.648 Y96.604 E0.0041
G1 X150.545 Y96.632 E0.0041
G1 X150.441 Y96.657 E0.0041
G1 X150.337 Y96.679 E0.0041
G1 X150.232 Y96.697 E0.0041
G1 X150.126 Y96.712 E0.0041
G1 X150.020 Y96.724 E0.0041
G1 X149.913 Y96.733 E0.0041
G1 X149.807 Y96.738 E0.0041
G1 X149.700 Y96.739 E0.0041
G1 X149.593 Y96.738 E0.0041
G1 X149.487 Y96.733 E0.0041
G1 X149.380 Y96.724 E0.0041
G1 X149.274 Y96.712 E0.0041
G1 X149.168 Y96.697 E0.0041
G1 X149.063 Y96.679 E0.0041
G1 X148.959 Y96.657 E0.0041
G1 X148.855 Y96.632 E0.0041
G1 X148.752 Y96.604 E0.0041
G1 X148.650 Y96.573 E0.0041
G1 X148.549 Y96.538 E0.0041
G1 X148.449 Y96.500 E0.0041
G1 X148.351 Y96.459 E0.0041
G1 X148.253 Y96.415 E0.0041
G1 X148.158 Y96.368 E0.0041
G1 X148.063 Y96.318 E0.0041
G1 X147.971 Y96.265 E0.0041
G1 X147.969 Y96.264 E0.0001
G1 X118.786 E1.1092
G1 Y90.436 E0.2215
G1 X118.329 Y89.979
G1 X147.848 E1.1219
G1 X147.950 Y89.925 E0.0044
G1 X148.058 Y89.871 E0.0046
G1 X148.169 Y89.821 E0.0046
G1 X148.281 Y89.775 E0.0046
G1 X148.394 Y89.732 E0.0046
G1 X148.508 Y89.693 E0.0046
G1 X148.624 Y89.657 E0.0046
G1 X148.741 Y89.625 E0.0046
G1 X148.859 Y89.597 E0.0046
G1 X148.977 Y89.572 E0.0046
G1 X149.097 Y89.551 E0.0046
G1 X149.217 Y89.534 E0.0046
G1 X149.337 Y89.521 E0.0046
G1 X149.458 Y89.511 E0.0046
G1 X149.579 Y89.505 E0.0046
G1 X149.700 Y89.504 E0.0046
G1 X149.821 Y89.505 E0.0046
G1 X149.942 Y89.511 E0.0046
G1 X150.063 Y89.521 E0.0046
G1 X150.183 Y89.534 E0.0046
G1 X150.303 Y89.551 E0.0046
G1 X150.423 Y89.572 E0.0046
G1 X150.541 Y89.597 E0.0046
G1 X150.659 Y89.625 E0.0046
G1 X150.776 Y89.657 E0.0046
G1 X150.892 Y89.693 E0.0046
G1 X151.006 Y89.732 E0.0046
G1 X151.119 Y89.775 E0.0046
G1 X151.231 Y89.821 E0.0046
G1 X151.342 Y89.871 E0.0046
G1 X151.450 Y89.925 E0.0046
G1 X151.550 Y89.978 E0.0043
G1 X181.071 Y89.979 E1.1220
G1 Y96.721 E0.2563
G1 X151.552 E1.1219
G1 X151.450 Y96.775 E0.0044
G1 X151.342 Y96.829 E0.0046
G1 X151.231 Y96.879 E0.0046
G1 X151.119 Y96.925 E0.0046
G1 X151.006 Y96.968 E0.0046
G1 X150.892 Y97.007 E0.0046
G1 X150.776 Y97.043 E0.0046
G1 X150.659 Y97.075 E0.0046
G1 X150.541 Y97.103 E0.0046
G1 X150.423 Y97.128 E0.0046
G1 X150.303 Y97.149 E0.0046
G1 X150.183 Y97.166 E0.0046
G1 X150.063 Y97.179 E0.0046
G1 X149.942 Y97.189 E0.0046
G1 X149.821 Y97.195 E0.0046
G1 X149.700 Y97.196 E0.0046
G1 X149.579 Y97.195 E0.0046
G1 X149.458 Y97.189 E0.0046
G1 X149.337 Y97.179 E0.0046
G1 X149.217 Y97.166 E0.0046
G1 X149.097 Y97.149 E0.0046
G1 X148.977 Y97.128 E0.0046
G1 X148.859 Y97.103 E0.0046
G1 X148.741 Y97.075 E0.0046
G1 X148.624 Y97.043 E0.0046
G1 X148.508 Y97.007 E0.0046
G1 X148.394 Y96.968 E0.0046
G1 X148.281 Y96.925 E0.0046
G1 X148.169 Y96.879 E0.0046
G1 X148.058 Y96.829 E0.0046
G1 X147.950 Y96.775 E0.0046
G1 X147.850 Y96.722 E0.0043
G1 X118.329 Y96.721 E1.1220
G1 Y89.979 E0.2563
G1 X117.872 Y89.522
G1 X147.734 E1.1350
G1 X147.742 Y89.518 E0.0003
G1 X147.863 Y89.458 E0.0052
G1 X147.987 Y89.402 E0.0052
G1 X148.112 Y89.350 E0.0052
G1 X148.239 Y89.302 E0.0052
G1 X148.367 Y89.258 E0.0052
G1 X148.496 Y89.218 E0.0052
G1 X148.627 Y89.182 E0.0052
G1 X148.759 Y89.151 E0.0052
G1 X148.892 Y89.123 E0.0052
G1 X149.025 Y89.100 E0.0052
G1 X149.159 Y89.080 E0.0052
G1 X149.294 Y89.066 E0.0052
G1 X149.429 Y89.055 E0.0052
G1 X149.564 Y89.049 E0.0052
G1 X149.700 Y89.046 E0.0052
G1 X149.836 Y89.049 E0.0052
G1 X149.971 Y89.055 E0.0052
G1 X150.106 Y89.066 E0.0052
G1 X150.241 Y89.080 E0.0052
G1 X150.375 Y89.100 E0.0052
G1 X150.508 Y89.123 E0.0052
G1 X150.641 Y89.151 E0.0052
G1 X150.773 Y89.182 E0.0052
G1 X150.904 Y89.218 E0.0052
G1 X151.033 Y89.258 E0.0052
G1 X151.161 Y89.302 E0.0052
G1 X151.288 Y89.350 E0.0052
G1 X151.413 Y89.402 E0.0052
G1 X151.537 Y89.458 E0.0052
G1 X151.658 Y89.518 E0.0052
G1 X151.664 Y89.521 E0.0002
G1 X181.528 Y89.522 E1.1350
G1 Y97.178 E0.2910
G1 X151.666 E1.1350
G1 X151.658 Y97.182 E0.0003
G1 X151.537 Y97.242 E0.0052
G1 X151.413 Y97.298 E0.0052
G1 X151.288 Y97.350 E0.0052
G1 X151.161 Y97.398 E0.0052
G1 X151.033 Y97.442 E0.0052
G1 X150.904 Y97.482 E0.0052
G1 X150.773 Y97.518 E0.0052
G1 X150.641 Y97.549 E0.0052
G1 X150.508 Y97.577 E0.0052
G1 X150.375 Y97.600 E0.0052
G1 X150.241 Y97.620 E0.0052
G1 X150.106 Y97.634 E0.0052
G1 X149.971 Y97.645 E0.0052
G1 X149.836 Y97.651 E0.0052
G1 X149.700 Y97.654 E0.0052
G1 X149.564 Y97.651 E0.0052
G1 X149.429 Y97.645 E0.0052
G1 X149.294 Y97.634 E0.0052
G1 X149.159 Y97.620 E0.0052
G1 X149.025 Y97.600 E0.0052
G1 X148.892 Y97.577 E0.0052
G1 X148.759 Y97.549 E0.0052
G1 X148.627 Y97.518 E0.0052
G1 X148.496 Y97.482 E0.0052
G1 X148.367 Y97.442 E0.0052
G1 X148.239 Y97.398 E0.0052
G1 X148.112 Y97.350 E0.0052
G1 X147.987 Y97.298 E0.0052
G1 X147.863 Y97.242 E0.0052
G1 X147.742 Y97.182 E0.0052
G1 X147.736 Y97.179 E0.0002
G1 X117.872 Y97.178 E1.1350
G1 Y89.522 E0.2910
G1 X117.415 Y89.065
G1 X147.627 E1.1483
G1 X147.668 Y89.045 E0.0017
M73 P1 R118
G1 X147.805 Y88.983 E0.0057
G1 X147.943 Y88.925 E0.0057
G1 X148.083 Y88.872 E0.0057
G1 X148.225 Y88.823 E0.0057
G1 X148.368 Y88.779 E0.0057
G1 X148.513 Y88.740 E0.0057
G1 X148.659 Y88.705 E0.0057
G1 X148.806 Y88.674 E0.0057
G1 X148.953 Y88.648 E0.0057
G1 X149.102 Y88.627 E0.0057
G1 X149.251 Y88.610 E0.0057
G1 X149.400 Y88.599 E0.0057
G1 X149.550 Y88.592 E0.0057
G1 X149.700 Y88.589 E0.0057
G1 X149.850 Y88.592 E0.0057
G1 X150.000 Y88.599 E0.0057
G1 X150.149 Y88.610 E0.0057
G1 X150.298 Y88.627 E0.0057
G1 X150.447 Y88.648 E0.0057
G1 X150.594 Y88.674 E0.0057
G1 X150.741 Y88.705 E0.0057
G1 X150.887 Y88.740 E0.0057
G1 X151.032 Y88.779 E0.0057
G1 X151.175 Y88.823 E0.0057
G1 X151.317 Y88.872 E0.0057
G1 X151.457 Y88.925 E0.0057
G1 X151.595 Y88.983 E0.0057
G1 X151.732 Y89.045 E0.0057
G1 X151.771 Y89.064 E0.0017
G1 X181.985 Y89.065 E1.1483
G1 Y97.635 E0.3257
G1 X151.773 E1.1483
G1 X151.732 Y97.655 E0.0017
G1 X151.595 Y97.717 E0.0057
G1 X151.457 Y97.775 E0.0057
G1 X151.317 Y97.828 E0.0057
G1 X151.175 Y97.877 E0.0057
G1 X151.032 Y97.921 E0.0057
G1 X150.887 Y97.960 E0.0057
G1 X150.741 Y97.995 E0.0057
G1 X150.594 Y98.026 E0.0057
G1 X150.447 Y98.052 E0.0057
G1 X150.298 Y98.073 E0.0057
G1 X150.149 Y98.090 E0.0057
G1 X150.000 Y98.101 E0.0057
G1 X149.850 Y98.108 E0.0057
G1 X149.700 Y98.111 E0.0057
G1 X149.550 Y98.108 E0.0057
G1 X149.400 Y98.101 E0.0057
G1 X149.251 Y98.090 E0.0057
G1 X149.102 Y98.073 E0.0057
G1 X148.953 Y98.052 E0.0057
G1 X148.806 Y98.026 E0.0057
G1 X148.659 Y97.995 E0.0057
G1 X148.513 Y97.960 E0.0057
G1 X148.368 Y97.921 E0.0057
