; generated by PrusaSlicer 2.9.5 on 2026-06-11 at 14:07:35 UTC

; 

; external perimeters extrusion width = 0.45mm
; perimeters extrusion width = 0.45mm
; infill extrusion width = 0.45mm
; solid infill extrusion width = 0.45mm
; top infill extrusion width = 0.42mm
; support material extrusion width = 0.36mm
; first layer extrusion width = 0.50mm

; external perimeters extrusion width = 0.45mm
; perimeters extrusion width = 0.45mm
; infill extrusion width = 0.45mm
; solid infill extrusion width = 0.45mm
; top infill extrusion width = 0.42mm
; support material extrusion width = 0.36mm
; first layer extrusion width = 0.50mm

; external perimeters extrusion width = 0.45mm
; perimeters extrusion width = 0.45mm
; infill extrusion width = 0.45mm
; solid infill extrusion width = 0.45mm
; top infill extrusion width = 0.42mm
; support material extrusion width = 0.36mm
; first layer extrusion width = 0.50mm

; external perimeters extrusion width = 0.45mm
; perimeters extrusion width = 0.45mm
; infill extrusion width = 0.45mm
; solid infill extrusion width = 0.45mm
; top infill extrusion width = 0.42mm
; support material extrusion width = 0.36mm
; first layer extrusion width = 0.50mm

M73 P0 R133
;TYPE:Custom
M104 ; prevent pusaslicer from adding temperature commands
; run custom start G-code
T-1  ; clear tool selection
M144 S1 ; set bed as active
M140 S0 R0 ; set bed temp
G29 S1 ; activate mesh bed compensation and load saved heightmap

; turn off unused heaters



M104 T3 S0

; homming
G28 ; homing
; try picking tools used in print
G1 F24000
;
;T1
;T2
;
G0 Z5 ; add Z clearance
M190 S0 ; wait for bed temp

; set extruder temp
M104 T0 S220
M104 T1 S220
M104 T2 S240



;
; purge second tool
;
G1 F24000
T-1 ; park the tool
M109 T1 S220
T1 ; pick the tool
G92 E0 ; reset extruder position

G0 X320 Y155 Z10 F24000 ; move close to the sheet's edge
G0 E30 X310 Z0.2 F170 ; purge while moving towards the sheet
G0 X285 E39 F800 ; continue purging and wipe the nozzle
G0 X282 Z0.05 F8000 ; wipe, move close to the bed
G0 X279 Z0.2 F8000 ; wipe, move quickly away from the bed
G1 E-1.2 F2400 ; retract

G92 E0 ; reset extruder position

M104 S100 T1


;
; purge third tool
;
G1 F24000
T-1 ; park the tool
M109 T2 S240
T2 ; pick the tool
G92 E0 ; reset extruder position

G0 X320 Y135 Z10 F24000 ; move close to the sheet's edge
G0 E30 X310 Z0.2 F170 ; purge while moving towards the sheet
G0 X285 E39 F800 ; continue purging and wipe the nozzle
G0 X282 Z0.05 F8000 ; wipe, move close to the bed
G0 X279 Z0.2 F8000 ; wipe, move quickly away from the bed
G1 E-1.2 F2400 ; retract

G92 E0 ; reset extruder position

M104 S100 T2


;
; purge initial tool
;
G1 F24000
T-1 ; park the tool
M109 T0 S220
T0 ; pick the tool
G92 E0 ; reset extruder position

G0 X320 Y195 Z10 F24000 ; move close to the sheet's edge
G0 E30 X310 Z0.2 F170 ; purge while moving towards the sheet
G0 X285 E39 F800 ; continue purging and wipe the nozzle
G0 X282 Z0.05 F8000 ; wipe, move close to the bed
G0 X279 Z0.2 F8000 ; wipe, move quickly away from the bed
G1 E-1.5 F2400 ; retract



G92 E0 ; reset extruder position

G21 ; set units to millimeters
G90 ; use absolute coordinates
M83 ; use relative distances for extrusion
; Change Tool-1 -> Tool0 (layer -1)

; check if tool is already active at startup
T0 ; tool already active, don't change tools
; Filament gcode
M107
;LAYER_CHANGE
;Z:0.2
;HEIGHT:0.2
G1 Z.2 F720
G1 X133.711 Y82.914 F24000
G1 Z.2 F720
G1 E1.5 F3000
;TYPE:Skirt/Brim
;WIDTH:0.5
;HEIGHT:0.2
G1 F1640.852
G1 X134.845 Y81.119 E.08312
G1 X136.559 Y79.865 E.08314
G1 X139 Y79.314 E.09796
G1 X161 Y79.314 E.86122
G1 X164.031 Y80.19 E.12351
G1 X246.231 Y131.99 E3.80348
G1 X247.784 Y133.438 E.08312
G1 X248.698 Y135.354 E.0831
G1 X248.885 Y136.8 E.05708
G1 X248.885 Y149.7 E.50499
G1 X248.489 Y151.786 E.08312
G1 X247.355 Y153.581 E.08312
G1 X245.641 Y154.834 E.08311
G1 X243.2 Y155.385 E.09796
G1 X176.8 Y155.385 E2.59933
G1 X174.714 Y154.989 E.08312
G1 X172.956 Y153.888 E.0812
G1 X135.155 Y119.188 E2.00872
G1 X133.887 Y117.486 E.08308
G1 X133.314 Y115 E.09987
G1 X133.314 Y85 E1.1744
G1 X133.7 Y82.973 E.08078
G1 E-1.5 F3000
G1 X239.5 Y140.5 F24000
G1 E1.5 F3000
;HEIGHT:0.2
;TYPE:Wipe tower
;WIDTH:0.5
G1 X239.500 Y142.500 E0.0760 F1641
G1 X180.500 E2.2424
G1 Y140.500 E0.0760
G1 X239.500 E2.2424
G1 Y142.500
G1 X238.500
;--------------------
; CP EMPTY GRID START
; layer #1
G1 Y142.000 E0.0190
G1 X181.000 E2.1854
G1 Y141.500 E0.0190
G1 X239.000 E2.2044
G1 Y141.000 E0.0190
M73 P0 R132
G1 X181.000 E2.2044
G1 Y140.500 E0.0190
; CP EMPTY GRID END
;------------------






G1 X180.000 Y140.000
G1 X240.000 E2.2804
G1 Y146.500 E0.2470
G1 X180.000 E2.2804
G1 Y140.000 E0.2470
G1 X179.543 Y139.543
G1 X240.457 E2.3151
G1 Y146.957 E0.2818
G1 X179.543 E2.3151
G1 Y139.543 E0.2818
G1 X179.086 Y139.086
G1 X240.914 E2.3499
G1 Y147.414 E0.3165
G1 X179.086 E2.3499
G1 Y139.086 E0.3165
G1 X178.629 Y138.629
G1 X241.371 E2.3846
G1 Y147.871 E0.3513
G1 X178.629 E2.3846
G1 Y138.629 E0.3513
G1 X178.172 Y138.172
G1 X241.828 E2.4194
G1 Y148.328 E0.3860
G1 X178.172 E2.4194
G1 Y138.172 E0.3860
G1 X177.715 Y137.715
G1 X242.285 E2.4541
G1 Y148.785 E0.4208
G1 X177.715 E2.4541
M73 P1 R132
G1 Y137.715 E0.4208
G1 X177.258 Y137.258
G1 X242.742 E2.4888
G1 Y149.242 E0.4555
G1 X177.258 E2.4888
G1 Y137.258 E0.4555
G1 X176.800 Y136.800
G1 X243.200 E2.5236
G1 Y149.700 E0.4902
G1 X176.800 E2.5236
G1 Y136.800 E0.4902
G1 X239.750 Y146.250 F7200
;HEIGHT:0.2
;TYPE:Wipe tower
;WIDTH:0.5
;--------------------
; CP TOOLCHANGE START
; toolchange #1
; material : FLEX -> FLEX
;--------------------
M220 S100
; CP TOOLCHANGE UNLOAD
;WIDTH:1
;WIDTH:0.5
G4 S0
G1 E-1.2 F3000
; Filament-specific end gcode 
;END gcode for filament
; Change Tool0 -> Tool1 (layer 0)

  ; run tool change as expected
G1 E-2 F2000 ; retract filament
T-1 ; drop off current tool
M109 S220 T1
T1      ; pick up next tool
	; if layer height is above the minimum, enable fan
	               M106 S255 ; set part cooling fan based on filament profile
	
; Filament gcode

G1 F24000
G1 X239.250 Y145.000
G1 Z.2 F720
G1 E1.2 F1200
G4 S0
G1 Y145.500
; CP TOOLCHANGE WIPE
;WIDTH:0.5
G1 X180.250 E2.2424 F656
G1 X181.000 Y145.000 E0.0343
G1 X239.750 E2.2329
G1 X239.000 Y144.500 E0.0343
G1 X181.000 E2.2044
G1 Y144.000 E0.0190
M73 P1 R131
G1 X239.000 E2.2044
G1 Y143.500 E0.0190
G1 X180.250 E2.2329
G1 X181.000 Y143.000 E0.0343
G1 X239.750 E2.2329
;WIDTH:0.5
G1 F24000
G4 S0
G92 E0
; CP TOOLCHANGE END
;------------------



G1 E-.7 F2400
G1 X248.428 Y143 F24000
G1 E.7 F1200
;TYPE:Skirt/Brim
;WIDTH:0.5
;HEIGHT:0.2
G1 F656.341
G1 X248.428 Y149.7 E.29284
G1 X248.032 Y151.696 E.08894
G1 X246.903 Y153.39 E.08898
G1 X245.214 Y154.525 E.08894
G1 X243.2 Y154.928 E.08977
G1 X176.8 Y154.928 E2.90216
G1 X174.804 Y154.532 E.08894
G1 X173.265 Y153.551 E.07977
G1 X135.464 Y118.852 E2.24271
G1 X134.261 Y117.21 E.08897
G1 X133.771 Y115 E.09894
G1 X133.771 Y85 E1.31122
G1 X134.168 Y83.004 E.08895
G1 X135.296 Y81.31 E.08895
G1 X136.986 Y80.175 E.08898
G1 X139 Y79.771 E.08978
G1 X161 Y79.771 E.96156
G1 X163.788 Y80.577 E.12685
G1 X245.987 Y132.377 E4.24657
G1 X247.465 Y133.777 E.08898
G1 X248.296 Y135.634 E.08892
G1 X248.428 Y136.8 E.05129
G1 X248.428 Y142.94 E.26836
G1 E-.7 F2400
G1 X150 Y113.786 F24000
G1 E.7 F1200
;TYPE:Perimeter
;WIDTH:0.499999
G1 F656.342
G1 X140.214 Y113.786 E.42772
G1 X140.214 Y86.214 E1.2051
G1 X159.786 Y86.214 E.85544
M73 P2 R131
G1 X159.786 Y113.786 E1.2051
G1 X150.06 Y113.786 E.4251
G1 X150 Y114.243 F24000
G1 F656.342
G1 X139.757 Y114.243 E.44769
G1 X139.757 Y85.757 E1.24504
G1 X160.243 Y85.757 E.89539
M73 P2 R130
G1 X160.243 Y114.243 E1.24504
G1 X150.06 Y114.243 E.44507
G1 X150 Y114.7 F24000
;TYPE:External perimeter
G1 F656.342
G1 X139.3 Y114.7 E.46767
G1 X139.3 Y85.3 E1.28499
G1 X160.7 Y85.3 E.93533
G1 X160.7 Y114.7 E1.28499
G1 X150.06 Y114.7 E.46504
G1 X149.66 Y114.7 F24000
G1 E-.7 F2400
G1 X159.603 Y87.334 F24000
G1 E.7 F1200
;TYPE:Solid infill
;WIDTH:0.506059
G1 F647.754
G1 X158.872 Y86.603 E.04578
G1 X158.217 Y86.603 E.02901
G1 X159.397 Y87.783 E.0739
G1 X159.397 Y88.438 E.02901
G1 X157.562 Y86.603 E.11493
G1 X156.907 Y86.603 E.02901
G1 X159.397 Y89.093 E.15595
G1 X159.397 Y89.748 E.02901
G1 X156.252 Y86.603 E.19697
G1 X155.597 Y86.603 E.02901
G1 X159.397 Y90.403 E.238
G1 X159.397 Y91.058 E.02901
G1 X154.942 Y86.603 E.27902
G1 X154.287 Y86.603 E.02901
G1 X159.397 Y91.713 E.32004
G1 X159.397 Y92.368 E.02901
G1 X153.632 Y86.603 E.36107
G1 X152.977 Y86.603 E.02901
G1 X159.397 Y93.023 E.40209
G1 X159.397 Y93.678 E.02901
G1 X152.322 Y86.603 E.44311
G1 X151.667 Y86.603 E.02901
G1 X159.397 Y94.333 E.48414
G1 X159.397 Y94.988 E.02901
G1 X151.012 Y86.603 E.52516
G1 X150.357 Y86.603 E.02901
G1 X159.397 Y95.643 E.56618
G1 X159.397 Y96.298 E.02901
G1 X149.702 Y86.603 E.60721
G1 X149.047 Y86.603 E.02901
G1 X159.397 Y96.953 E.64823
G1 X159.397 Y97.608 E.02901
G1 X148.392 Y86.603 E.68925
G1 X147.737 Y86.603 E.02901
G1 X159.397 Y98.263 E.73028
G1 X159.397 Y98.918 E.02901
G1 X147.082 Y86.603 E.7713
G1 X146.427 Y86.603 E.02901
G1 X159.397 Y99.573 E.81232
G1 X159.397 Y100.228 E.02901
G1 X145.772 Y86.603 E.85335
G1 X145.117 Y86.603 E.02901
G1 X159.397 Y100.883 E.89437
G1 X159.397 Y101.538 E.02901
G1 X144.462 Y86.603 E.93539
G1 X143.807 Y86.603 E.02901
G1 X159.397 Y102.193 E.97641
G1 X159.397 Y102.848 E.02901
G1 X143.152 Y86.603 E1.01744
G1 X142.497 Y86.603 E.02901
G1 X159.397 Y103.503 E1.05846
G1 X159.397 Y104.158 E.02901
G1 X141.842 Y86.603 E1.09948
G1 X141.187 Y86.603 E.02901
G1 X159.397 Y104.813 E1.14051
G1 X159.397 Y105.468 E.02901
G1 X140.603 Y86.673 E1.17712
G1 X140.603 Y87.328 E.02901
G1 X159.397 Y106.122 E1.17708
G1 X159.397 Y106.777 E.02901
G1 X140.603 Y87.983 E1.17708
G1 X140.603 Y88.638 E.02901
M73 P2 R129
G1 X159.397 Y107.432 E1.17708
G1 X159.397 Y108.087 E.02901
G1 X140.603 Y89.293 E1.17708
G1 X140.603 Y89.948 E.02901
G1 X159.397 Y108.742 E1.17708
G1 X159.397 Y109.397 E.02901
G1 X140.603 Y90.603 E1.17708
G1 X140.603 Y91.258 E.02901
G1 X159.397 Y110.052 E1.17708
G1 X159.397 Y110.707 E.02901
M73 P3 R129
G1 X140.603 Y91.913 E1.17708
G1 X140.603 Y92.568 E.02901
G1 X159.397 Y111.362 E1.17708
G1 X159.397 Y112.017 E.02901
G1 X140.603 Y93.223 E1.17708
G1 X140.603 Y93.878 E.02901
G1 X159.397 Y112.672 E1.17708
G1 X159.397 Y113.327 E.02901
G1 X140.603 Y94.533 E1.17708
G1 X140.603 Y95.188 E.02901
G1 X158.812 Y113.397 E1.14044
G1 X158.157 Y113.397 E.02901
G1 X140.603 Y95.843 E1.09942
G1 X140.603 Y96.498 E.02901
G1 X157.502 Y113.397 E1.0584
G1 X156.848 Y113.397 E.02896
G1 X140.603 Y97.152 E1.01744
G1 X140.603 Y97.807 E.02901
G1 X156.193 Y113.397 E.97641
G1 X155.538 Y113.397 E.02901
G1 X140.603 Y98.462 E.93539
G1 X140.603 Y99.117 E.02901
G1 X154.883 Y113.397 E.89437
G1 X154.228 Y113.397 E.02901
G1 X140.603 Y99.772 E.85335
G1 X140.603 Y100.427 E.02901
G1 X153.573 Y113.397 E.81232
G1 X152.918 Y113.397 E.02901
G1 X140.603 Y101.082 E.7713
G1 X140.603 Y101.737 E.02901
G1 X152.263 Y113.397 E.73028
G1 X151.608 Y113.397 E.02901
G1 X140.603 Y102.392 E.68925
G1 X140.603 Y103.047 E.02901
G1 X150.953 Y113.397 E.64823
G1 X150.298 Y113.397 E.02901
G1 X140.603 Y103.702 E.60721
G1 X140.603 Y104.357 E.02901
G1 X149.643 Y113.397 E.56618
G1 X148.988 Y113.397 E.02901
G1 X140.603 Y105.012 E.52516
G1 X140.603 Y105.667 E.02901
G1 X148.333 Y113.397 E.48414
G1 X147.678 Y113.397 E.02901
G1 X140.603 Y106.322 E.44311
G1 X140.603 Y106.977 E.02901
G1 X147.023 Y113.397 E.40209
G1 X146.368 Y113.397 E.02901
G1 X140.603 Y107.632 E.36107
G1 X140.603 Y108.287 E.02901
G1 X145.713 Y113.397 E.32004
G1 X145.058 Y113.397 E.02901
G1 X140.603 Y108.942 E.27902
G1 X140.603 Y109.597 E.02901
G1 X144.403 Y113.397 E.238
G1 X143.748 Y113.397 E.02901
G1 X140.603 Y110.252 E.19697
G1 X140.603 Y110.907 E.02901
M73 P3 R128
G1 X143.093 Y113.397 E.15595
G1 X142.438 Y113.397 E.02901
G1 X140.603 Y111.562 E.11493
G1 X140.603 Y112.217 E.02901
G1 X141.783 Y113.397 E.0739
G1 X141.128 Y113.397 E.02901
G1 X140.397 Y112.666 E.04578
;LAYER_CHANGE
;Z:0.4
;HEIGHT:0.2
;BEFORE_LAYER_CHANGE
G92 E0.0
;0.4

G1 E-.7 F2400
G1 Z.4 F720
G1 X150 Y113.961 F24000
G1 E.7 F1200
;TYPE:Perimeter
;WIDTH:0.449999
;HEIGHT:0.2
G1 F736.958
G1 X140.039 Y113.961 E.38774
G1 X140.039 Y86.039 E1.08689
G1 X159.961 Y86.039 E.77549
G1 X159.961 Y113.961 E1.08689
G1 X150.06 Y113.961 E.38541
G1 X150 Y114.368 F24000
G1 F736.958
G1 X139.632 Y114.368 E.40359
G1 X139.632 Y85.632 E1.11858
G1 X160.368 Y85.632 E.80717
G1 X160.368 Y114.368 E1.11858
G1 X150.06 Y114.368 E.40125
G1 X150 Y114.775 F24000
;TYPE:External perimeter
G1 F736.958
G1 X139.225 Y114.775 E.41943
G1 X139.225 Y85.225 E1.15027
G1 X160.775 Y85.225 E.83886
G1 X160.775 Y114.775 E1.15027
G1 X150.06 Y114.775 E.41709
G1 X149.66 Y114.775 F24000
G1 E-.7 F2400
G1 X140.496 Y86.418 F24000
G1 E.7 F1200
;TYPE:Solid infill
;WIDTH:0.548766
G1 F593.066
G2 X140.479 Y86.479 I-.059 J.017 E.0152
;WIDTH:0.449999
G1 F736.958
G1 X140.385 Y87.129 E.02557
G1 X141.129 Y86.385 E.04096
G1 X141.223 Y86.313 E.00461
;WIDTH:0.41646
G1 F803.128
G1 X141.316 Y86.241 E.0042
;WIDTH:0.38292
G1 F882.353
G3 X141.256 Y86.181 I-.02 J-.04 E.00362
G1 X141.327 Y86.2 E.00239
;WIDTH:0.449999
G1 F736.958
G1 X141.705 Y86.385 E.01638
G1 X140.385 Y87.705 E.07267
G1 X140.385 Y88.281 E.02242
G1 X142.281 Y86.385 E.10437
G1 X142.857 Y86.385 E.02242
G1 X140.385 Y88.857 E.13608
G1 X140.385 Y89.432 E.02238
G1 X143.432 Y86.385 E.16774
G1 X144.008 Y86.385 E.02242
G1 X140.385 Y90.008 E.19945
G1 X140.385 Y90.584 E.02242
G1 X144.584 Y86.385 E.23115
G1 X145.159 Y86.385 E.02238
G1 X140.385 Y91.159 E.26281
G1 X140.385 Y91.735 E.02242
G1 X145.735 Y86.385 E.29452
G1 X146.311 Y86.385 E.02242
G1 X140.385 Y92.311 E.32623
G1 X140.385 Y92.886 E.02238
G1 X146.886 Y86.385 E.35788
G1 X147.462 Y86.385 E.02242
G1 X140.385 Y93.462 E.38959
G1 X140.385 Y94.038 E.02242
G1 X148.038 Y86.385 E.4213
G1 X148.614 Y86.385 E.02242
M73 P4 R128
G1 X140.385 Y94.614 E.453
G1 X140.385 Y95.189 E.02238
G1 X149.189 Y86.385 E.48466
G1 X149.765 Y86.385 E.02242
G1 X140.385 Y95.765 E.51637
G1 X140.385 Y96.341 E.02242
G1 X150.341 Y86.385 E.54808
G1 X150.916 Y86.385 E.02238
G1 X140.385 Y96.916 E.57973
G1 X140.385 Y97.492 E.02242
G1 X151.492 Y86.385 E.61144
G1 X152.068 Y86.385 E.02242
G1 X140.385 Y98.068 E.64315
G1 X140.385 Y98.643 E.02238
G1 X152.643 Y86.385 E.6748
G1 X153.219 Y86.385 E.02242
G1 X140.385 Y99.219 E.70651
G1 X140.385 Y99.795 E.02242
G1 X153.795 Y86.385 E.73822
G1 X154.371 Y86.385 E.02242
G1 X140.385 Y100.371 E.76993
G1 X140.385 Y100.946 E.02238
G1 X154.946 Y86.385 E.80158
G1 X155.522 Y86.385 E.02242
G1 X140.385 Y101.522 E.83329
G1 X140.385 Y102.098 E.02242
G1 X156.098 Y86.385 E.865
G1 X156.673 Y86.385 E.02238
G1 X140.385 Y102.673 E.89665
G1 X140.385 Y103.249 E.02242
G1 X157.249 Y86.385 E.92836
G1 X157.825 Y86.385 E.02242
G1 X140.385 Y103.825 E.96007
G1 X140.385 Y104.4 E.02238
G1 X158.4 Y86.385 E.99172
G1 X158.976 Y86.385 E.02242
M73 P4 R127
G1 X140.385 Y104.976 E1.02343
G1 X140.385 Y105.552 E.02242
G1 X159.552 Y86.385 E1.05514
G1 X159.615 Y86.898 E.02012
G1 X140.385 Y106.127 E1.05858
G1 X140.385 Y106.703 E.02242
G1 X159.615 Y87.474 E1.05858
G1 X159.615 Y88.049 E.02238
G1 X140.385 Y107.279 E1.05861
G1 X140.385 Y107.855 E.02242
G1 X159.615 Y88.625 E1.05861
G1 X159.615 Y89.201 E.02242
G1 X140.385 Y108.43 E1.05858
G1 X140.385 Y109.006 E.02242
G1 X159.615 Y89.776 E1.05861
G1 X159.615 Y90.352 E.02242
G1 X140.385 Y109.582 E1.05861
G1 X140.385 Y110.157 E.02238
G1 X159.615 Y90.928 E1.05858
G1 X159.615 Y91.503 E.02238
G1 X140.385 Y110.733 E1.05861
G1 X140.385 Y111.309 E.02242
G1 X159.615 Y92.079 E1.05861
G1 X159.615 Y92.655 E.02242
G1 X140.385 Y111.884 E1.05858
G1 X140.385 Y112.46 E.02242
G1 X159.615 Y93.23 E1.05861
G1 X159.615 Y93.806 E.02242
G1 X140.385 Y113.036 E1.05861
G1 X140.385 Y113.612 E.02242
G1 X159.615 Y94.382 E1.05861
G1 X159.615 Y94.958 E.02242
G1 X140.958 Y113.615 E1.02706
G1 X141.533 Y113.615 E.02238
G1 X159.615 Y95.533 E.99541
G1 X159.615 Y96.109 E.02242
G1 X142.109 Y113.615 E.9637
G1 X142.685 Y113.615 E.02242
G1 X159.615 Y96.685 E.93199
G1 X159.615 Y97.26 E.02238
G1 X143.26 Y113.615 E.90034
