; generated by PrusaSlicer 2.9.5 on 2026-06-05 at 07:27:40 UTC

; 

; external perimeters extrusion width = 0.45mm
; perimeters extrusion width = 0.45mm
; infill extrusion width = 0.45mm
; solid infill extrusion width = 0.45mm
; top infill extrusion width = 0.42mm
; support material extrusion width = 0.36mm
; first layer extrusion width = 0.50mm

; external perimeters extrusion width = 0.45mm
; perimeters extrusion width = 0.45mm
; infill extrusion width = 0.45mm
; solid infill extrusion width = 0.45mm
; top infill extrusion width = 0.42mm
; support material extrusion width = 0.36mm
; first layer extrusion width = 0.50mm

; external perimeters extrusion width = 0.45mm
; perimeters extrusion width = 0.45mm
; infill extrusion width = 0.45mm
; solid infill extrusion width = 0.45mm
; top infill extrusion width = 0.42mm
; support material extrusion width = 0.36mm
; first layer extrusion width = 0.50mm

; external perimeters extrusion width = 0.45mm
; perimeters extrusion width = 0.45mm
; infill extrusion width = 0.45mm
; solid infill extrusion width = 0.45mm
; top infill extrusion width = 0.42mm
; support material extrusion width = 0.36mm
; first layer extrusion width = 0.50mm

M73 P0 R72
;TYPE:Custom
M104 ; prevent pusaslicer from adding temperature commands
; run custom start G-code
T-1  ; clear tool selection
M144 S1 ; set bed as active
M140 S0 R0 ; set bed temp
G29 S1 ; activate mesh bed compensation and load saved heightmap

; turn off unused heaters



M104 T3 S0

; homming
G28 ; homing
; try picking tools used in print
G1 F24000
;
;T1
;T2
;
G0 Z5 ; add Z clearance
M190 S0 ; wait for bed temp

; set extruder temp
M104 T0 S220
M104 T1 S220
M104 T2 S240



;
; purge second tool
;
G1 F24000
T-1 ; park the tool
M109 T1 S220
T1 ; pick the tool
G92 E0 ; reset extruder position

G0 X320 Y155 Z10 F24000 ; move close to the sheet's edge
G0 E30 X310 Z0.2 F170 ; purge while moving towards the sheet
G0 X285 E39 F800 ; continue purging and wipe the nozzle
G0 X282 Z0.05 F8000 ; wipe, move close to the bed
G0 X279 Z0.2 F8000 ; wipe, move quickly away from the bed
G1 E-1.2 F2400 ; retract

G92 E0 ; reset extruder position

M104 S100 T1


;
; purge third tool
;
G1 F24000
T-1 ; park the tool
M109 T2 S240
T2 ; pick the tool
G92 E0 ; reset extruder position

G0 X320 Y135 Z10 F24000 ; move close to the sheet's edge
G0 E30 X310 Z0.2 F170 ; purge while moving towards the sheet
G0 X285 E39 F800 ; continue purging and wipe the nozzle
M73 P0 R71
G0 X282 Z0.05 F8000 ; wipe, move close to the bed
G0 X279 Z0.2 F8000 ; wipe, move quickly away from the bed
G1 E-1.2 F2400 ; retract

G92 E0 ; reset extruder position

M104 S100 T2


;
; purge initial tool
;
G1 F24000
T-1 ; park the tool
M109 T0 S220
T0 ; pick the tool
G92 E0 ; reset extruder position

G0 X320 Y195 Z10 F24000 ; move close to the sheet's edge
G0 E30 X310 Z0.2 F170 ; purge while moving towards the sheet
G0 X285 E39 F800 ; continue purging and wipe the nozzle
G0 X282 Z0.05 F8000 ; wipe, move close to the bed
G0 X279 Z0.2 F8000 ; wipe, move quickly away from the bed
G1 E-1.5 F2400 ; retract



G92 E0 ; reset extruder position

G21 ; set units to millimeters
G90 ; use absolute coordinates
M83 ; use relative distances for extrusion
; Change Tool-1 -> Tool0 (layer -1)

; check if tool is already active at startup
T0 ; tool already active, don't change tools
; Filament gcode
M107
;LAYER_CHANGE
;Z:0.2
;HEIGHT:0.2
G1 Z.2 F720
G1 X130.845 Y86.119 F24000
G1 Z.2 F720
G1 E1.5 F3000
;TYPE:Skirt/Brim
;WIDTH:0.5
;HEIGHT:0.2
G1 F1640.852
G1 X132.559 Y84.865 E.08314
G1 X135 Y84.314 E.09796
G1 X165 Y84.314 E1.1744
G1 X167.92 Y85.121 E.11859
G1 X246.119 Y131.922 E3.56758
G1 X247.706 Y133.333 E.08313
G1 X248.663 Y135.228 E.08311
G1 X248.885 Y136.8 E.06215
G1 X248.885 Y149.7 E.50499
G1 X248.489 Y151.786 E.08312
G1 X247.355 Y153.581 E.08312
G1 X245.641 Y154.834 E.08311
G1 X243.2 Y155.385 E.09796
G1 X176.8 Y155.385 E2.59933
G1 X174.714 Y154.989 E.08312
G1 X172.885 Y153.822 E.08493
G1 X131.085 Y114.123 E2.2567
G1 X129.845 Y112.399 E.08313
G1 X129.314 Y110 E.09619
G1 X129.314 Y90 E.78293
G1 X129.711 Y87.914 E.08313
G1 X130.813 Y86.17 E.08076
G1 E-1.5 F3000
G1 X239.5 Y140.5 F24000
G1 E1.5 F3000
;HEIGHT:0.2
;TYPE:Wipe tower
;WIDTH:0.5
G1 X239.500 Y142.500 E0.0760 F1641
G1 X180.500 E2.2424
G1 Y140.500 E0.0760
G1 X239.500 E2.2424
G1 Y142.500
M73 P1 R71
G1 X238.500
;--------------------
; CP EMPTY GRID START
; layer #1
G1 Y142.000 E0.0190
G1 X181.000 E2.1854
G1 Y141.500 E0.0190
G1 X239.000 E2.2044
G1 Y141.000 E0.0190
G1 X181.000 E2.2044
G1 Y140.500 E0.0190
; CP EMPTY GRID END
;------------------






G1 X180.000 Y140.000
G1 X240.000 E2.2804
G1 Y146.500 E0.2470
G1 X180.000 E2.2804
G1 Y140.000 E0.2470
G1 X179.543 Y139.543
G1 X240.457 E2.3151
G1 Y146.957 E0.2818
G1 X179.543 E2.3151
G1 Y139.543 E0.2818
G1 X179.086 Y139.086
G1 X240.914 E2.3499
G1 Y147.414 E0.3165
G1 X179.086 E2.3499
G1 Y139.086 E0.3165
G1 X178.629 Y138.629
G1 X241.371 E2.3846
G1 Y147.871 E0.3513
G1 X178.629 E2.3846
G1 Y138.629 E0.3513
G1 X178.172 Y138.172
G1 X241.828 E2.4194
G1 Y148.328 E0.3860
M73 P1 R70
G1 X178.172 E2.4194
G1 Y138.172 E0.3860
G1 X177.715 Y137.715
G1 X242.285 E2.4541
G1 Y148.785 E0.4208
G1 X177.715 E2.4541
G1 Y137.715 E0.4208
G1 X177.258 Y137.258
G1 X242.742 E2.4888
G1 Y149.242 E0.4555
G1 X177.258 E2.4888
G1 Y137.258 E0.4555
M73 P2 R70
G1 X176.800 Y136.800
G1 X243.200 E2.5236
G1 Y149.700 E0.4902
G1 X176.800 E2.5236
G1 Y136.800 E0.4902
G1 X239.750 Y146.250 F7200
;HEIGHT:0.2
;TYPE:Wipe tower
;WIDTH:0.5
;--------------------
; CP TOOLCHANGE START
; toolchange #1
; material : FLEX -> FLEX
;--------------------
M220 S100
; CP TOOLCHANGE UNLOAD
;WIDTH:1
;WIDTH:0.5
G4 S0
G1 E-1.2 F3000
; Filament-specific end gcode 
;END gcode for filament
; Change Tool0 -> Tool1 (layer 0)

  ; run tool change as expected
G1 E-2 F2000 ; retract filament
T-1 ; drop off current tool
M109 S220 T1
T1      ; pick up next tool
	; if layer height is above the minimum, enable fan
	               M106 S255 ; set part cooling fan based on filament profile
	
; Filament gcode

G1 F24000
G1 X239.250 Y145.000
G1 Z.2 F720
G1 E1.2 F1200
G4 S0
G1 Y145.500
; CP TOOLCHANGE WIPE
;WIDTH:0.5
G1 X180.250 E2.2424 F788
G1 X181.000 Y145.000 E0.0343
G1 X239.750 E2.2329
G1 X239.000 Y144.500 E0.0343
G1 X181.000 E2.2044
G1 Y144.000 E0.0190
G1 X239.000 E2.2044
G1 Y143.500 E0.0190
G1 X180.250 E2.2329
G1 X181.000 Y143.000 E0.0343
G1 X239.750 E2.2329
;WIDTH:0.5
G1 F24000
G4 S0
G92 E0
; CP TOOLCHANGE END
;------------------



G1 E-1 F3000
G1 X240.216 Y143 Z1.2 F794.432
G1 X248.428 Y143 F24000
G1 Z.2 F720
G1 E1 F1200
;TYPE:Skirt/Brim
;WIDTH:0.5
;HEIGHT:0.2
G1 F787.609
G1 X248.428 Y149.7 E.29284
G1 X248.032 Y151.696 E.08894
G1 X246.903 Y153.39 E.08898
G1 X245.214 Y154.525 E.08894
G1 X243.2 Y154.928 E.08977
G1 X176.8 Y154.928 E2.90216
G1 X174.804 Y154.532 E.08894
G1 X173.2 Y153.491 E.08358
G1 X131.399 Y113.791 E2.51968
G1 X130.225 Y112.129 E.08894
M73 P3 R69
G1 X129.771 Y110 E.09514
G1 X129.771 Y90 E.87415
G1 X130.168 Y88.004 E.08895
G1 X131.296 Y86.31 E.08895
G1 X132.986 Y85.175 E.08898
G1 X135 Y84.771 E.08978
G1 X165 Y84.771 E1.31122
G1 X167.685 Y85.514 E.12176
G1 X245.885 Y132.314 E3.98324
G1 X247.394 Y133.679 E.08893
G1 X248.268 Y135.517 E.08895
G1 X248.428 Y136.8 E.05651
G1 X248.428 Y142.94 E.26836
G1 E-1 F3000
G1 X247.988 Y142.787 Z1.2 F794.404
G1 X150 Y108.786 F24000
G1 Z.2 F720
G1 E1 F1200
;TYPE:Perimeter
;WIDTH:0.499999
G1 F787.61
G1 X136.214 Y108.786 E.60255
G1 X136.214 Y91.214 E.76802
G1 X163.786 Y91.214 E1.2051
G1 X163.786 Y108.786 E.76802
G1 X150.06 Y108.786 E.59993
G1 X150 Y109.243 F24000
G1 F787.61
G1 X135.757 Y109.243 E.62252
G1 X135.757 Y90.757 E.80797
G1 X164.243 Y90.757 E1.24504
G1 X164.243 Y109.243 E.80797
G1 X150.06 Y109.243 E.6199
G1 X150 Y109.7 F24000
;TYPE:External perimeter
G1 F787.61
G1 X135.3 Y109.7 E.6425
G1 X135.3 Y90.3 E.84792
G1 X164.7 Y90.3 E1.28499
G1 X164.7 Y109.7 E.84792
G1 X150.06 Y109.7 E.63987
G1 X149.66 Y109.7 F24000
G1 E-1 F3000
G1 X149.952 Y109.336 Z1.2 F794.432
G1 X163.603 Y92.333 F24000
G1 Z.2 F720
G1 E1 F1200
;TYPE:Solid infill
;WIDTH:0.505694
G1 F777.917
G1 X162.873 Y91.603 E.04568
G1 X162.218 Y91.603 E.02898
G1 X163.397 Y92.782 E.07378
G1 X163.397 Y93.436 E.02894
G1 X161.564 Y91.603 E.11471
G1 X160.909 Y91.603 E.02898
G1 X163.397 Y94.091 E.1557
G1 X163.397 Y94.745 E.02894
G1 X160.255 Y91.603 E.19663
G1 X159.6 Y91.603 E.02898
G1 X163.397 Y95.4 E.23762
G1 X163.397 Y96.054 E.02894
G1 X158.946 Y91.603 E.27855
G1 X158.291 Y91.603 E.02898
G1 X163.397 Y96.709 E.31954
G1 X163.397 Y97.363 E.02894
G1 X157.637 Y91.603 E.36047
G1 X156.982 Y91.603 E.02898
M73 P4 R69
G1 X163.397 Y98.018 E.40146
G1 X163.397 Y98.672 E.02894
G1 X156.328 Y91.603 E.44239
G1 X155.674 Y91.603 E.02894
G1 X163.397 Y99.326 E.48332
G1 X163.397 Y99.981 E.02898
G1 X155.019 Y91.603 E.52431
G1 X154.365 Y91.603 E.02894
G1 X163.397 Y100.635 E.56524
G1 X163.397 Y101.29 E.02898
G1 X153.71 Y91.603 E.60623
G1 X153.056 Y91.603 E.02894
G1 X163.397 Y101.944 E.64716
G1 X163.397 Y102.599 E.02898
G1 X152.401 Y91.603 E.68815
G1 X151.747 Y91.603 E.02894
G1 X163.397 Y103.253 E.72907
G1 X163.397 Y103.908 E.02898
G1 X151.092 Y91.603 E.77007
G1 X150.438 Y91.603 E.02894
G1 X163.397 Y104.562 E.81099
G1 X163.397 Y105.217 E.02898
G1 X149.783 Y91.603 E.85198
G1 X149.129 Y91.603 E.02894
G1 X163.397 Y105.871 E.89291
G1 X163.397 Y106.526 E.02898
G1 X148.474 Y91.603 E.9339
G1 X147.82 Y91.603 E.02894
G1 X163.397 Y107.18 E.97483
G1 X163.397 Y107.834 E.02894
G1 X147.166 Y91.603 E1.01576
G1 X146.511 Y91.603 E.02898
M73 P4 R68
G1 X163.306 Y108.397 E1.05102
G1 X162.651 Y108.397 E.02898
G1 X145.857 Y91.603 E1.05099
G1 X145.202 Y91.603 E.02898
G1 X161.997 Y108.397 E1.05102
G1 X161.342 Y108.397 E.02898
G1 X144.548 Y91.603 E1.05099
G1 X143.893 Y91.603 E.02898
G1 X160.688 Y108.397 E1.05102
G1 X160.033 Y108.397 E.02898
G1 X143.239 Y91.603 E1.05099
G1 X142.584 Y91.603 E.02898
G1 X159.379 Y108.397 E1.05102
G1 X158.725 Y108.397 E.02894
G1 X141.93 Y91.603 E1.05102
G1 X141.275 Y91.603 E.02898
G1 X158.07 Y108.397 E1.05102
G1 X157.416 Y108.397 E.02894
G1 X140.621 Y91.603 E1.05102
G1 X139.966 Y91.603 E.02898
G1 X156.761 Y108.397 E1.05102
G1 X156.107 Y108.397 E.02894
G1 X139.312 Y91.603 E1.05102
G1 X138.658 Y91.603 E.02894
G1 X155.452 Y108.397 E1.05099
G1 X154.798 Y108.397 E.02894
M73 P5 R68
G1 X138.003 Y91.603 E1.05102
G1 X137.349 Y91.603 E.02894
G1 X154.143 Y108.397 E1.05099
G1 X153.489 Y108.397 E.02894
G1 X136.694 Y91.603 E1.05102
G1 X136.603 Y91.603 E.00403
G1 X136.603 Y92.166 E.02491
G1 X152.834 Y108.397 E1.01576
G1 X152.18 Y108.397 E.02894
G1 X136.603 Y92.82 E.97483
G1 X136.603 Y93.475 E.02898
G1 X151.525 Y108.397 E.93384
G1 X150.871 Y108.397 E.02894
G1 X136.603 Y94.129 E.89291
G1 X136.603 Y94.783 E.02894
G1 X150.217 Y108.397 E.85198
G1 X149.562 Y108.397 E.02898
G1 X136.603 Y95.438 E.81099
G1 X136.603 Y96.092 E.02894
G1 X148.908 Y108.397 E.77007
G1 X148.253 Y108.397 E.02898
G1 X136.603 Y96.747 E.72907
G1 X136.603 Y97.401 E.02894
G1 X147.599 Y108.397 E.68815
G1 X146.944 Y108.397 E.02898
G1 X136.603 Y98.056 E.64716
G1 X136.603 Y98.71 E.02894
G1 X146.29 Y108.397 E.60623
G1 X145.635 Y108.397 E.02898
G1 X136.603 Y99.365 E.56524
G1 X136.603 Y100.019 E.02894
G1 X144.981 Y108.397 E.52431
G1 X144.326 Y108.397 E.02898
G1 X136.603 Y100.674 E.48332
G1 X136.603 Y101.328 E.02894
G1 X143.672 Y108.397 E.44239
G1 X143.017 Y108.397 E.02898
G1 X136.603 Y101.983 E.4014
G1 X136.603 Y102.637 E.02894
G1 X142.363 Y108.397 E.36047
G1 X141.709 Y108.397 E.02894
G1 X136.603 Y103.291 E.31954
G1 X136.603 Y103.946 E.02898
G1 X141.054 Y108.397 E.27855
G1 X140.4 Y108.397 E.02894
G1 X136.603 Y104.6 E.23762
G1 X136.603 Y105.255 E.02898
G1 X139.745 Y108.397 E.19663
G1 X139.091 Y108.397 E.02894
G1 X136.603 Y105.909 E.1557
G1 X136.603 Y106.564 E.02898
G1 X138.436 Y108.397 E.11471
G1 X137.782 Y108.397 E.02894
G1 X136.603 Y107.218 E.07378
G1 X136.603 Y107.873 E.02898
G1 X137.333 Y108.603 E.04568
;LAYER_CHANGE
;Z:0.4
;HEIGHT:0.2
;BEFORE_LAYER_CHANGE
G92 E0.0
;0.4

G1 E-1 F3000
G1 X137.333 Y108.603 Z.2 F24000
G1 X137.799 Y108.616 Z1.2 F794.432
G1 X150 Y108.961 Z1.2 F24000
G1 Z.4 F720
G1 E1 F1200
;TYPE:Perimeter
;WIDTH:0.449999
;HEIGHT:0.2
G1 F884.349
G1 X136.039 Y108.961 E.54345
G1 X136.039 Y91.039 E.69763
G1 X163.961 Y91.039 E1.08689
G1 X163.961 Y108.961 E.69763
G1 X150.06 Y108.961 E.54111
M73 P5 R67
G1 X150 Y109.368 F24000
G1 F884.349
G1 X135.632 Y109.368 E.55929
G1 X135.632 Y90.632 E.72932
G1 X164.368 Y90.632 E1.11858
G1 X164.368 Y109.368 E.72932
G1 X150.06 Y109.368 E.55695
M73 P6 R67
G1 X150 Y109.775 F24000
;TYPE:External perimeter
G1 F884.349
G1 X135.225 Y109.775 E.57513
G1 X135.225 Y90.225 E.761
G1 X164.775 Y90.225 E1.15027
G1 X164.775 Y109.775 E.761
G1 X150.06 Y109.775 E.5728
G1 X149.66 Y109.775 F24000
G1 E-1 F3000
G1 X149.388 Y109.396 Z1.4 F794.432
G1 X136.496 Y91.418 F24000
G1 Z.4 F720
G1 E1 F1200
;TYPE:Solid infill
;WIDTH:0.548766
G1 F711.679
G2 X136.479 Y91.479 I-.059 J.017 E.0152
;WIDTH:0.449999
G1 F884.349
G1 X137.129 Y91.385 E.02557
G1 X136.319 Y92.202 E.04478
;WIDTH:0.41646
G1 F963.754
G1 X136.252 Y92.275 E.00354
;WIDTH:0.38292
G1 F1058.823
G1 X136.181 Y92.256 E.00239
G2 X136.241 Y92.316 I.04 J.02 E.00362
;WIDTH:0.449999
G1 F884.349
G1 X136.385 Y92.705 E.01615
G1 X137.705 Y91.385 E.07267
G1 X138.281 Y91.385 E.02242
G1 X136.385 Y93.281 E.10437
G1 X136.385 Y93.857 E.02242
G1 X138.857 Y91.385 E.13608
G1 X139.432 Y91.385 E.02238
G1 X136.385 Y94.432 E.16774
G1 X136.385 Y95.008 E.02242
G1 X140.008 Y91.385 E.19945
G1 X140.584 Y91.385 E.02242
G1 X136.385 Y95.584 E.23115
G1 X136.385 Y96.159 E.02238
G1 X141.159 Y91.385 E.26281
G1 X141.735 Y91.385 E.02242
G1 X136.385 Y96.735 E.29452
G1 X136.385 Y97.311 E.02242
G1 X142.311 Y91.385 E.32623
G1 X142.886 Y91.385 E.02238
G1 X136.385 Y97.886 E.35788
G1 X136.385 Y98.462 E.02242
G1 X143.462 Y91.385 E.38959
G1 X144.038 Y91.385 E.02242
G1 X136.385 Y99.038 E.4213
G1 X136.385 Y99.614 E.02242
G1 X144.614 Y91.385 E.453
G1 X145.189 Y91.385 E.02238
G1 X136.385 Y100.189 E.48466
G1 X136.385 Y100.765 E.02242
G1 X145.765 Y91.385 E.51637
G1 X146.341 Y91.385 E.02242
G1 X136.385 Y101.341 E.54808
G1 X136.385 Y101.916 E.02238
G1 X146.916 Y91.385 E.57973
G1 X147.492 Y91.385 E.02242
G1 X136.385 Y102.492 E.61144
G1 X136.385 Y103.068 E.02242
G1 X148.068 Y91.385 E.64315
G1 X148.643 Y91.385 E.02238
G1 X136.385 Y103.643 E.6748
G1 X136.385 Y104.219 E.02242
G1 X149.219 Y91.385 E.70651
G1 X149.795 Y91.385 E.02242
G1 X136.385 Y104.795 E.73822
G1 X136.385 Y105.371 E.02242
G1 X150.371 Y91.385 E.76993
G1 X150.946 Y91.385 E.02238
G1 X136.385 Y105.946 E.80158
G1 X136.385 Y106.522 E.02242
G1 X151.522 Y91.385 E.83329
G1 X152.098 Y91.385 E.02242
G1 X136.385 Y107.098 E.865
G1 X136.385 Y107.673 E.02238
G1 X152.673 Y91.385 E.89665
G1 X153.249 Y91.385 E.02242
G1 X136.385 Y108.249 E.92836
G1 X136.323 Y108.737 E.01915
;WIDTH:0.38292
G1 F1058.823
G3 X136.263 Y108.677 I-.02 J-.04 E.00362
G1 X136.334 Y108.696 E.00239
;WIDTH:0.41646
G1 F963.754
G1 X136.465 Y108.655 E.0049
;WIDTH:0.449999
G1 F884.349
G1 X136.595 Y108.615 E.00529
G1 X153.825 Y91.385 E.94851
G1 X154.4 Y91.385 E.02238
G1 X137.171 Y108.615 E.94848
G1 X137.746 Y108.615 E.02238
G1 X154.976 Y91.385 E.94851
G1 X155.552 Y91.385 E.02242
G1 X138.322 Y108.615 E.94851
G1 X138.898 Y108.615 E.02242
G1 X156.127 Y91.385 E.94848
G1 X156.703 Y91.385 E.02242
G1 X139.474 Y108.615 E.94848
G1 X140.049 Y108.615 E.02238
M73 P7 R67
G1 X157.279 Y91.385 E.94851
G1 X157.855 Y91.385 E.02242
G1 X140.625 Y108.615 E.94851
G1 X141.201 Y108.615 E.02242
G1 X158.43 Y91.385 E.94848
G1 X159.006 Y91.385 E.02242
G1 X141.776 Y108.615 E.94851
G1 X142.352 Y108.615 E.02242
G1 X159.582 Y91.385 E.94851
G1 X160.157 Y91.385 E.02238
G1 X142.928 Y108.615 E.94848
G1 X143.503 Y108.615 E.02238
M73 P7 R66
G1 X160.733 Y91.385 E.94851
G1 X161.309 Y91.385 E.02242
G1 X144.079 Y108.615 E.94851
G1 X144.655 Y108.615 E.02242
G1 X161.884 Y91.385 E.94848
G1 X162.46 Y91.385 E.02242
G1 X145.23 Y108.615 E.94851
G1 X145.806 Y108.615 E.02242
G1 X163.036 Y91.385 E.94851
G1 X163.612 Y91.385 E.02242
G1 X146.382 Y108.615 E.94851
G1 X146.958 Y108.615 E.02242
