; generated by PrusaSlicer 2.9.5 on 2026-06-03 at 06:47:15 UTC

; 

; external perimeters extrusion width = 0.45mm
; perimeters extrusion width = 0.45mm
; infill extrusion width = 0.45mm
; solid infill extrusion width = 0.45mm
; top infill extrusion width = 0.42mm
; first layer extrusion width = 0.50mm

; external perimeters extrusion width = 0.45mm
; perimeters extrusion width = 0.45mm
; infill extrusion width = 0.45mm
; solid infill extrusion width = 0.45mm
; top infill extrusion width = 0.42mm
; first layer extrusion width = 0.50mm

; external perimeters extrusion width = 0.45mm
; perimeters extrusion width = 0.45mm
; infill extrusion width = 0.45mm
; solid infill extrusion width = 0.45mm
; top infill extrusion width = 0.42mm
; first layer extrusion width = 0.50mm

M73 P0 R51
;TYPE:Custom
M104 ; prevent pusaslicer from adding temperature commands
; run custom start G-code
T-1  ; clear tool selection
M144 S1 ; set bed as active
M140 S0 R0 ; set bed temp
G29 S1 ; activate mesh bed compensation and load saved heightmap

; turn off unused heaters



M104 T3 S0

; homming
G28 ; homing
; try picking tools used in print
G1 F24000
;T0
;
;T2
;
G0 Z5 ; add Z clearance
M190 S0 ; wait for bed temp

; set extruder temp
M104 T0 S220
M104 T1 S220
M104 T2 S240


;
; purge first tool
;
G1 F24000
T-1 ; park the tool
M109 T0 S220
T0 ; pick the tool
G92 E0 ; reset extruder position

G0 X320 Y175 Z10 F24000 ; move close to the sheet's edge
G0 E30 X310 Z0.2 F170 ; purge while moving towards the sheet
G0 X285 E39 F800 ; continue purging and wipe the nozzle
M73 P0 R50
G0 X282 Z0.05 F8000 ; wipe, move close to the bed
G0 X279 Z0.2 F8000 ; wipe, move quickly away from the bed
G1 E-1.2 F2400 ; retract

G92 E0 ; reset extruder position

M104 S100 T0



;
; purge third tool
;
G1 F24000
T-1 ; park the tool
M109 T2 S240
T2 ; pick the tool
G92 E0 ; reset extruder position

G0 X320 Y135 Z10 F24000 ; move close to the sheet's edge
G0 E30 X310 Z0.2 F170 ; purge while moving towards the sheet
G0 X285 E39 F800 ; continue purging and wipe the nozzle
G0 X282 Z0.05 F8000 ; wipe, move close to the bed
G0 X279 Z0.2 F8000 ; wipe, move quickly away from the bed
G1 E-1.2 F2400 ; retract

G92 E0 ; reset extruder position

M104 S100 T2


;
; purge initial tool
;
G1 F24000
T-1 ; park the tool
M109 T1 S220
T1 ; pick the tool
G92 E0 ; reset extruder position

G0 X320 Y175 Z10 F24000 ; move close to the sheet's edge
G0 E30 X310 Z0.2 F170 ; purge while moving towards the sheet
G0 X285 E39 F800 ; continue purging and wipe the nozzle
G0 X282 Z0.05 F8000 ; wipe, move close to the bed
G0 X279 Z0.2 F8000 ; wipe, move quickly away from the bed
G1 E-1.5 F2400 ; retract



G92 E0 ; reset extruder position

G21 ; set units to millimeters
G90 ; use absolute coordinates
M83 ; use relative distances for extrusion
; Change Tool-1 -> Tool1 (layer -1)

; check if tool is already active at startup
T1 ; tool already active, don't change tools
; Filament gcode
M107
;LAYER_CHANGE
;Z:0.2
;HEIGHT:0.2
G1 Z.2 F720
G1 X119.182 Y130.459 F24000
G1 Z.2 F720
G1 E1.5 F3000
;HEIGHT:0.2
;TYPE:Wipe tower
;WIDTH:0.5
G1 X178.182 Y130.459 E2.2424 F1641
G1 Y135.959 E0.2090
G1 X119.182 E2.2424
M73 P1 R50
G1 Y130.459 E0.2090
G1 X178.182
G1 Y135.959
G1 X177.182
;--------------------
; CP EMPTY GRID START
; layer #1
G1 Y135.459 E0.0190
G1 X119.682 E2.1854
G1 Y134.959 E0.0190
G1 X177.682 E2.2044
G1 Y134.459 E0.0190
G1 X119.682 E2.2044
G1 Y133.959 E0.0190
G1 X177.682 E2.2044
G1 Y133.459 E0.0190
G1 X119.682 E2.2044
G1 Y132.959 E0.0190
G1 X177.682 E2.2044
G1 Y132.459 E0.0190
G1 X119.682 E2.2044
G1 Y131.959 E0.0190
G1 X177.682 E2.2044
G1 Y131.459 E0.0190
G1 X119.682 E2.2044
G1 Y130.959 E0.0190
G1 X177.682 E2.2044
G1 Y130.459 E0.0190
; CP EMPTY GRID END
;------------------






G1 X178.682 Y129.959
G1 Y136.459 E0.2470
G1 X118.682 E2.2804
G1 Y129.959 E0.2470
G1 X178.682 E2.2804
G1 X179.139 Y129.502
M73 P2 R50
G1 Y136.916 E0.2818
G1 X118.225 E2.3151
G1 Y129.502 E0.2818
M73 P2 R49
G1 X179.139 E2.3151
G1 X179.596 Y129.045
G1 Y137.373 E0.3165
G1 X117.768 E2.3499
G1 Y129.045 E0.3165
G1 X179.596 E2.3499
G1 X180.053 Y128.588
G1 Y137.830 E0.3513
G1 X117.311 E2.3846
G1 Y128.588 E0.3513
G1 X180.053 E2.3846
G1 X180.510 Y128.131
G1 Y138.287 E0.3860
G1 X116.854 E2.4194
G1 Y128.131 E0.3860
G1 X180.510 E2.4194
G1 X180.967 Y127.674
G1 Y138.744 E0.4208
G1 X116.397 E2.4541
G1 Y127.674 E0.4208
G1 X180.967 E2.4541
G1 X181.424 Y127.217
G1 Y139.201 E0.4555
G1 X115.940 E2.4888
G1 Y127.217 E0.4555
G1 X181.424 E2.4888
M73 P3 R49
G1 X181.882 Y126.759
G1 Y139.659 E0.4902
G1 X115.482 E2.5236
G1 Y126.759 E0.4902
G1 X181.882 E2.5236

G1 E-1.5 F3000
G1 X187.225 Y125.407 F24000
G1 E1.5 F3000
;TYPE:Skirt/Brim
;WIDTH:0.5
;HEIGHT:0.2
G1 F1640.852
G1 X187.568 Y126.76 E.05464
G1 X187.568 Y139.659 E.50495
G1 X187.171 Y141.745 E.08313
G1 X186.037 Y143.54 E.08312
G1 X184.323 Y144.793 E.08311
G1 X181.882 Y145.344 E.09796
G1 X115.483 Y145.344 E2.59929
G1 X113.397 Y144.948 E.08312
G1 X111.602 Y143.814 E.08312
G1 X110.348 Y142.1 E.08314
G1 X109.797 Y139.659 E.09796
G1 X109.797 Y126.76 E.50495
G1 X110.635 Y123.79 E.1208
G1 X133.152 Y87.03 E1.68753
G1 X134.579 Y85.458 E.08311
G1 X136.484 Y84.52 E.08312
G1 X138 Y84.314 E.05989
G1 X162 Y84.314 E.93952
G1 X164.086 Y84.711 E.08313
G1 X165.881 Y85.845 E.08312
G1 X167.001 Y87.295 E.07172
G1 X186.883 Y124.055 E1.63602
G1 X187.211 Y125.349 E.05226
G1 X186.781 Y125.458 F24000
G1 F1640.852
G1 X187.111 Y126.76 E.05258
G1 X187.111 Y139.659 E.50495
G1 X186.714 Y141.655 E.07967
G1 X185.586 Y143.349 E.07967
G1 X183.896 Y144.484 E.07969
G1 X181.882 Y144.887 E.0804
G1 X115.483 Y144.887 E2.59929
G1 X113.486 Y144.491 E.0797
G1 X111.793 Y143.363 E.07964
G1 X110.658 Y141.673 E.07969
G1 X110.254 Y139.659 E.08041
G1 X110.254 Y126.76 E.50495
G1 X111.024 Y124.028 E.11111
G1 X133.541 Y87.269 E1.6875
G1 X134.922 Y85.773 E.0797
G1 X136.769 Y84.918 E.07967
G1 X138 Y84.771 E.04853
G1 X162 Y84.771 E.93952
G1 X163.996 Y85.168 E.07967
G1 X165.69 Y86.296 E.07967
G1 X166.599 Y87.513 E.05946
G1 X186.481 Y124.272 E1.63599
G1 X186.766 Y125.4 E.04554
G1 E-1.5 F3000
G1 X150 Y108.329 F24000
G1 E1.5 F3000
;TYPE:Perimeter
;WIDTH:0.499999
G1 F1640.854
G1 X139.671 Y108.329 E.40434
G1 X139.671 Y91.671 E.6521
G1 X160.329 Y91.671 E.80869
G1 X160.329 Y108.329 E.6521
G1 X150.06 Y108.329 E.402
G1 X150 Y108.786 F24000
G1 F1640.854
G1 X139.214 Y108.786 E.42223
G1 X139.214 Y91.214 E.68788
G1 X160.786 Y91.214 E.84447
G1 X160.786 Y108.786 E.68788
M73 P4 R49
G1 X150.06 Y108.786 E.41988
M73 P4 R48
G1 X150 Y109.243 F24000
G1 F1640.854
G1 X138.757 Y109.243 E.44012
G1 X138.757 Y90.757 E.72366
G1 X161.243 Y90.757 E.88025
G1 X161.243 Y109.243 E.72366
G1 X150.06 Y109.243 E.43777
G1 X150 Y109.7 F24000
;TYPE:External perimeter
G1 F1640.854
G1 X138.3 Y109.7 E.45801
G1 X138.3 Y90.3 E.75944
G1 X161.7 Y90.3 E.91603
G1 X161.7 Y109.7 E.75944
G1 X150.06 Y109.7 E.45566
G1 X149.66 Y109.7 F24000
G1 E-1.5 F3000
G1 X160.146 Y92.791 F24000
G1 E1.5 F3000
;TYPE:Solid infill
;WIDTH:0.506013
G1 F1619.545
G1 X159.415 Y92.06 E.041
G1 X158.76 Y92.06 E.02598
G1 X159.94 Y93.24 E.06619
G1 X159.94 Y93.895 E.02598
G1 X158.105 Y92.06 E.10292
G1 X157.45 Y92.06 E.02598
G1 X159.94 Y94.55 E.13966
G1 X159.94 Y95.205 E.02598
G1 X156.795 Y92.06 E.1764
G1 X156.14 Y92.06 E.02598
G1 X159.94 Y95.86 E.21314
G1 X159.94 Y96.515 E.02598
G1 X155.485 Y92.06 E.24988
G1 X154.831 Y92.06 E.02594
G1 X159.94 Y97.17 E.28659
G1 X159.94 Y97.824 E.02594
G1 X154.176 Y92.06 E.3233
G1 X153.521 Y92.06 E.02598
G1 X159.94 Y98.479 E.36004
G1 X159.94 Y99.134 E.02598
G1 X152.866 Y92.06 E.39678
G1 X152.211 Y92.06 E.02598
G1 X159.94 Y99.789 E.43352
G1 X159.94 Y100.444 E.02598
G1 X151.556 Y92.06 E.47026
G1 X150.901 Y92.06 E.02598
G1 X159.94 Y101.099 E.507
G1 X159.94 Y101.754 E.02598
G1 X150.246 Y92.06 E.54374
G1 X149.591 Y92.06 E.02598
G1 X159.94 Y102.409 E.58047
G1 X159.94 Y103.064 E.02598
G1 X148.936 Y92.06 E.61721
G1 X148.281 Y92.06 E.02598
G1 X159.94 Y103.719 E.65395
G1 X159.94 Y104.374 E.02598
G1 X147.626 Y92.06 E.69069
G1 X146.972 Y92.06 E.02594
G1 X159.94 Y105.028 E.72737
G1 X159.94 Y105.683 E.02598
G1 X146.317 Y92.06 E.76411
G1 X145.662 Y92.06 E.02598
G1 X159.94 Y106.338 E.80085
G1 X159.94 Y106.993 E.02598
G1 X145.007 Y92.06 E.83759
G1 X144.352 Y92.06 E.02598
G1 X159.94 Y107.648 E.87433
G1 X159.94 Y107.94 E.01158
G1 X159.577 Y107.94 E.0144
G1 X143.697 Y92.06 E.89071
G1 X143.042 Y92.06 E.02598
G1 X158.923 Y107.94 E.89074
G1 X158.268 Y107.94 E.02598
G1 X142.387 Y92.06 E.89074
G1 X141.732 Y92.06 E.02598
G1 X157.613 Y107.94 E.89074
G1 X156.958 Y107.94 E.02598
G1 X141.077 Y92.06 E.89074
G1 X140.422 Y92.06 E.02598
G1 X156.303 Y107.94 E.89074
G1 X155.648 Y107.94 E.02598
G1 X140.06 Y92.352 E.87433
G1 X140.06 Y93.007 E.02598
G1 X154.993 Y107.94 E.83759
G1 X154.338 Y107.94 E.02598
G1 X140.06 Y93.662 E.80085
G1 X140.06 Y94.317 E.02598
G1 X153.683 Y107.94 E.76411
G1 X153.028 Y107.94 E.02598
G1 X140.06 Y94.972 E.72737
G1 X140.06 Y95.627 E.02598
G1 X152.373 Y107.94 E.69063
G1 X151.719 Y107.94 E.02594
G1 X140.06 Y96.281 E.65395
G1 X140.06 Y96.936 E.02598
G1 X151.064 Y107.94 E.61721
G1 X150.409 Y107.94 E.02598
G1 X140.06 Y97.591 E.58047
G1 X140.06 Y98.246 E.02598
G1 X149.754 Y107.94 E.54374
G1 X149.099 Y107.94 E.02598
M73 P5 R48
G1 X140.06 Y98.901 E.507
G1 X140.06 Y99.556 E.02598
G1 X148.444 Y107.94 E.47026
G1 X147.789 Y107.94 E.02598
G1 X140.06 Y100.211 E.43352
G1 X140.06 Y100.866 E.02598
G1 X147.134 Y107.94 E.39678
G1 X146.479 Y107.94 E.02598
G1 X140.06 Y101.521 E.36004
G1 X140.06 Y102.176 E.02598
G1 X145.824 Y107.94 E.3233
G1 X145.169 Y107.94 E.02598
G1 X140.06 Y102.831 E.28656
G1 X140.06 Y103.486 E.02598
G1 X144.514 Y107.94 E.24982
G1 X143.86 Y107.94 E.02594
G1 X140.06 Y104.14 E.21314
G1 X140.06 Y104.795 E.02598
G1 X143.205 Y107.94 E.1764
G1 X142.55 Y107.94 E.02598
G1 X140.06 Y105.45 E.13966
G1 X140.06 Y106.105 E.02598
G1 X141.895 Y107.94 E.10292
G1 X141.24 Y107.94 E.02598
G1 X140.06 Y106.76 E.06619
G1 X140.06 Y107.415 E.02598
G1 X140.791 Y108.146 E.041
M106 S5.1
;LAYER_CHANGE
;Z:0.4
;HEIGHT:0.2
;BEFORE_LAYER_CHANGE
G92 E0.0
;0.4

G1 E-1.5 F3000
G1 Z.4 F720
G1 X178.182 Y135.959 F24000
G1 E1.5 F3000
;HEIGHT:0.2
;TYPE:Wipe tower
;WIDTH:0.5
G1 X119.182 Y135.959 E2.2424 F1641
G1 Y130.459 E0.2090
G1 X178.182 E2.2424
G1 Y135.959 E0.2090
G1 X119.182
G1 Y130.459
G1 X120.182
;--------------------
; CP EMPTY GRID START
; layer #2
G1 Y135.959 E0.2090
G1 X129.682
G1 Y130.459 E0.2090
G1 X139.182
G1 Y135.959 E0.2090
G1 X148.682
G1 Y130.459 E0.2090
G1 X158.182
G1 Y135.959 E0.2090
G1 X167.682
G1 Y130.459 E0.2090
G1 X177.182
G1 Y135.959 E0.2090
; CP EMPTY GRID END
;------------------






G1 X178.682 Y136.459
G1 X118.682 E2.2804
G1 Y129.959 E0.2470
G1 X178.682 E2.2804
G1 Y136.459 E0.2470

G1 E-1.5 F3000
G1 X150 Y108.554 F24000
G1 E1.5 F3000
;TYPE:Perimeter
;WIDTH:0.449999
;HEIGHT:0.2
G1 F1842.394
G1 X139.446 Y108.554 E.36796
G1 X139.446 Y91.446 E.59646
G1 X160.554 Y91.446 E.73591
G1 X160.554 Y108.554 E.59646
G1 X150.06 Y108.554 E.36587
G1 X150 Y108.961 F24000
G1 F1842.394
G1 X139.039 Y108.961 E.38215
G1 X139.039 Y91.039 E.62484
G1 X160.961 Y91.039 E.76429
G1 X160.961 Y108.961 E.62484
G1 X150.06 Y108.961 E.38005
G1 X150 Y109.368 F24000
G1 F1842.394
G1 X138.632 Y109.368 E.39634
G1 X138.632 Y90.632 E.65322
G1 X161.368 Y90.632 E.79267
G1 X161.368 Y109.368 E.65322
G1 X150.06 Y109.368 E.39424
G1 X150 Y109.775 F24000
;TYPE:External perimeter
G1 F1842.394
G1 X138.225 Y109.775 E.41053
G1 X138.225 Y90.225 E.6816
G1 X161.775 Y90.225 E.82105
M73 P5 R47
G1 X161.775 Y109.775 E.6816
M73 P6 R47
G1 X150.06 Y109.775 E.40843
G1 X149.66 Y109.775 F24000
G1 E-1.5 F3000
G1 X139.903 Y91.825 F24000
G1 E1.5 F3000
;TYPE:Solid infill
;WIDTH:0.548766
G1 F1482.665
G2 X139.886 Y91.886 I-.058 J.017 E.01362
;WIDTH:0.449999
G1 F1842.394
G1 X140.537 Y91.792 E.02293
G1 X139.726 Y92.609 E.04013
;WIDTH:0.41646
G1 F2007.82
G1 X139.66 Y92.682 E.00315
;WIDTH:0.38292
G1 F2205.882
G1 X139.588 Y92.663 E.00217
G2 X139.649 Y92.723 I.041 J.02 E.00331
;WIDTH:0.449999
G1 F1842.394
G1 X139.792 Y93.112 E.01445
G1 X141.112 Y91.792 E.06508
G1 X141.688 Y91.792 E.02008
G1 X139.792 Y93.688 E.09348
G1 X139.792 Y94.264 E.02008
G1 X142.264 Y91.792 E.12188
G1 X142.839 Y91.792 E.02005
G1 X139.792 Y94.839 E.15023
G1 X139.792 Y95.415 E.02008
G1 X143.415 Y91.792 E.17863
G1 X143.991 Y91.792 E.02008
G1 X139.792 Y95.991 E.20703
G1 X139.792 Y96.566 E.02005
G1 X144.566 Y91.792 E.23538
G1 X145.142 Y91.792 E.02008
G1 X139.792 Y97.142 E.26378
G1 X139.792 Y97.718 E.02008
G1 X145.718 Y91.792 E.29218
G1 X146.294 Y91.792 E.02008
G1 X139.792 Y98.294 E.32058
G1 X139.792 Y98.869 E.02005
G1 X146.869 Y91.792 E.34893
G1 X147.445 Y91.792 E.02008
G1 X139.792 Y99.445 E.37733
G1 X139.792 Y100.021 E.02008
G1 X148.021 Y91.792 E.40573
G1 X148.596 Y91.792 E.02005
G1 X139.792 Y100.596 E.43409
G1 X139.792 Y101.172 E.02008
G1 X149.172 Y91.792 E.46249
G1 X149.748 Y91.792 E.02008
G1 X139.792 Y101.748 E.49089
G1 X139.792 Y102.323 E.02005
G1 X150.323 Y91.792 E.51924
G1 X150.899 Y91.792 E.02008
G1 X139.792 Y102.899 E.54764
G1 X139.792 Y103.475 E.02008
G1 X151.475 Y91.792 E.57604
G1 X152.051 Y91.792 E.02008
G1 X139.792 Y104.051 E.60444
G1 X139.792 Y104.626 E.02005
G1 X152.626 Y91.792 E.63279
G1 X153.202 Y91.792 E.02008
G1 X139.792 Y105.202 E.66119
G1 X139.792 Y105.778 E.02008
G1 X153.778 Y91.792 E.68959
G1 X154.353 Y91.792 E.02005
G1 X139.792 Y106.353 E.71794
G1 X139.792 Y106.929 E.02008
G1 X154.929 Y91.792 E.74634
G1 X155.505 Y91.792 E.02008
G1 X139.792 Y107.505 E.77474
G1 X139.707 Y108.354 F24000
;WIDTH:0.38292
G1 F2205.882
G3 X139.646 Y108.293 I-.02 J-.041 E.00338
G1 X139.718 Y108.313 E.00218
;WIDTH:0.41646
G1 F2007.82
G1 X139.755 Y108.196 E.00393
;WIDTH:0.449999
G1 F1842.394
G1 X139.792 Y108.08 E.00424
G1 X156.08 Y91.792 E.80309
G1 X156.656 Y91.792 E.02008
G1 X140.241 Y108.208 E.80937
G1 X140.816 Y108.208 E.02005
G1 X157.232 Y91.792 E.8094
G1 X157.807 Y91.792 E.02005
G1 X141.392 Y108.208 E.80937
G1 X141.968 Y108.208 E.02008
G1 X158.383 Y91.792 E.80937
G1 X158.959 Y91.792 E.02008
G1 X142.543 Y108.208 E.8094
G1 X143.119 Y108.208 E.02008
G1 X159.535 Y91.792 E.8094
G1 X160.11 Y91.792 E.02005
G1 X143.695 Y108.208 E.80937
G1 X144.27 Y108.208 E.02005
G1 X160.208 Y92.27 E.78583
G1 X160.208 Y92.846 E.02008
G1 X144.846 Y108.208 E.75743
G1 X145.422 Y108.208 E.02008
G1 X160.208 Y93.422 E.72903
G1 X160.208 Y93.998 E.02008
G1 X145.998 Y108.208 E.70063
G1 X146.573 Y108.208 E.02005
G1 X160.208 Y94.573 E.67228
G1 X160.208 Y95.149 E.02008
G1 X147.149 Y108.208 E.64388
G1 X147.725 Y108.208 E.02008
G1 X160.208 Y95.725 E.61548
G1 X160.208 Y96.3 E.02005
G1 X148.3 Y108.208 E.58713
G1 X148.876 Y108.208 E.02008
G1 X160.208 Y96.876 E.55873
G1 X160.208 Y97.452 E.02008
G1 X149.452 Y108.208 E.53033
G1 X150.027 Y108.208 E.02005
G1 X160.208 Y98.027 E.50198
G1 X160.208 Y98.603 E.02008
G1 X150.603 Y108.208 E.47358
G1 X151.179 Y108.208 E.02008
G1 X160.208 Y99.179 E.44518
G1 X160.208 Y99.755 E.02008
G1 X151.755 Y108.208 E.41678
G1 X152.33 Y108.208 E.02005
G1 X160.208 Y100.33 E.38843
G1 X160.208 Y100.906 E.02008
G1 X152.906 Y108.208 E.36003
G1 X153.482 Y108.208 E.02008
G1 X160.208 Y101.482 E.33163
G1 X160.208 Y102.057 E.02005
G1 X154.057 Y108.208 E.30328
G1 X154.633 Y108.208 E.02008
G1 X160.208 Y102.633 E.27488
G1 X160.208 Y103.209 E.02008
G1 X155.209 Y108.208 E.24648
G1 X155.784 Y108.208 E.02005
G1 X160.208 Y103.784 E.21813
G1 X160.208 Y104.36 E.02008
G1 X156.36 Y108.208 E.18973
G1 X156.936 Y108.208 E.02008
G1 X160.208 Y104.936 E.16133
G1 X160.208 Y105.511 E.02005
G1 X157.511 Y108.208 E.13298
G1 X157.972 Y108.37 E.01704
;WIDTH:0.38292
G1 F2205.882
G1 X157.901 Y108.351 E.00214
G2 X157.961 Y108.412 I.04 J.02 E.00331
;WIDTH:0.41646
G1 F2007.82
G1 X158.024 Y108.31 E.00384
;WIDTH:0.449999
G1 F1842.394
G1 X158.087 Y108.208 E.00418
G1 X160.208 Y106.087 E.10458
G1 X160.31 Y106.024 E.00418
;WIDTH:0.41646
G1 F2007.82
G1 X160.412 Y105.961 E.00384
;WIDTH:0.38292
G1 F2205.882
G3 X160.351 Y105.901 I-.02 J-.04 E.00331
G1 X160.423 Y105.92 E.00217
;WIDTH:0.449999
G1 F1842.394
G1 X160.208 Y106.663 E.02697
G1 X160.208 Y108.208 E.05387
M73 P7 R47
G1 X158.663 Y108.208 E.05387
