; generated by PrusaSlicer 2.9.5 on 2026-06-18 at 09:33:19 UTC

; 

; external perimeters extrusion width = 0.45mm
; perimeters extrusion width = 0.45mm
; infill extrusion width = 0.45mm
; solid infill extrusion width = 0.45mm
; top infill extrusion width = 0.42mm
; support material extrusion width = 0.36mm
; first layer extrusion width = 0.50mm

; external perimeters extrusion width = 0.45mm
; perimeters extrusion width = 0.45mm
; infill extrusion width = 0.45mm
; solid infill extrusion width = 0.45mm
; top infill extrusion width = 0.42mm
; support material extrusion width = 0.36mm
; first layer extrusion width = 0.50mm

; external perimeters extrusion width = 0.45mm
; perimeters extrusion width = 0.45mm
; infill extrusion width = 0.45mm
; solid infill extrusion width = 0.45mm
; top infill extrusion width = 0.42mm
; support material extrusion width = 0.36mm
; first layer extrusion width = 0.50mm

; external perimeters extrusion width = 0.45mm
; perimeters extrusion width = 0.45mm
; infill extrusion width = 0.45mm
; solid infill extrusion width = 0.45mm
; top infill extrusion width = 0.42mm
; support material extrusion width = 0.36mm
; first layer extrusion width = 0.50mm

; external perimeters extrusion width = 0.45mm
; perimeters extrusion width = 0.45mm
; infill extrusion width = 0.45mm
; solid infill extrusion width = 0.45mm
; top infill extrusion width = 0.42mm
; support material extrusion width = 0.36mm
; first layer extrusion width = 0.50mm

M73 P0 R219
;TYPE:Custom
M104 ; prevent pusaslicer from adding temperature commands
; run custom start G-code
T-1  ; clear tool selection
M144 S1 ; set bed as active
M140 S0 R0 ; set bed temp
G29 S1 ; activate mesh bed compensation and load saved heightmap

; turn off unused heaters





; homming
G28 ; homing
; try picking tools used in print
G1 F24000
;
;T1
;T2
;T3
G0 Z5 ; add Z clearance
M190 S0 ; wait for bed temp

; set extruder temp
M104 T0 S220
M104 T1 S220
M104 T2 S240
M104 T3 S225


;
; purge second tool
;
G1 F24000
T-1 ; park the tool
M109 T1 S220
T1 ; pick the tool
G92 E0 ; reset extruder position

G0 X320 Y155 Z10 F24000 ; move close to the sheet's edge
G0 E30 X310 Z0.2 F170 ; purge while moving towards the sheet
G0 X285 E39 F800 ; continue purging and wipe the nozzle
G0 X282 Z0.05 F8000 ; wipe, move close to the bed
G0 X279 Z0.2 F8000 ; wipe, move quickly away from the bed
G1 E-1.2 F2400 ; retract

G92 E0 ; reset extruder position

M104 S100 T1


;
; purge third tool
;
G1 F24000
T-1 ; park the tool
M109 T2 S240
T2 ; pick the tool
G92 E0 ; reset extruder position

G0 X320 Y135 Z10 F24000 ; move close to the sheet's edge
G0 E30 X310 Z0.2 F170 ; purge while moving towards the sheet
G0 X285 E39 F800 ; continue purging and wipe the nozzle
M73 P0 R218
G0 X282 Z0.05 F8000 ; wipe, move close to the bed
G0 X279 Z0.2 F8000 ; wipe, move quickly away from the bed
G1 E-1.2 F2400 ; retract

G92 E0 ; reset extruder position

M104 S100 T2


;
; purge fourth tool
;
G1 F24000
T-1 ; park the tool
M109 T3 S225
T3 ; pick the tool
G92 E0 ; reset extruder position

G0 X320 Y115 Z10 F24000 ; move close to the sheet's edge
G0 E30 X310 Z0.2 F170 ; purge while moving towards the sheet
G0 X285 E39 F800 ; continue purging and wipe the nozzle
G0 X282 Z0.05 F8000 ; wipe, move close to the bed
G0 X279 Z0.2 F8000 ; wipe, move quickly away from the bed
G1 E-1.2 F2400 ; retract

G92 E0 ; reset extruder position

M104 S215 T3

;
; purge initial tool
;
G1 F24000
T-1 ; park the tool
M109 T0 S220
T0 ; pick the tool
G92 E0 ; reset extruder position

G0 X320 Y195 Z10 F24000 ; move close to the sheet's edge
G0 E30 X310 Z0.2 F170 ; purge while moving towards the sheet
G0 X285 E39 F800 ; continue purging and wipe the nozzle
G0 X282 Z0.05 F8000 ; wipe, move close to the bed
G0 X279 Z0.2 F8000 ; wipe, move quickly away from the bed
G1 E-1.5 F2400 ; retract



G92 E0 ; reset extruder position

G21 ; set units to millimeters
G90 ; use absolute coordinates
M83 ; use relative distances for extrusion
; Change Tool-1 -> Tool0 (layer -1)

; check if tool is already active at startup
T0 ; tool already active, don't change tools
; Filament gcode
M107
;LAYER_CHANGE
;Z:0.2
;HEIGHT:0.2
G1 Z.2 F720
G1 X127.229 Y80.386 F24000
G1 Z.2 F720
G1 E1.5 F3000
;TYPE:Skirt/Brim
;WIDTH:0.5
;HEIGHT:0.2
G1 F1640.852
G1 X128.345 Y78.619 E.08181
G1 X130.059 Y77.365 E.08314
G1 X132.5 Y76.814 E.09796
G1 X167.5 Y76.814 E1.37013
G1 X169.586 Y77.211 E.08313
G1 X170.814 Y77.88 E.05474
G1 X246.514 Y132.18 E3.64693
G1 X247.977 Y133.719 E.08312
G1 X248.775 Y135.686 E.0831
G1 X248.885 Y136.8 E.04382
G1 X248.885 Y150.2 E.52456
G1 X248.489 Y152.286 E.08312
G1 X247.355 Y154.081 E.08312
G1 X245.641 Y155.334 E.08311
G1 X243.2 Y155.885 E.09796
G1 X176.8 Y155.885 E2.59933
G1 X174.714 Y155.489 E.08312
G1 X173.424 Y154.774 E.05774
G1 X129.123 Y122.074 E2.1555
G1 X127.681 Y120.517 E.08308
G1 X126.814 Y117.5 E.12289
G1 X126.814 Y82.5 E1.37013
G1 X127.206 Y80.44 E.08209
G1 E-1.5 F3000
G1 X180.5 Y140.5 F24000
G1 E1.5 F3000
;HEIGHT:0.2
;TYPE:Wipe tower
;WIDTH:0.5
G1 X239.500 Y140.500 E2.2424 F1641
G1 Y143.000 E0.0950
G1 X180.500 E2.2424
G1 Y140.500 E0.0950
G1 X239.500
G1 Y143.000
G1 X238.500
;--------------------
; CP EMPTY GRID START
; layer #1
G1 Y142.500 E0.0190
G1 X181.000 E2.1854
G1 Y142.000 E0.0190
G1 X239.000 E2.2044
G1 Y141.500 E0.0190
G1 X181.000 E2.2044
G1 Y141.000 E0.0190
G1 X239.000 E2.2044
G1 Y140.500 E0.0190
; CP EMPTY GRID END
;------------------






G1 X240.000 Y140.000
G1 Y147.000 E0.2660
G1 X180.000 E2.2804
G1 Y140.000 E0.2660
G1 X240.000 E2.2804
G1 X240.457 Y139.543
G1 Y147.457 E0.3008
G1 X179.543 E2.3151
G1 Y139.543 E0.3008
M73 P0 R217
G1 X240.457 E2.3151
G1 X240.914 Y139.086
G1 Y147.914 E0.3355
G1 X179.086 E2.3499
G1 Y139.086 E0.3355
G1 X240.914 E2.3499
G1 X241.371 Y138.629
G1 Y148.371 E0.3703
G1 X178.629 E2.3846
G1 Y138.629 E0.3703
G1 X241.371 E2.3846
G1 X241.828 Y138.172
G1 Y148.828 E0.4050
G1 X178.172 E2.4194
G1 Y138.172 E0.4050
G1 X241.828 E2.4194
G1 X242.285 Y137.715
G1 Y149.285 E0.4398
G1 X177.715 E2.4541
G1 Y137.715 E0.4398
G1 X242.285 E2.4541
G1 X242.742 Y137.258
G1 Y149.742 E0.4745
G1 X177.258 E2.4888
G1 Y137.258 E0.4745
G1 X242.742 E2.4888
G1 X243.200 Y136.800
G1 Y150.200 E0.5093
G1 X176.800 E2.5236
G1 Y136.800 E0.5093
G1 X243.200 E2.5236
G1 X239.750 Y146.750 F7200
;HEIGHT:0.2
;TYPE:Wipe tower
;WIDTH:0.5
;--------------------
; CP TOOLCHANGE START
; toolchange #1
; material : FLEX -> FLEX
;--------------------
M220 S100
; CP TOOLCHANGE UNLOAD
;WIDTH:1
;WIDTH:0.5
G4 S0
G1 E-1.2 F3000
; Filament-specific end gcode 
;END gcode for filament
; Change Tool0 -> Tool1 (layer 0)

  ; run tool change as expected
G1 E-2 F2000 ; retract filament
T-1 ; drop off current tool
M109 S220 T1
T1      ; pick up next tool
	; if layer height is above the minimum, enable fan
	               M106 S255 ; set part cooling fan based on filament profile
	
; Filament gcode

G1 F24000
G1 X239.250 Y145.500
G1 Z.2 F720
G1 E1.2 F1200
G4 S0
G1 Y146.000
; CP TOOLCHANGE WIPE
;WIDTH:0.5
G1 X180.250 E2.2424 F656
G1 X181.000 Y145.500 E0.0343
G1 X239.750 E2.2329
G1 X239.000 Y145.000 E0.0343
G1 X181.000 E2.2044
G1 Y144.500 E0.0190
G1 X239.000 E2.2044
G1 Y144.000 E0.0190
G1 X180.250 E2.2329
G1 X181.000 Y143.500 E0.0343
M73 P1 R216
G1 X239.750 E2.2329
;WIDTH:0.5
G1 F24000
G4 S0
G92 E0
; CP TOOLCHANGE END
;------------------



G1 E-.7 F2400
G1 X248.428 Y143.5 F24000
G1 E.7 F1200
;TYPE:Skirt/Brim
;WIDTH:0.5
;HEIGHT:0.2
G1 F656.341
G1 X248.428 Y150.2 E.29284
G1 X248.032 Y152.196 E.08894
G1 X246.903 Y153.89 E.08898
G1 X245.214 Y155.025 E.08894
G1 X243.2 Y155.428 E.08977
G1 X176.8 Y155.428 E2.90216
G1 X174.804 Y155.032 E.08894
G1 X173.695 Y154.406 E.05566
G1 X129.395 Y121.707 E2.40657
G1 X128.024 Y120.202 E.08898
G1 X127.271 Y117.5 E.1226
G1 X127.271 Y82.5 E1.52975
G1 X127.668 Y80.504 E.08895
G1 X128.796 Y78.81 E.08895
G1 X130.486 Y77.675 E.08898
G1 X132.5 Y77.271 E.08978
G1 X167.5 Y77.271 E1.52975
G1 X169.496 Y77.668 E.08895
G1 X170.548 Y78.251 E.05257
G1 X246.247 Y132.552 E4.07181
G1 X247.638 Y134.037 E.08893
G1 X248.428 Y136.8 E.1256
G1 X248.428 Y143.44 E.29022
G1 E-.7 F2400
G1 X150 Y116.286 F24000
G1 E.7 F1200
;TYPE:Perimeter
;WIDTH:0.499999
G1 F656.342
G1 X133.714 Y116.286 E.71182
G1 X133.714 Y83.714 E1.42363
G1 X166.286 Y83.714 E1.42363
G1 X166.286 Y116.286 E1.42363
G1 X150.06 Y116.286 E.70919
G1 X150 Y116.743 F24000
G1 F656.342
G1 X133.257 Y116.743 E.73179
G1 X133.257 Y83.257 E1.46358
G1 X166.743 Y83.257 E1.46358
G1 X166.743 Y116.743 E1.46358
M73 P1 R215
G1 X150.06 Y116.743 E.72917
G1 X150 Y117.2 F24000
;TYPE:External perimeter
G1 F656.342
G1 X132.8 Y117.2 E.75176
G1 X132.8 Y82.8 E1.50353
G1 X167.2 Y82.8 E1.50353
G1 X167.2 Y117.2 E1.50353
G1 X150.06 Y117.2 E.74914
G1 X149.66 Y117.2 F24000
G1 E-.7 F2400
G1 X166.103 Y84.829 F24000
G1 E.7 F1200
;TYPE:Solid infill
;WIDTH:0.503635
G1 F651.162
G1 X165.377 Y84.103 E.04523
G1 X164.725 Y84.103 E.02872
G1 X165.897 Y85.275 E.07302
G1 X165.897 Y85.926 E.02868
G1 X164.074 Y84.103 E.11358
G1 X163.422 Y84.103 E.02872
G1 X165.897 Y86.578 E.1542
G1 X165.897 Y87.229 E.02868
G1 X162.771 Y84.103 E.19476
G1 X162.119 Y84.103 E.02872
G1 X165.897 Y87.881 E.23538
G1 X165.897 Y88.532 E.02868
G1 X161.468 Y84.103 E.27594
G1 X160.816 Y84.103 E.02872
G1 X165.897 Y89.184 E.31656
G1 X165.897 Y89.835 E.02868
G1 X160.165 Y84.103 E.35712
G1 X159.513 Y84.103 E.02872
G1 X165.897 Y90.487 E.39774
G1 X165.897 Y91.138 E.02868
G1 X158.862 Y84.103 E.4383
G1 X158.21 Y84.103 E.02872
G1 X165.897 Y91.79 E.47892
G1 X165.897 Y92.442 E.02872
G1 X157.558 Y84.103 E.51955
G1 X156.907 Y84.103 E.02868
G1 X165.897 Y93.093 E.5601
G1 X165.897 Y93.745 E.02872
G1 X156.255 Y84.103 E.60073
G1 X155.604 Y84.103 E.02868
G1 X165.897 Y94.396 E.64129
G1 X165.897 Y95.048 E.02872
G1 X154.952 Y84.103 E.68191
G1 X154.301 Y84.103 E.02868
G1 X165.897 Y95.699 E.72247
G1 X165.897 Y96.351 E.02872
G1 X153.649 Y84.103 E.76309
G1 X152.998 Y84.103 E.02868
G1 X165.897 Y97.002 E.80365
G1 X165.897 Y97.654 E.02872
G1 X152.346 Y84.103 E.84427
G1 X151.694 Y84.103 E.02872
G1 X165.897 Y98.306 E.88489
G1 X165.897 Y98.957 E.02868
G1 X151.043 Y84.103 E.92545
G1 X150.391 Y84.103 E.02872
G1 X165.897 Y99.609 E.96607
G1 X165.897 Y100.26 E.02868
G1 X149.74 Y84.103 E1.00663
G1 X149.088 Y84.103 E.02872
G1 X165.897 Y100.912 E1.04725
G1 X165.897 Y101.563 E.02868
G1 X148.437 Y84.103 E1.08781
G1 X147.785 Y84.103 E.02872
G1 X165.897 Y102.215 E1.12843
G1 X165.897 Y102.866 E.02868
G1 X147.134 Y84.103 E1.16899
G1 X146.482 Y84.103 E.02872
G1 X165.897 Y103.518 E1.20961
G1 X165.897 Y104.169 E.02868
G1 X145.831 Y84.103 E1.25017
G1 X145.179 Y84.103 E.02872
M73 P1 R214
G1 X165.897 Y104.821 E1.29079
G1 X165.897 Y105.473 E.02872
G1 X144.527 Y84.103 E1.33142
G1 X143.876 Y84.103 E.02868
G1 X165.897 Y106.124 E1.37198
G1 X165.897 Y106.776 E.02872
G1 X143.224 Y84.103 E1.4126
G1 X142.573 Y84.103 E.02868
M73 P2 R214
G1 X165.897 Y107.427 E1.45316
G1 X165.897 Y108.079 E.02872
G1 X141.921 Y84.103 E1.49378
G1 X141.27 Y84.103 E.02868
G1 X165.897 Y108.73 E1.53434
G1 X165.897 Y109.382 E.02872
G1 X140.618 Y84.103 E1.57496
G1 X139.967 Y84.103 E.02868
G1 X165.897 Y110.033 E1.61552
G1 X165.897 Y110.685 E.02872
G1 X139.315 Y84.103 E1.65614
G1 X138.663 Y84.103 E.02872
G1 X165.897 Y111.337 E1.69676
G1 X165.897 Y111.988 E.02868
G1 X138.012 Y84.103 E1.73732
G1 X137.36 Y84.103 E.02872
G1 X165.897 Y112.64 E1.77794
G1 X165.897 Y113.291 E.02868
G1 X136.709 Y84.103 E1.8185
G1 X136.057 Y84.103 E.02872
G1 X165.897 Y113.943 E1.85912
G1 X165.897 Y114.594 E.02868
G1 X135.406 Y84.103 E1.89968
G1 X134.754 Y84.103 E.02872
G1 X165.897 Y115.246 E1.9403
G1 X165.897 Y115.897 E.02868
G1 X134.103 Y84.103 E1.98086
G1 X134.103 Y84.754 E.02868
M73 P2 R213
G1 X165.246 Y115.897 E1.9403
G1 X164.594 Y115.897 E.02872
G1 X134.103 Y85.406 E1.89968
G1 X134.103 Y86.057 E.02868
G1 X163.943 Y115.897 E1.85912
G1 X163.291 Y115.897 E.02872
G1 X134.103 Y86.709 E1.8185
G1 X134.103 Y87.36 E.02868
G1 X162.64 Y115.897 E1.77794
G1 X161.988 Y115.897 E.02872
G1 X134.103 Y88.012 E1.73732
G1 X134.103 Y88.664 E.02872
G1 X161.336 Y115.897 E1.6967
G1 X160.685 Y115.897 E.02868
G1 X134.103 Y89.315 E1.65614
G1 X134.103 Y89.967 E.02872
G1 X160.033 Y115.897 E1.61552
G1 X159.382 Y115.897 E.02868
G1 X134.103 Y90.618 E1.57496
G1 X134.103 Y91.27 E.02872
G1 X158.73 Y115.897 E1.53434
G1 X158.079 Y115.897 E.02868
G1 X134.103 Y91.921 E1.49378
G1 X134.103 Y92.573 E.02872
G1 X157.427 Y115.897 E1.45316
G1 X156.776 Y115.897 E.02868
G1 X134.103 Y93.224 E1.4126
G1 X134.103 Y93.876 E.02872
G1 X156.124 Y115.897 E1.37198
G1 X155.472 Y115.897 E.02872
G1 X134.103 Y94.528 E1.33135
G1 X134.103 Y95.179 E.02868
G1 X154.821 Y115.897 E1.29079
G1 X154.169 Y115.897 E.02872
M73 P2 R212
G1 X134.103 Y95.831 E1.25017
G1 X134.103 Y96.482 E.02868
G1 X153.518 Y115.897 E1.20961
G1 X152.866 Y115.897 E.02872
G1 X134.103 Y97.134 E1.16899
G1 X134.103 Y97.785 E.02868
G1 X152.215 Y115.897 E1.12843
G1 X151.563 Y115.897 E.02872
G1 X134.103 Y98.437 E1.08781
G1 X134.103 Y99.088 E.02868
G1 X150.912 Y115.897 E1.04725
G1 X150.26 Y115.897 E.02872
G1 X134.103 Y99.74 E1.00663
G1 X134.103 Y100.391 E.02868
G1 X149.609 Y115.897 E.96607
G1 X148.957 Y115.897 E.02872
G1 X134.103 Y101.043 E.92545
G1 X134.103 Y101.695 E.02872
M73 P3 R212
G1 X148.305 Y115.897 E.88483
G1 X147.654 Y115.897 E.02868
G1 X134.103 Y102.346 E.84427
G1 X134.103 Y102.998 E.02872
G1 X147.002 Y115.897 E.80365
G1 X146.351 Y115.897 E.02868
G1 X134.103 Y103.649 E.76309
G1 X134.103 Y104.301 E.02872
G1 X145.699 Y115.897 E.72247
G1 X145.048 Y115.897 E.02868
G1 X134.103 Y104.952 E.68191
G1 X134.103 Y105.604 E.02872
G1 X144.396 Y115.897 E.64129
G1 X143.745 Y115.897 E.02868
G1 X134.103 Y106.255 E.60073
G1 X134.103 Y106.907 E.02872
G1 X143.093 Y115.897 E.5601
G1 X142.442 Y115.897 E.02868
G1 X134.103 Y107.558 E.51955
G1 X134.103 Y108.21 E.02872
G1 X141.79 Y115.897 E.47892
G1 X141.138 Y115.897 E.02872
G1 X134.103 Y108.862 E.4383
G1 X134.103 Y109.513 E.02868
G1 X140.487 Y115.897 E.39774
G1 X139.835 Y115.897 E.02872
G1 X134.103 Y110.165 E.35712
G1 X134.103 Y110.816 E.02868
G1 X139.184 Y115.897 E.31656
G1 X138.532 Y115.897 E.02872
G1 X134.103 Y111.468 E.27594
G1 X134.103 Y112.119 E.02868
G1 X137.881 Y115.897 E.23538
G1 X137.229 Y115.897 E.02872
G1 X134.103 Y112.771 E.19476
G1 X134.103 Y113.422 E.02868
G1 X136.578 Y115.897 E.1542
G1 X135.926 Y115.897 E.02872
G1 X134.103 Y114.074 E.11358
G1 X134.103 Y114.726 E.02872
G1 X135.274 Y115.897 E.07296
G1 X134.623 Y115.897 E.02868
G1 X133.897 Y115.171 E.04523
;LAYER_CHANGE
;Z:0.4
;HEIGHT:0.2
;BEFORE_LAYER_CHANGE
G92 E0.0
;0.4

G1 E-.7 F2400
G1 Z.4 F720
G1 X150 Y116.461 F24000
G1 E.7 F1200
;TYPE:Perimeter
;WIDTH:0.449999
;HEIGHT:0.2
G1 F736.958
G1 X133.539 Y116.461 E.64076
G1 X133.539 Y83.539 E1.28152
G1 X166.461 Y83.539 E1.28152
G1 X166.461 Y116.461 E1.28152
G1 X150.06 Y116.461 E.63843
G1 X150 Y116.868 F24000
G1 F736.958
G1 X133.132 Y116.868 E.65661
G1 X133.132 Y83.132 E1.31321
G1 X166.868 Y83.132 E1.31321
M73 P3 R211
G1 X166.868 Y116.868 E1.31321
G1 X150.06 Y116.868 E.65427
G1 X150 Y117.275 F24000
;TYPE:External perimeter
G1 F736.958
G1 X132.725 Y117.275 E.67245
G1 X132.725 Y82.725 E1.3449
G1 X167.275 Y82.725 E1.3449
G1 X167.275 Y117.275 E1.3449
G1 X150.06 Y117.275 E.67011
G1 X149.66 Y117.275 F24000
G1 E-.7 F2400
G1 X133.996 Y83.918 F24000
G1 E.7 F1200
;TYPE:Solid infill
;WIDTH:0.548766
G1 F593.066
G2 X133.979 Y83.979 I-.059 J.017 E.0152
;WIDTH:0.449999
G1 F736.958
G1 X134.629 Y83.885 E.02557
G1 X133.819 Y84.702 E.04478
;WIDTH:0.41646
G1 F803.128
G1 X133.752 Y84.775 E.00354
;WIDTH:0.38292
G1 F882.353
G1 X133.681 Y84.756 E.00239
G2 X133.741 Y84.816 I.04 J.02 E.00362
;WIDTH:0.449999
G1 F736.958
G1 X133.885 Y85.205 E.01615
G1 X135.205 Y83.885 E.07267
G1 X135.781 Y83.885 E.02242
G1 X133.885 Y85.781 E.10437
G1 X133.885 Y86.357 E.02242
G1 X136.357 Y83.885 E.13608
G1 X136.932 Y83.885 E.02238
G1 X133.885 Y86.932 E.16774
G1 X133.885 Y87.508 E.02242
G1 X137.508 Y83.885 E.19945
G1 X138.084 Y83.885 E.02242
G1 X133.885 Y88.084 E.23115
G1 X133.885 Y88.659 E.02238
G1 X138.659 Y83.885 E.26281
G1 X139.235 Y83.885 E.02242
G1 X133.885 Y89.235 E.29452
