; generated by PrusaSlicer 2.9.5 on 2026-06-10 at 13:14:38 UTC

; 

; external perimeters extrusion width = 0.45mm
; perimeters extrusion width = 0.45mm
; infill extrusion width = 0.45mm
; solid infill extrusion width = 0.45mm
; top infill extrusion width = 0.42mm
; support material extrusion width = 0.36mm
; first layer extrusion width = 0.50mm

; external perimeters extrusion width = 0.45mm
; perimeters extrusion width = 0.45mm
; infill extrusion width = 0.45mm
; solid infill extrusion width = 0.45mm
; top infill extrusion width = 0.42mm
; support material extrusion width = 0.36mm
; first layer extrusion width = 0.50mm

; external perimeters extrusion width = 0.45mm
; perimeters extrusion width = 0.45mm
; infill extrusion width = 0.45mm
; solid infill extrusion width = 0.45mm
; top infill extrusion width = 0.42mm
; support material extrusion width = 0.36mm
; first layer extrusion width = 0.50mm

; external perimeters extrusion width = 0.45mm
; perimeters extrusion width = 0.45mm
; infill extrusion width = 0.45mm
; solid infill extrusion width = 0.45mm
; top infill extrusion width = 0.42mm
; support material extrusion width = 0.36mm
; first layer extrusion width = 0.50mm

M73 P0 R40
;TYPE:Custom
M104 ; prevent pusaslicer from adding temperature commands
; run custom start G-code
T-1  ; clear tool selection
M144 S1 ; set bed as active
M140 S0 R0 ; set bed temp
G29 S1 ; activate mesh bed compensation and load saved heightmap

; turn off unused heaters



M104 T3 S0

; homming
G28 ; homing
; try picking tools used in print
G1 F24000
;
;T1
;T2
;
G0 Z5 ; add Z clearance
M190 S0 ; wait for bed temp

; set extruder temp
M104 T0 S220
M104 T1 S220
M104 T2 S240



;
; purge second tool
;
G1 F24000
T-1 ; park the tool
M109 T1 S220
T1 ; pick the tool
G92 E0 ; reset extruder position

G0 X320 Y155 Z10 F24000 ; move close to the sheet's edge
G0 E30 X310 Z0.2 F170 ; purge while moving towards the sheet
G0 X285 E39 F800 ; continue purging and wipe the nozzle
G0 X282 Z0.05 F8000 ; wipe, move close to the bed
G0 X279 Z0.2 F8000 ; wipe, move quickly away from the bed
G1 E-1.2 F2400 ; retract

G92 E0 ; reset extruder position

M104 S100 T1


;
; purge third tool
;
G1 F24000
T-1 ; park the tool
M109 T2 S240
T2 ; pick the tool
G92 E0 ; reset extruder position

G0 X320 Y135 Z10 F24000 ; move close to the sheet's edge
G0 E30 X310 Z0.2 F170 ; purge while moving towards the sheet
G0 X285 E39 F800 ; continue purging and wipe the nozzle
M73 P0 R39
G0 X282 Z0.05 F8000 ; wipe, move close to the bed
G0 X279 Z0.2 F8000 ; wipe, move quickly away from the bed
G1 E-1.2 F2400 ; retract

G92 E0 ; reset extruder position

M104 S100 T2


;
; purge initial tool
;
G1 F24000
T-1 ; park the tool
M109 T0 S220
T0 ; pick the tool
G92 E0 ; reset extruder position

G0 X320 Y195 Z10 F24000 ; move close to the sheet's edge
G0 E30 X310 Z0.2 F170 ; purge while moving towards the sheet
G0 X285 E39 F800 ; continue purging and wipe the nozzle
M73 P1 R39
G0 X282 Z0.05 F8000 ; wipe, move close to the bed
G0 X279 Z0.2 F8000 ; wipe, move quickly away from the bed
G1 E-1.5 F2400 ; retract



G92 E0 ; reset extruder position

G21 ; set units to millimeters
G90 ; use absolute coordinates
M83 ; use relative distances for extrusion
; Change Tool-1 -> Tool0 (layer -1)

; check if tool is already active at startup
T0 ; tool already active, don't change tools
; Filament gcode
M107
;LAYER_CHANGE
;Z:0.2
;HEIGHT:0.2
G1 Z.2 F720
G1 X239.5 Y140.5 F24000
G1 Z.2 F720
G1 E1.5 F3000
;HEIGHT:0.2
;TYPE:Wipe tower
;WIDTH:0.5
G1 X239.500 Y168.500 E1.0642 F1641
G1 X180.500 E2.2424
G1 Y140.500 E1.0642
G1 X239.500 E2.2424
G1 Y168.500
G1 X238.500
;--------------------
; CP EMPTY GRID START
; layer #1
G1 Y168.000 E0.0190
G1 X181.000 E2.1854
G1 Y167.500 E0.0190
G1 X239.000 E2.2044
G1 Y167.000 E0.0190
G1 X181.000 E2.2044
G1 Y166.500 E0.0190
G1 X239.000 E2.2044
G1 Y166.000 E0.0190
G1 X181.000 E2.2044
G1 Y165.500 E0.0190
G1 X239.000 E2.2044
G1 Y165.000 E0.0190
M73 P2 R39
G1 X181.000 E2.2044
G1 Y164.500 E0.0190
G1 X239.000 E2.2044
G1 Y164.000 E0.0190
G1 X181.000 E2.2044
G1 Y163.500 E0.0190
G1 X239.000 E2.2044
G1 Y163.000 E0.0190
G1 X181.000 E2.2044
G1 Y162.500 E0.0190
G1 X239.000 E2.2044
G1 Y162.000 E0.0190
G1 X181.000 E2.2044
G1 Y161.500 E0.0190
G1 X239.000 E2.2044
G1 Y161.000 E0.0190
G1 X181.000 E2.2044
G1 Y160.500 E0.0190
G1 X239.000 E2.2044
G1 Y160.000 E0.0190
G1 X181.000 E2.2044
G1 Y159.500 E0.0190
G1 X239.000 E2.2044
G1 Y159.000 E0.0190
M73 P3 R39
G1 X181.000 E2.2044
G1 Y158.500 E0.0190
M73 P3 R38
G1 X239.000 E2.2044
G1 Y158.000 E0.0190
G1 X181.000 E2.2044
G1 Y157.500 E0.0190
G1 X239.000 E2.2044
G1 Y157.000 E0.0190
G1 X181.000 E2.2044
G1 Y156.500 E0.0190
G1 X239.000 E2.2044
G1 Y156.000 E0.0190
G1 X181.000 E2.2044
G1 Y155.500 E0.0190
G1 X239.000 E2.2044
G1 Y155.000 E0.0190
G1 X181.000 E2.2044
G1 Y154.500 E0.0190
G1 X239.000 E2.2044
G1 Y154.000 E0.0190
G1 X181.000 E2.2044
G1 Y153.500 E0.0190
M73 P4 R38
G1 X239.000 E2.2044
G1 Y153.000 E0.0190
G1 X181.000 E2.2044
G1 Y152.500 E0.0190
G1 X239.000 E2.2044
G1 Y152.000 E0.0190
G1 X181.000 E2.2044
G1 Y151.500 E0.0190
G1 X239.000 E2.2044
G1 Y151.000 E0.0190
G1 X181.000 E2.2044
G1 Y150.500 E0.0190
G1 X239.000 E2.2044
G1 Y150.000 E0.0190
G1 X181.000 E2.2044
G1 Y149.500 E0.0190
G1 X239.000 E2.2044
G1 Y149.000 E0.0190
G1 X181.000 E2.2044
G1 Y148.500 E0.0190
G1 X239.000 E2.2044
G1 Y148.000 E0.0190
M73 P5 R38
G1 X181.000 E2.2044
G1 Y147.500 E0.0190
G1 X239.000 E2.2044
G1 Y147.000 E0.0190
G1 X181.000 E2.2044
G1 Y146.500 E0.0190
G1 X239.000 E2.2044
G1 Y146.000 E0.0190
G1 X181.000 E2.2044
G1 Y145.500 E0.0190
G1 X239.000 E2.2044
G1 Y145.000 E0.0190
G1 X181.000 E2.2044
G1 Y144.500 E0.0190
M73 P5 R37
G1 X239.000 E2.2044
G1 Y144.000 E0.0190
G1 X181.000 E2.2044
G1 Y143.500 E0.0190
G1 X239.000 E2.2044
G1 Y143.000 E0.0190
G1 X181.000 E2.2044
G1 Y142.500 E0.0190
M73 P6 R37
G1 X239.000 E2.2044
G1 Y142.000 E0.0190
G1 X181.000 E2.2044
G1 Y141.500 E0.0190
G1 X239.000 E2.2044
G1 Y141.000 E0.0190
G1 X181.000 E2.2044
G1 Y140.500 E0.0190
; CP EMPTY GRID END
;------------------






G1 X180.000 Y140.000
G1 X240.000 E2.2804
G1 Y169.000 E1.1022
G1 X180.000 E2.2804
G1 Y140.000 E1.1022
G1 X179.543 Y139.543
G1 X240.457 E2.3151
G1 Y169.457 E1.1369
G1 X179.543 E2.3151
G1 Y139.543 E1.1369
G1 X179.086 Y139.086
G1 X240.914 E2.3499
G1 Y169.914 E1.1717
M73 P7 R37
G1 X179.086 E2.3499
G1 Y139.086 E1.1717
G1 X178.629 Y138.629
G1 X241.371 E2.3846
G1 Y170.371 E1.2064
G1 X178.629 E2.3846
G1 Y138.629 E1.2064
G1 X178.172 Y138.172
G1 X241.828 E2.4194
G1 Y170.828 E1.2412
G1 X178.172 E2.4194
G1 Y138.172 E1.2412
G1 X177.715 Y137.715
G1 X242.285 E2.4541
G1 Y171.285 E1.2759
G1 X177.715 E2.4541
G1 Y137.715 E1.2759
M73 P8 R37
G1 X177.258 Y137.258
M73 P8 R36
G1 X242.742 E2.4888
G1 Y171.742 E1.3106
G1 X177.258 E2.4888
G1 Y137.258 E1.3106
G1 X176.800 Y136.800
G1 X243.200 E2.5236
G1 Y172.200 E1.3454
G1 X176.800 E2.5236
G1 Y136.800 E1.3454

G1 E-1.5 F3000
G1 X155.151 Y153.68 F24000
G1 E1.5 F3000
;TYPE:Skirt/Brim
;WIDTH:0.5
;HEIGHT:0.2
G1 F1640.852
G1 X135.516 Y128.496 E1.2501
G1 X134.546 Y126.607 E.08313
G1 X134.314 Y125 E.06356
G1 X134.314 Y75 E1.95733
G1 X134.711 Y72.914 E.08313
G1 X135.845 Y71.119 E.08312
G1 X137.559 Y69.865 E.08314
G1 X140 Y69.314 E.09796
G1 X146 Y69.314 E.23488
G1 X148.086 Y69.711 E.08313
G1 X149.051 Y70.202 E.04239
G1 X246.25 Y132.003 E4.50899
G1 X247.798 Y133.456 E.08311
M73 P9 R36
G1 X248.704 Y135.376 E.08311
G1 X248.885 Y136.8 E.05619
G1 X248.885 Y172.2 E1.38579
G1 X248.489 Y174.286 E.08312
G1 X247.355 Y176.081 E.08312
G1 X245.641 Y177.334 E.08311
G1 X243.2 Y177.885 E.09796
G1 X176.8 Y177.885 E2.59933
G1 X174.714 Y177.489 E.08312
G1 X172.317 Y175.695 E.1172
G1 X155.188 Y153.727 E1.09049
G1 X155.549 Y153.446 F24000
G1 F1640.852
G1 X135.877 Y128.215 E1.25244
G1 X134.962 Y126.397 E.07967
G1 X134.771 Y125 E.0552
G1 X134.771 Y75 E1.95733
G1 X135.168 Y73.004 E.07967
G1 X136.296 Y71.31 E.07967
G1 X137.986 Y70.175 E.07969
G1 X140 Y69.771 E.08041
G1 X146 Y69.771 E.23488
G1 X148.805 Y70.588 E.11437
G1 X246.005 Y132.388 E4.50901
G1 X247.477 Y133.794 E.07969
G1 X248.301 Y135.655 E.07967
G1 X248.428 Y136.8 E.0451
G1 X248.428 Y172.2 E1.38579
G1 X248.032 Y174.196 E.07966
G1 X246.903 Y175.89 E.07969
G1 X245.214 Y177.025 E.07966
G1 X243.2 Y177.428 E.0804
G1 X176.8 Y177.428 E2.59933
G1 X174.804 Y177.032 E.07966
G1 X172.677 Y175.414 E.10462
G1 X155.586 Y153.493 E1.08813
G1 E-1.5 F3000
G1 X143 Y123.786 F24000
G1 E1.5 F3000
;TYPE:Perimeter
;WIDTH:0.499999
G1 F1640.854
G1 X141.214 Y123.786 E.06992
G1 X141.214 Y76.214 E1.86228
G1 X144.786 Y76.214 E.13983
G1 X144.786 Y123.786 E1.86228
G1 X143.06 Y123.786 E.06757
M73 P10 R36
G1 X143 Y124.243 F24000
G1 F1640.854
G1 X140.757 Y124.243 E.08781
G1 X140.757 Y75.757 E1.89806
G1 X145.243 Y75.757 E.17561
G1 X145.243 Y124.243 E1.89806
G1 X143.06 Y124.243 E.08546
G1 X143 Y124.7 F24000
;TYPE:External perimeter
G1 F1640.854
G1 X140.3 Y124.7 E.1057
G1 X140.3 Y75.3 E1.93384
G1 X145.7 Y75.3 E.21139
G1 X145.7 Y124.7 E1.93384
G1 X143.06 Y124.7 E.10335
G1 X142.66 Y124.7 F24000
G1 E-1.5 F3000
G1 X144.603 Y77.323 F24000
G1 E1.5 F3000
;TYPE:Solid infill
;WIDTH:0.500757
G1 F1638.138
G1 X143.883 Y76.603 E.03993
G1 X143.236 Y76.603 E.02537
G1 X144.397 Y77.764 E.06438
G1 X144.397 Y78.412 E.02541
G1 X142.588 Y76.603 E.10031
G1 X141.941 Y76.603 E.02537
G1 X144.397 Y79.059 E.13619
G1 X144.397 Y79.707 E.02541
G1 X141.603 Y76.912 E.15496
G1 X141.603 Y77.56 E.02541
G1 X144.397 Y80.354 E.15494
G1 X144.397 Y81.002 E.02541
G1 X141.603 Y78.207 E.15496
G1 X141.603 Y78.855 E.02541
G1 X144.397 Y81.649 E.15494
G1 X144.397 Y82.297 E.02541
G1 X141.603 Y79.502 E.15496
G1 X141.603 Y80.15 E.02541
G1 X144.397 Y82.944 E.15494
G1 X144.397 Y83.592 E.02541
G1 X141.603 Y80.797 E.15496
G1 X141.603 Y81.445 E.02541
G1 X144.397 Y84.239 E.15494
G1 X144.397 Y84.887 E.02541
G1 X141.603 Y82.092 E.15496
G1 X141.603 Y82.739 E.02537
G1 X144.397 Y85.534 E.15496
G1 X144.397 Y86.182 E.02541
G1 X141.603 Y83.387 E.15496
G1 X141.603 Y84.034 E.02537
G1 X144.397 Y86.829 E.15496
G1 X144.397 Y87.477 E.02541
G1 X141.603 Y84.682 E.15496
G1 X141.603 Y85.329 E.02537
G1 X144.397 Y88.124 E.15496
G1 X144.397 Y88.772 E.02541
G1 X141.603 Y85.977 E.15496
G1 X141.603 Y86.624 E.02537
G1 X144.397 Y89.419 E.15496
G1 X144.397 Y90.066 E.02537
G1 X141.603 Y87.272 E.15494
G1 X141.603 Y87.919 E.02537
G1 X144.397 Y90.714 E.15496
G1 X144.397 Y91.361 E.02537
G1 X141.603 Y88.567 E.15494
G1 X141.603 Y89.214 E.02537
G1 X144.397 Y92.009 E.15496
G1 X144.397 Y92.656 E.02537
G1 X141.603 Y89.862 E.15494
G1 X141.603 Y90.509 E.02537
G1 X144.397 Y93.304 E.15496
G1 X144.397 Y93.951 E.02537
G1 X141.603 Y91.157 E.15494
G1 X141.603 Y91.804 E.02537
M73 P10 R35
G1 X144.397 Y94.599 E.15496
G1 X144.397 Y95.246 E.02537
G1 X141.603 Y92.452 E.15494
G1 X141.603 Y93.099 E.02537
G1 X144.397 Y95.894 E.15496
G1 X144.397 Y96.541 E.02537
G1 X141.603 Y93.747 E.15494
G1 X141.603 Y94.394 E.02537
G1 X144.397 Y97.189 E.15496
G1 X144.397 Y97.836 E.02537
G1 X141.603 Y95.042 E.15494
G1 X141.603 Y95.689 E.02537
G1 X144.397 Y98.484 E.15496
G1 X144.397 Y99.131 E.02537
G1 X141.603 Y96.337 E.15494
G1 X141.603 Y96.984 E.02537
G1 X144.397 Y99.779 E.15496
G1 X144.397 Y100.426 E.02537
G1 X141.603 Y97.631 E.15496
G1 X141.603 Y98.279 E.02541
G1 X144.397 Y101.074 E.15496
G1 X144.397 Y101.721 E.02537
G1 X141.603 Y98.926 E.15496
G1 X141.603 Y99.574 E.02541
G1 X144.397 Y102.369 E.15496
G1 X144.397 Y103.016 E.02537
G1 X141.603 Y100.221 E.15496
G1 X141.603 Y100.869 E.02541
G1 X144.397 Y103.664 E.15496
G1 X144.397 Y104.311 E.02537
G1 X141.603 Y101.516 E.15496
G1 X141.603 Y102.164 E.02541
G1 X144.397 Y104.958 E.15494
G1 X144.397 Y105.606 E.02541
G1 X141.603 Y102.811 E.15496
G1 X141.603 Y103.459 E.02541
G1 X144.397 Y106.253 E.15494
G1 X144.397 Y106.901 E.02541
G1 X141.603 Y104.106 E.15496
G1 X141.603 Y104.754 E.02541
G1 X144.397 Y107.548 E.15494
G1 X144.397 Y108.196 E.02541
G1 X141.603 Y105.401 E.15496
G1 X141.603 Y106.049 E.02541
G1 X144.397 Y108.843 E.15494
G1 X144.397 Y109.491 E.02541
G1 X141.603 Y106.696 E.15496
G1 X141.603 Y107.344 E.02541
G1 X144.397 Y110.138 E.15494
G1 X144.397 Y110.786 E.02541
G1 X141.603 Y107.991 E.15496
G1 X141.603 Y108.639 E.02541
G1 X144.397 Y111.433 E.15494
G1 X144.397 Y112.081 E.02541
G1 X141.603 Y109.286 E.15496
G1 X141.603 Y109.934 E.02541
G1 X144.397 Y112.728 E.15494
G1 X144.397 Y113.376 E.02541
G1 X141.603 Y110.581 E.15496
G1 X141.603 Y111.229 E.02541
G1 X144.397 Y114.023 E.15494
G1 X144.397 Y114.671 E.02541
G1 X141.603 Y111.876 E.15496
G1 X141.603 Y112.524 E.02541
G1 X144.397 Y115.318 E.15494
G1 X144.397 Y115.966 E.02541
G1 X141.603 Y113.171 E.15496
G1 X141.603 Y113.818 E.02537
G1 X144.397 Y116.613 E.15496
G1 X144.397 Y117.261 E.02541
G1 X141.603 Y114.466 E.15496
G1 X141.603 Y115.113 E.02537
G1 X144.397 Y117.908 E.15496
G1 X144.397 Y118.556 E.02541
G1 X141.603 Y115.761 E.15496
G1 X141.603 Y116.408 E.02537
G1 X144.397 Y119.203 E.15496
G1 X144.397 Y119.851 E.02541
G1 X141.603 Y117.056 E.15496
G1 X141.603 Y117.703 E.02537
G1 X144.397 Y120.498 E.15496
G1 X144.397 Y121.145 E.02537
G1 X141.603 Y118.351 E.15494
G1 X141.603 Y118.998 E.02537
G1 X144.397 Y121.793 E.15496
G1 X144.397 Y122.44 E.02537
G1 X141.603 Y119.646 E.15494
G1 X141.603 Y120.293 E.02537
G1 X144.397 Y123.088 E.15496
G1 X144.397 Y123.397 E.01212
G1 X144.059 Y123.397 E.01325
G1 X141.603 Y120.941 E.13619
G1 X141.603 Y121.588 E.02537
G1 X143.412 Y123.397 E.10031
G1 X142.764 Y123.397 E.02541
G1 X141.603 Y122.236 E.06438
G1 X141.603 Y122.883 E.02537
G1 X142.323 Y123.603 E.03993
M106 S15.3
;LAYER_CHANGE
;Z:0.4
;HEIGHT:0.2
;BEFORE_LAYER_CHANGE
G92 E0.0
;0.4

G1 E-1.5 F3000
G1 Z.4 F720
G1 X180.5 Y168.5 F24000
G1 E1.5 F3000
;HEIGHT:0.2
;TYPE:Wipe tower
;WIDTH:0.5
G1 X180.500 Y140.500 E1.0642 F1641
G1 X239.500 E2.2424
G1 Y168.500 E1.0642
M73 P11 R35
G1 X180.500 E2.2424
G1 Y140.500
G1 X181.500
;--------------------
; CP EMPTY GRID START
; layer #2
G1 Y168.500 E1.0642
G1 X191.000
G1 Y140.500 E1.0642
G1 X200.500
G1 Y168.500 E1.0642
G1 X210.000
G1 Y140.500 E1.0642
G1 X219.500
G1 Y168.500 E1.0642
G1 X229.000
G1 Y140.500 E1.0642
G1 X238.500
G1 Y168.500 E1.0642
; CP EMPTY GRID END
;------------------






G1 X240.000 Y169.000
G1 X180.000 E2.2804
G1 Y140.000 E1.1022
G1 X240.000 E2.2804
G1 Y169.000 E1.1022

G1 E-1.5 F3000
G1 X143 Y123.961 F24000
G1 E1.5 F3000
;TYPE:Perimeter
;WIDTH:0.449999
;HEIGHT:0.2
G1 F1842.394
G1 X141.039 Y123.961 E.06837
G1 X141.039 Y76.039 E1.67076
G1 X144.961 Y76.039 E.13674
M73 P12 R35
G1 X144.961 Y123.961 E1.67076
G1 X143.06 Y123.961 E.06628
G1 X143 Y124.368 F24000
G1 F1842.394
G1 X140.632 Y124.368 E.08256
G1 X140.632 Y75.632 E1.69914
G1 X145.368 Y75.632 E.16512
G1 X145.368 Y124.368 E1.69914
G1 X143.06 Y124.368 E.08047
G1 X143 Y124.775 F24000
;TYPE:External perimeter
G1 F1842.394
G1 X140.225 Y124.775 E.09675
G1 X140.225 Y75.225 E1.72752
G1 X145.775 Y75.225 E.1935
G1 X145.775 Y124.775 E1.72752
G1 X143.06 Y124.775 E.09466
G1 X142.66 Y124.775 F24000
G1 E-1.5 F3000
G1 X141.496 Y76.418 F24000
G1 E1.5 F3000
;TYPE:Solid infill
;WIDTH:0.548766
G1 F1482.665
G2 X141.479 Y76.479 I-.059 J.017 E.01362
;WIDTH:0.449999
G1 F1842.394
G1 X142.129 Y76.385 E.0229
G1 X141.385 Y77.129 E.03668
G1 X141.385 Y77.705 E.02008
G1 X142.705 Y76.385 E.06508
G1 X143.281 Y76.385 E.02008
G1 X141.385 Y78.281 E.09348
G1 X141.385 Y78.857 E.02008
G1 X143.857 Y76.385 E.12188
G1 X144.432 Y76.385 E.02005
G1 X141.385 Y79.432 E.15023
G1 X141.385 Y80.008 E.02008
G1 X144.615 Y76.778 E.15926
G1 X144.615 Y77.354 E.02008
G1 X141.385 Y80.584 E.15926
G1 X141.385 Y81.159 E.02005
G1 X144.615 Y77.93 E.15923
G1 X144.615 Y78.505 E.02005
G1 X141.385 Y81.735 E.15926
G1 X141.385 Y82.311 E.02008
G1 X144.615 Y79.081 E.15926
G1 X144.615 Y79.657 E.02008
G1 X141.385 Y82.886 E.15923
G1 X141.385 Y83.462 E.02008
G1 X144.615 Y80.233 E.15923
G1 X144.615 Y80.808 E.02005
G1 X141.385 Y84.038 E.15926
G1 X141.385 Y84.614 E.02008
G1 X144.615 Y81.384 E.15926
G1 X144.615 Y81.96 E.02008
G1 X141.385 Y85.189 E.15923
G1 X141.385 Y85.765 E.02008
G1 X144.615 Y82.535 E.15926
G1 X144.615 Y83.111 E.02008
G1 X141.385 Y86.341 E.15926
G1 X141.385 Y86.916 E.02005
