; generated by PrusaSlicer 2.9.5 on 2026-06-11 at 11:21:55 UTC

; 

; external perimeters extrusion width = 0.45mm
; perimeters extrusion width = 0.45mm
; infill extrusion width = 0.45mm
; solid infill extrusion width = 0.45mm
; top infill extrusion width = 0.42mm
; support material extrusion width = 0.36mm
; first layer extrusion width = 0.50mm

; external perimeters extrusion width = 0.45mm
; perimeters extrusion width = 0.45mm
; infill extrusion width = 0.45mm
; solid infill extrusion width = 0.45mm
; top infill extrusion width = 0.42mm
; support material extrusion width = 0.36mm
; first layer extrusion width = 0.50mm

; external perimeters extrusion width = 0.45mm
; perimeters extrusion width = 0.45mm
; infill extrusion width = 0.45mm
; solid infill extrusion width = 0.45mm
; top infill extrusion width = 0.42mm
; support material extrusion width = 0.36mm
; first layer extrusion width = 0.50mm

; external perimeters extrusion width = 0.45mm
; perimeters extrusion width = 0.45mm
; infill extrusion width = 0.45mm
; solid infill extrusion width = 0.45mm
; top infill extrusion width = 0.42mm
; support material extrusion width = 0.36mm
; first layer extrusion width = 0.50mm

M73 P0 R62
;TYPE:Custom
M104 ; prevent pusaslicer from adding temperature commands
; run custom start G-code
T-1  ; clear tool selection
M144 S1 ; set bed as active
M140 S0 R0 ; set bed temp
G29 S1 ; activate mesh bed compensation and load saved heightmap

; turn off unused heaters



M104 T3 S0

; homming
G28 ; homing
; try picking tools used in print
G1 F24000
;
;T1
;T2
;
G0 Z5 ; add Z clearance
M190 S0 ; wait for bed temp

; set extruder temp
M104 T0 S220
M104 T1 S220
M104 T2 S240



;
; purge second tool
;
G1 F24000
T-1 ; park the tool
M109 T1 S220
T1 ; pick the tool
G92 E0 ; reset extruder position

G0 X320 Y155 Z10 F24000 ; move close to the sheet's edge
G0 E30 X310 Z0.2 F170 ; purge while moving towards the sheet
G0 X285 E39 F800 ; continue purging and wipe the nozzle
G0 X282 Z0.05 F8000 ; wipe, move close to the bed
G0 X279 Z0.2 F8000 ; wipe, move quickly away from the bed
G1 E-1.2 F2400 ; retract

G92 E0 ; reset extruder position

M104 S100 T1


;
; purge third tool
;
G1 F24000
T-1 ; park the tool
M109 T2 S240
T2 ; pick the tool
G92 E0 ; reset extruder position

G0 X320 Y135 Z10 F24000 ; move close to the sheet's edge
G0 E30 X310 Z0.2 F170 ; purge while moving towards the sheet
G0 X285 E39 F800 ; continue purging and wipe the nozzle
G0 X282 Z0.05 F8000 ; wipe, move close to the bed
G0 X279 Z0.2 F8000 ; wipe, move quickly away from the bed
G1 E-1.2 F2400 ; retract

G92 E0 ; reset extruder position

M104 S100 T2


;
; purge initial tool
;
G1 F24000
T-1 ; park the tool
M109 T0 S220
T0 ; pick the tool
G92 E0 ; reset extruder position

G0 X320 Y195 Z10 F24000 ; move close to the sheet's edge
G0 E30 X310 Z0.2 F170 ; purge while moving towards the sheet
G0 X285 E39 F800 ; continue purging and wipe the nozzle
M73 P0 R61
G0 X282 Z0.05 F8000 ; wipe, move close to the bed
G0 X279 Z0.2 F8000 ; wipe, move quickly away from the bed
G1 E-1.5 F2400 ; retract



G92 E0 ; reset extruder position

G21 ; set units to millimeters
G90 ; use absolute coordinates
M83 ; use relative distances for extrusion
; Change Tool-1 -> Tool0 (layer -1)

; check if tool is already active at startup
T0 ; tool already active, don't change tools
; Filament gcode
M107
;LAYER_CHANGE
;Z:0.2
;HEIGHT:0.2
G1 Z.2 F720
G1 X239.5 Y140.5 F24000
G1 Z.2 F720
G1 E1.5 F3000
;HEIGHT:0.2
;TYPE:Wipe tower
;WIDTH:0.5
G1 X239.500 Y145.000 E0.1710 F1641
G1 X180.500 E2.2424
G1 Y140.500 E0.1710
G1 X239.500 E2.2424
G1 Y145.000
G1 X238.500
;--------------------
; CP EMPTY GRID START
; layer #1
G1 Y144.500 E0.0190
G1 X181.000 E2.1854
G1 Y144.000 E0.0190
G1 X239.000 E2.2044
G1 Y143.500 E0.0190
G1 X181.000 E2.2044
G1 Y143.000 E0.0190
M73 P1 R61
G1 X239.000 E2.2044
G1 Y142.500 E0.0190
G1 X181.000 E2.2044
G1 Y142.000 E0.0190
G1 X239.000 E2.2044
G1 Y141.500 E0.0190
G1 X181.000 E2.2044
G1 Y141.000 E0.0190
G1 X239.000 E2.2044
G1 Y140.500 E0.0190
; CP EMPTY GRID END
;------------------






G1 X240.000 Y140.000
G1 Y145.500 E0.2090
G1 X180.000 E2.2804
G1 Y140.000 E0.2090
G1 X240.000 E2.2804
G1 X240.457 Y139.543
G1 Y145.957 E0.2438
G1 X179.543 E2.3151
G1 Y139.543 E0.2438
G1 X240.457 E2.3151
G1 X240.914 Y139.086
G1 Y146.414 E0.2785
G1 X179.086 E2.3499
G1 Y139.086 E0.2785
G1 X240.914 E2.3499
G1 X241.371 Y138.629
G1 Y146.871 E0.3133
G1 X178.629 E2.3846
G1 Y138.629 E0.3133
G1 X241.371 E2.3846
G1 X241.828 Y138.172
G1 Y147.328 E0.3480
G1 X178.172 E2.4194
G1 Y138.172 E0.3480
G1 X241.828 E2.4194
G1 X242.285 Y137.715
M73 P2 R61
G1 Y147.785 E0.3828
G1 X177.715 E2.4541
G1 Y137.715 E0.3828
G1 X242.285 E2.4541
G1 X242.742 Y137.258
G1 Y148.242 E0.4175
G1 X177.258 E2.4888
G1 Y137.258 E0.4175
M73 P2 R60
G1 X242.742 E2.4888
G1 X243.200 Y136.800
G1 Y148.700 E0.4522
G1 X176.800 E2.5236
G1 Y136.800 E0.4522
G1 X243.200 E2.5236

G1 E-1.5 F3000
G1 X248.595 Y135.549 F24000
G1 E1.5 F3000
;TYPE:Skirt/Brim
;WIDTH:0.5
;HEIGHT:0.2
G1 F1640.852
G1 X248.885 Y136.8 E.05027
G1 X248.885 Y148.7 E.46584
G1 X248.489 Y150.786 E.08312
G1 X247.355 Y152.581 E.08312
G1 X245.641 Y153.834 E.08311
G1 X243.2 Y154.385 E.09796
G1 X176.8 Y154.385 E2.59933
G1 X174.714 Y153.989 E.08312
G1 X172.689 Y152.627 E.09553
G1 X141.693 Y120.182 E1.75655
G1 X140.539 Y118.4 E.08311
G1 X140.119 Y116.254 E.0856
G1 X140.119 Y66.254 E1.95733
G1 X140.515 Y64.168 E.08312
G1 X141.649 Y62.373 E.08312
G1 X143.363 Y61.12 E.08311
G1 X145.804 Y60.569 E.09796
G1 X165.804 Y60.569 E.78293
G1 X167.89 Y60.965 E.08312
G1 X169.634 Y62.052 E.08045
G1 X247.03 Y132.598 E4.09954
G1 X248.304 Y134.297 E.08313
G1 X248.581 Y135.49 E.04794
G1 X248.156 Y135.585 F24000
G1 F1640.852
G1 X248.428 Y136.8 E.04874
G1 X248.428 Y148.7 E.46584
G1 X248.032 Y150.696 E.07966
G1 X246.903 Y152.39 E.07969
G1 X245.214 Y153.525 E.07966
G1 X243.2 Y153.928 E.0804
G1 X176.8 Y153.928 E2.59933
G1 X174.804 Y153.532 E.07966
G1 X173.02 Y152.311 E.08463
G1 X142.024 Y119.866 E1.75655
G1 X140.931 Y118.149 E.07968
G1 X140.576 Y116.254 E.07547
G1 X140.576 Y66.254 E1.95733
G1 X140.972 Y64.258 E.07966
G1 X142.1 Y62.564 E.07967
G1 X143.79 Y61.429 E.07969
M73 P3 R60
G1 X145.804 Y61.026 E.0804
G1 X165.804 Y61.026 E.78293
G1 X167.801 Y61.422 E.0797
G1 X169.327 Y62.39 E.07074
G1 X246.722 Y132.936 E4.09951
G1 X247.93 Y134.574 E.07967
G1 X248.143 Y135.527 E.03823
G1 E-1.5 F3000
G1 X155.804 Y115.04 F24000
G1 E1.5 F3000
;TYPE:Perimeter
;WIDTH:0.499999
G1 F1640.854
G1 X147.019 Y115.04 E.3439
G1 X147.019 Y67.469 E1.86224
G1 X164.59 Y67.469 E.68784
G1 X164.59 Y115.04 E1.86224
G1 X155.864 Y115.04 E.34159
G1 X155.804 Y115.497 F24000
G1 F1640.854
G1 X146.561 Y115.497 E.36183
G1 X146.561 Y67.012 E1.89802
G1 X165.047 Y67.012 E.72366
G1 X165.047 Y115.497 E1.89802
G1 X155.864 Y115.497 E.35948
G1 X155.804 Y115.954 F24000
;TYPE:External perimeter
G1 F1640.854
G1 X146.104 Y115.954 E.37972
G1 X146.104 Y66.554 E1.93384
G1 X165.504 Y66.554 E.75944
G1 X165.504 Y115.954 E1.93384
G1 X155.864 Y115.954 E.37737
G1 X155.464 Y115.954 F24000
G1 E-1.5 F3000
G1 X164.407 Y68.583 F24000
G1 E1.5 F3000
;TYPE:Solid infill
;WIDTH:0.503635
G1 F1627.904
G1 X163.681 Y67.857 E.04051
G1 X163.03 Y67.857 E.02569
G1 X164.202 Y69.029 E.0654
G1 X164.202 Y69.681 E.02573
G1 X162.378 Y67.857 E.10178
G1 X161.727 Y67.857 E.02569
G1 X164.202 Y70.332 E.13811
G1 X164.202 Y70.984 E.02573
G1 X161.075 Y67.857 E.17449
G1 X160.424 Y67.857 E.02569
G1 X164.202 Y71.635 E.21082
G1 X164.202 Y72.287 E.02573
G1 X159.772 Y67.857 E.2472
G1 X159.121 Y67.857 E.02569
G1 X164.202 Y72.938 E.28353
G1 X164.202 Y73.59 E.02573
G1 X158.469 Y67.857 E.31991
G1 X157.817 Y67.857 E.02573
G1 X164.202 Y74.241 E.35627
G1 X164.202 Y74.893 E.02573
G1 X157.166 Y67.857 E.39262
G1 X156.514 Y67.857 E.02573
G1 X164.202 Y75.544 E.42898
G1 X164.202 Y76.196 E.02573
G1 X155.863 Y67.857 E.46533
G1 X155.211 Y67.857 E.02573
G1 X164.202 Y76.848 E.50171
G1 X164.202 Y77.499 E.02569
G1 X154.56 Y67.857 E.53804
G1 X153.908 Y67.857 E.02573
G1 X164.202 Y78.151 E.57442
G1 X164.202 Y78.802 E.02569
G1 X153.257 Y67.857 E.61075
G1 X152.605 Y67.857 E.02573
G1 X164.202 Y79.454 E.64713
G1 X164.202 Y80.105 E.02569
G1 X151.953 Y67.857 E.68349
G1 X151.302 Y67.857 E.02569
G1 X164.202 Y80.757 E.71984
G1 X164.202 Y81.408 E.02569
G1 X150.65 Y67.857 E.7562
G1 X149.999 Y67.857 E.02569
G1 X164.202 Y82.06 E.79255
G1 X164.202 Y82.712 E.02573
G1 X149.347 Y67.857 E.82894
G1 X148.696 Y67.857 E.02569
G1 X164.202 Y83.363 E.86526
G1 X164.202 Y84.015 E.02573
M73 P3 R59
G1 X148.044 Y67.857 E.90165
G1 X147.407 Y67.857 E.02513
G1 X164.202 Y84.666 E.93758
G1 X164.202 Y85.318 E.02573
G1 X147.407 Y68.523 E.93719
G1 X147.407 Y69.175 E.02573
G1 X164.202 Y85.969 E.93716
G1 X164.202 Y86.621 E.02573
G1 X147.407 Y69.826 E.93719
G1 X147.407 Y70.478 E.02573
G1 X164.202 Y87.272 E.93716
G1 X164.202 Y87.924 E.02573
G1 X147.407 Y71.129 E.93719
G1 X147.407 Y71.781 E.02573
M73 P4 R59
G1 X164.202 Y88.575 E.93716
G1 X164.202 Y89.227 E.02573
G1 X147.407 Y72.432 E.93719
G1 X147.407 Y73.084 E.02573
G1 X164.202 Y89.879 E.93719
G1 X164.202 Y90.53 E.02569
G1 X147.407 Y73.735 E.93719
G1 X147.407 Y74.387 E.02573
G1 X164.202 Y91.182 E.93719
G1 X164.202 Y91.833 E.02569
G1 X147.407 Y75.039 E.93716
G1 X147.407 Y75.69 E.02569
G1 X164.202 Y92.485 E.93719
G1 X164.202 Y93.136 E.02569
G1 X147.407 Y76.342 E.93716
G1 X147.407 Y76.993 E.02569
G1 X164.202 Y93.788 E.93719
G1 X164.202 Y94.439 E.02569
G1 X147.407 Y77.645 E.93716
G1 X147.407 Y78.296 E.02569
G1 X164.202 Y95.091 E.93719
G1 X164.202 Y95.742 E.02569
G1 X147.407 Y78.948 E.93716
G1 X147.407 Y79.599 E.02569
G1 X164.202 Y96.394 E.93719
G1 X164.202 Y97.046 E.02573
G1 X147.407 Y80.251 E.93719
G1 X147.407 Y80.902 E.02569
G1 X164.202 Y97.697 E.93719
G1 X164.202 Y98.349 E.02573
G1 X147.407 Y81.554 E.93719
G1 X147.407 Y82.206 E.02573
G1 X164.202 Y99 E.93716
G1 X164.202 Y99.652 E.02573
G1 X147.407 Y82.857 E.93719
G1 X147.407 Y83.509 E.02573
G1 X164.202 Y100.303 E.93716
G1 X164.202 Y100.955 E.02573
G1 X147.407 Y84.16 E.93719
G1 X147.407 Y84.812 E.02573
G1 X164.202 Y101.606 E.93716
G1 X164.202 Y102.258 E.02573
G1 X147.407 Y85.463 E.93719
G1 X147.407 Y86.115 E.02573
G1 X164.202 Y102.91 E.93719
G1 X164.202 Y103.561 E.02569
G1 X147.407 Y86.766 E.93719
G1 X147.407 Y87.418 E.02573
G1 X164.202 Y104.213 E.93719
G1 X164.202 Y104.864 E.02569
G1 X147.407 Y88.07 E.93716
G1 X147.407 Y88.721 E.02569
G1 X164.202 Y105.516 E.93719
G1 X164.202 Y106.167 E.02569
G1 X147.407 Y89.373 E.93716
G1 X147.407 Y90.024 E.02569
G1 X164.202 Y106.819 E.93719
G1 X164.202 Y107.47 E.02569
G1 X147.407 Y90.676 E.93716
G1 X147.407 Y91.327 E.02569
G1 X164.202 Y108.122 E.93719
G1 X164.202 Y108.773 E.02569
G1 X147.407 Y91.979 E.93716
G1 X147.407 Y92.63 E.02569
G1 X164.202 Y109.425 E.93719
G1 X164.202 Y110.077 E.02573
G1 X147.407 Y93.282 E.93719
G1 X147.407 Y93.933 E.02569
G1 X164.202 Y110.728 E.93719
G1 X164.202 Y111.38 E.02573
G1 X147.407 Y94.585 E.93719
G1 X147.407 Y95.237 E.02573
G1 X164.202 Y112.031 E.93716
G1 X164.202 Y112.683 E.02573
G1 X147.407 Y95.888 E.93719
G1 X147.407 Y96.54 E.02573
G1 X164.202 Y113.334 E.93716
G1 X164.202 Y113.986 E.02573
G1 X147.407 Y97.191 E.93719
G1 X147.407 Y97.843 E.02573
G1 X164.202 Y114.652 E.93758
G1 X163.564 Y114.652 E.02517
M73 P5 R59
G1 X147.407 Y98.494 E.90162
G1 X147.407 Y99.146 E.02573
G1 X162.913 Y114.652 E.86526
G1 X162.261 Y114.652 E.02573
G1 X147.407 Y99.797 E.82891
G1 X147.407 Y100.449 E.02573
G1 X161.61 Y114.652 E.79255
G1 X160.958 Y114.652 E.02573
G1 X147.407 Y101.101 E.75617
G1 X147.407 Y101.752 E.02569
G1 X160.307 Y114.652 E.71984
G1 X159.655 Y114.652 E.02573
G1 X147.407 Y102.404 E.68346
G1 X147.407 Y103.055 E.02569
G1 X159.004 Y114.652 E.64713
G1 X158.352 Y114.652 E.02573
G1 X147.407 Y103.707 E.61075
G1 X147.407 Y104.358 E.02569
G1 X157.701 Y114.652 E.57442
G1 X157.049 Y114.652 E.02573
G1 X147.407 Y105.01 E.53804
G1 X147.407 Y105.661 E.02569
G1 X156.397 Y114.652 E.50169
G1 X155.746 Y114.652 E.02569
G1 X147.407 Y106.313 E.46533
G1 X147.407 Y106.964 E.02569
G1 X155.094 Y114.652 E.42898
G1 X154.443 Y114.652 E.02569
G1 X147.407 Y107.616 E.39262
G1 X147.407 Y108.268 E.02573
G1 X153.791 Y114.652 E.35624
G1 X153.14 Y114.652 E.02569
G1 X147.407 Y108.919 E.31991
G1 X147.407 Y109.571 E.02573
G1 X152.488 Y114.652 E.28353
G1 X151.837 Y114.652 E.02569
G1 X147.407 Y110.222 E.2472
G1 X147.407 Y110.874 E.02573
G1 X151.185 Y114.652 E.21082
G1 X150.533 Y114.652 E.02573
G1 X147.407 Y111.525 E.17446
G1 X147.407 Y112.177 E.02573
G1 X149.882 Y114.652 E.13811
G1 X149.23 Y114.652 E.02573
G1 X147.407 Y112.828 E.10175
G1 X147.407 Y113.48 E.02573
G1 X148.579 Y114.652 E.0654
G1 X147.927 Y114.652 E.02573
G1 X147.201 Y113.926 E.04051
;LAYER_CHANGE
;Z:0.4
;HEIGHT:0.2
;BEFORE_LAYER_CHANGE
G92 E0.0
;0.4

G1 E-1.5 F3000
G1 Z.4 F720
G1 X180.5 Y145 F24000
G1 E1.5 F3000
;HEIGHT:0.2
;TYPE:Wipe tower
;WIDTH:0.5
G1 X180.500 Y140.500 E0.1710 F1641
G1 X239.500 E2.2424
G1 Y145.000 E0.1710
G1 X180.500 E2.2424
G1 Y140.500
M73 P5 R58
G1 X181.500
;--------------------
; CP EMPTY GRID START
; layer #2
G1 Y145.000 E0.1710
G1 X191.000
G1 Y140.500 E0.1710
G1 X200.500
G1 Y145.000 E0.1710
G1 X210.000
G1 Y140.500 E0.1710
G1 X219.500
G1 Y145.000 E0.1710
G1 X229.000
G1 Y140.500 E0.1710
G1 X238.500
G1 Y145.000 E0.1710
; CP EMPTY GRID END
;------------------






G1 X240.000 Y145.500
G1 X180.000 E2.2804
G1 Y140.000 E0.2090
G1 X240.000 E2.2804
G1 Y145.500 E0.2090

G1 E-1.5 F3000
G1 X155.804 Y115.215 F24000
G1 E1.5 F3000
;TYPE:Perimeter
;WIDTH:0.449999
;HEIGHT:0.2
G1 F1842.394
G1 X146.844 Y115.215 E.31238
G1 X146.844 Y67.294 E1.67073
G1 X164.765 Y67.294 E.6248
G1 X164.765 Y115.215 E1.67073
G1 X155.864 Y115.215 E.31033
G1 X155.804 Y115.622 F24000
G1 F1842.394
G1 X146.436 Y115.622 E.32661
G1 X146.436 Y66.887 E1.69911
G1 X165.172 Y66.887 E.65322
G1 X165.172 Y115.622 E1.69911
G1 X155.864 Y115.622 E.32452
G1 X155.804 Y116.029 F24000
;TYPE:External perimeter
G1 F1842.394
G1 X146.029 Y116.029 E.3408
G1 X146.029 Y66.479 E1.72752
G1 X165.579 Y66.479 E.6816
M73 P6 R58
G1 X165.579 Y116.029 E1.72752
G1 X155.864 Y116.029 E.33871
G1 X155.464 Y116.029 F24000
G1 E-1.5 F3000
G1 X147.3 Y67.673 F24000
G1 E1.5 F3000
;TYPE:Solid infill
;WIDTH:0.548766
G1 F1482.665
G2 X147.284 Y67.734 I-.058 J.017 E.01363
;WIDTH:0.449999
G1 F1842.394
G1 X147.19 Y68.384 E.0229
G1 X147.934 Y67.64 E.03668
G1 X148.027 Y67.568 E.0041
;WIDTH:0.41646
G1 F2007.82
G1 X148.12 Y67.496 E.00376
;WIDTH:0.38292
G1 F2205.882
G3 X148.06 Y67.436 I-.02 J-.04 E.00324
G1 X148.131 Y67.455 E.00214
;WIDTH:0.449999
G1 F1842.394
G1 X148.51 Y67.64 E.0147
G1 X147.19 Y68.96 E.06508
G1 X147.19 Y69.535 E.02005
G1 X149.085 Y67.64 E.09343
G1 X149.661 Y67.64 E.02008
G1 X147.19 Y70.111 E.12183
G1 X147.19 Y70.687 E.02008
G1 X150.237 Y67.64 E.15023
G1 X150.812 Y67.64 E.02005
G1 X147.19 Y71.262 E.17858
G1 X147.19 Y71.838 E.02008
G1 X151.388 Y67.64 E.20698
G1 X151.964 Y67.64 E.02008
G1 X147.19 Y72.414 E.23538
G1 X147.19 Y72.989 E.02005
G1 X152.539 Y67.64 E.26373
G1 X153.115 Y67.64 E.02008
G1 X147.19 Y73.565 E.29213
G1 X147.19 Y74.141 E.02008
G1 X153.691 Y67.64 E.32053
G1 X154.267 Y67.64 E.02008
G1 X147.19 Y74.717 E.34893
G1 X147.19 Y75.292 E.02005
G1 X154.842 Y67.64 E.37729
G1 X155.418 Y67.64 E.02008
G1 X147.19 Y75.868 E.40569
G1 X147.19 Y76.444 E.02008
G1 X155.994 Y67.64 E.43409
G1 X156.569 Y67.64 E.02005
G1 X147.19 Y77.019 E.46244
G1 X147.19 Y77.595 E.02008
G1 X157.145 Y67.64 E.49084
G1 X157.721 Y67.64 E.02008
G1 X147.19 Y78.171 E.51924
G1 X147.19 Y78.746 E.02005
G1 X158.296 Y67.64 E.54759
G1 X158.872 Y67.64 E.02008
G1 X147.19 Y79.322 E.57599
G1 X147.19 Y79.898 E.02008
G1 X159.448 Y67.64 E.60439
G1 X160.023 Y67.64 E.02005
G1 X147.19 Y80.474 E.63276
G1 X147.19 Y81.049 E.02005
G1 X160.599 Y67.64 E.66114
G1 X161.175 Y67.64 E.02008
G1 X147.19 Y81.625 E.68954
G1 X147.19 Y82.201 E.02008
G1 X161.751 Y67.64 E.71794
G1 X162.326 Y67.64 E.02005
G1 X147.19 Y82.776 E.74629
G1 X147.19 Y83.352 E.02008
G1 X162.902 Y67.64 E.77469
G1 X163.478 Y67.64 E.02008
G1 X147.19 Y83.928 E.80309
G1 X147.19 Y84.503 E.02005
G1 X164.053 Y67.64 E.83144
G1 X164.552 Y67.536 E.01777
;WIDTH:0.38292
