; generated by PrusaSlicer 2.9.5 on 2026-06-08 at 14:02:46 UTC

; 

; external perimeters extrusion width = 0.45mm
; perimeters extrusion width = 0.45mm
; infill extrusion width = 0.45mm
; solid infill extrusion width = 0.45mm
; top infill extrusion width = 0.42mm
; support material extrusion width = 0.36mm
; first layer extrusion width = 0.50mm

; external perimeters extrusion width = 0.45mm
; perimeters extrusion width = 0.45mm
; infill extrusion width = 0.45mm
; solid infill extrusion width = 0.45mm
; top infill extrusion width = 0.42mm
; support material extrusion width = 0.36mm
; first layer extrusion width = 0.50mm

; external perimeters extrusion width = 0.45mm
; perimeters extrusion width = 0.45mm
; infill extrusion width = 0.45mm
; solid infill extrusion width = 0.45mm
; top infill extrusion width = 0.42mm
; support material extrusion width = 0.36mm
; first layer extrusion width = 0.50mm

; external perimeters extrusion width = 0.45mm
; perimeters extrusion width = 0.45mm
; infill extrusion width = 0.45mm
; solid infill extrusion width = 0.45mm
; top infill extrusion width = 0.42mm
; support material extrusion width = 0.36mm
; first layer extrusion width = 0.50mm

; external perimeters extrusion width = 0.45mm
; perimeters extrusion width = 0.45mm
; infill extrusion width = 0.45mm
; solid infill extrusion width = 0.45mm
; top infill extrusion width = 0.42mm
; support material extrusion width = 0.36mm
; first layer extrusion width = 0.50mm

M73 P0 R212
;TYPE:Custom
M104 ; prevent pusaslicer from adding temperature commands
; run custom start G-code
T-1  ; clear tool selection
M144 S1 ; set bed as active
M140 S0 R0 ; set bed temp
G29 S1 ; activate mesh bed compensation and load saved heightmap

; turn off unused heaters



M104 T3 S0

; homming
G28 ; homing
; try picking tools used in print
G1 F24000
;
;T1
;T2
;
G0 Z5 ; add Z clearance
M190 S0 ; wait for bed temp

; set extruder temp
M104 T0 S220
M104 T1 S220
M104 T2 S240



;
; purge second tool
;
G1 F24000
T-1 ; park the tool
M109 T1 S220
T1 ; pick the tool
G92 E0 ; reset extruder position

G0 X320 Y155 Z10 F24000 ; move close to the sheet's edge
G0 E30 X310 Z0.2 F170 ; purge while moving towards the sheet
G0 X285 E39 F800 ; continue purging and wipe the nozzle
G0 X282 Z0.05 F8000 ; wipe, move close to the bed
G0 X279 Z0.2 F8000 ; wipe, move quickly away from the bed
G1 E-1.2 F2400 ; retract

G92 E0 ; reset extruder position

M104 S100 T1


;
; purge third tool
;
G1 F24000
T-1 ; park the tool
M109 T2 S240
T2 ; pick the tool
G92 E0 ; reset extruder position

G0 X320 Y135 Z10 F24000 ; move close to the sheet's edge
G0 E30 X310 Z0.2 F170 ; purge while moving towards the sheet
G0 X285 E39 F800 ; continue purging and wipe the nozzle
G0 X282 Z0.05 F8000 ; wipe, move close to the bed
G0 X279 Z0.2 F8000 ; wipe, move quickly away from the bed
G1 E-1.2 F2400 ; retract

G92 E0 ; reset extruder position

M104 S100 T2


;
; purge initial tool
;
G1 F24000
T-1 ; park the tool
M109 T0 S220
T0 ; pick the tool
G92 E0 ; reset extruder position

G0 X320 Y195 Z10 F24000 ; move close to the sheet's edge
G0 E30 X310 Z0.2 F170 ; purge while moving towards the sheet
G0 X285 E39 F800 ; continue purging and wipe the nozzle
G0 X282 Z0.05 F8000 ; wipe, move close to the bed
G0 X279 Z0.2 F8000 ; wipe, move quickly away from the bed
G1 E-1.5 F2400 ; retract



G92 E0 ; reset extruder position

G21 ; set units to millimeters
G90 ; use absolute coordinates
M83 ; use relative distances for extrusion
; Change Tool-1 -> Tool0 (layer -1)

; check if tool is already active at startup
T0 ; tool already active, don't change tools
; Filament gcode
M107
;LAYER_CHANGE
;Z:0.2
;HEIGHT:0.2
G1 Z.2 F720
G1 X116.521 Y49.995 F24000
G1 Z.2 F720
G1 E1.5 F3000
;TYPE:Skirt/Brim
;WIDTH:0.5
;HEIGHT:0.2
G1 F1640.852
G1 X117.655 Y48.2 E.08312
G1 X119.369 Y46.946 E.08314
G1 X121.81 Y46.396 E.09795
G1 X157.81 Y46.396 E1.40927
G1 X159.896 Y46.792 E.08312
G1 X161.815 Y48.045 E.08972
G1 X247.204 Y132.764 E4.70876
G1 X248.406 Y134.515 E.08314
G1 X248.885 Y136.8 E.09139
G1 X248.885 Y149.7 E.50499
G1 X248.489 Y151.786 E.08312
G1 X247.355 Y153.581 E.08312
G1 X245.641 Y154.834 E.08311
G1 X243.2 Y155.385 E.09796
G1 X176.8 Y155.385 E2.59933
G1 X174.714 Y154.989 E.08312
G1 X172.558 Y153.485 E.10291
G1 X117.568 Y91.867 E3.23301
G1 X116.475 Y90.047 E.08311
M73 P0 R211
G1 X116.125 Y88.081 E.07817
G1 X116.125 Y52.081 E1.40927
G1 X116.51 Y50.054 E.08077
G1 E-1.5 F3000
G1 X239.5 Y140.5 F24000
G1 E1.5 F3000
;HEIGHT:0.2
;TYPE:Wipe tower
;WIDTH:0.5
G1 X239.500 Y142.500 E0.0760 F1641
G1 X180.500 E2.2424
G1 Y140.500 E0.0760
G1 X239.500 E2.2424
G1 Y142.500
G1 X238.500
;--------------------
; CP EMPTY GRID START
; layer #1
G1 Y142.000 E0.0190
G1 X181.000 E2.1854
G1 Y141.500 E0.0190
G1 X239.000 E2.2044
G1 Y141.000 E0.0190
G1 X181.000 E2.2044
G1 Y140.500 E0.0190
; CP EMPTY GRID END
;------------------






G1 X180.000 Y140.000
G1 X240.000 E2.2804
G1 Y146.500 E0.2470
G1 X180.000 E2.2804
G1 Y140.000 E0.2470
G1 X179.543 Y139.543
G1 X240.457 E2.3151
G1 Y146.957 E0.2818
G1 X179.543 E2.3151
G1 Y139.543 E0.2818
G1 X179.086 Y139.086
G1 X240.914 E2.3499
G1 Y147.414 E0.3165
G1 X179.086 E2.3499
G1 Y139.086 E0.3165
G1 X178.629 Y138.629
G1 X241.371 E2.3846
G1 Y147.871 E0.3513
G1 X178.629 E2.3846
G1 Y138.629 E0.3513
G1 X178.172 Y138.172
G1 X241.828 E2.4194
G1 Y148.328 E0.3860
G1 X178.172 E2.4194
G1 Y138.172 E0.3860
G1 X177.715 Y137.715
G1 X242.285 E2.4541
G1 Y148.785 E0.4208
G1 X177.715 E2.4541
G1 Y137.715 E0.4208
G1 X177.258 Y137.258
G1 X242.742 E2.4888
G1 Y149.242 E0.4555
G1 X177.258 E2.4888
G1 Y137.258 E0.4555
G1 X176.800 Y136.800
G1 X243.200 E2.5236
G1 Y149.700 E0.4902
G1 X176.800 E2.5236
G1 Y136.800 E0.4902
G1 X239.750 Y146.250 F7200
;HEIGHT:0.2
;TYPE:Wipe tower
;WIDTH:0.5
;--------------------
; CP TOOLCHANGE START
; toolchange #1
; material : FLEX -> FLEX
;--------------------
M220 S100
; CP TOOLCHANGE UNLOAD
;WIDTH:1
;WIDTH:0.5
G4 S0
G1 E-1.2 F3000
; Filament-specific end gcode 
;END gcode for filament
; Change Tool0 -> Tool1 (layer 0)

  ; run tool change as expected
G1 E-2 F2000 ; retract filament
T-1 ; drop off current tool
M109 S220 T1
T1      ; pick up next tool
	; if layer height is above the minimum, enable fan
	               M106 S255 ; set part cooling fan based on filament profile
	
; Filament gcode

G1 F24000
M73 P0 R210
G1 X239.250 Y145.000
G1 Z.2 F720
G1 E1.2 F1200
G4 S0
G1 Y145.500
; CP TOOLCHANGE WIPE
;WIDTH:0.5
G1 X180.250 E2.2424 F788
G1 X181.000 Y145.000 E0.0343
G1 X239.750 E2.2329
G1 X239.000 Y144.500 E0.0343
G1 X181.000 E2.2044
G1 Y144.000 E0.0190
G1 X239.000 E2.2044
G1 Y143.500 E0.0190
G1 X180.250 E2.2329
G1 X181.000 Y143.000 E0.0343
G1 X239.750 E2.2329
;WIDTH:0.5
G1 F24000
G4 S0
G92 E0
; CP TOOLCHANGE END
;------------------



G1 E-1 F3000
G1 X240.216 Y143 Z1.2 F794.432
G1 X248.428 Y143 F24000
G1 Z.2 F720
G1 E1 F1200
;TYPE:Skirt/Brim
;WIDTH:0.5
;HEIGHT:0.2
G1 F787.609
G1 X248.428 Y149.7 E.29284
G1 X248.032 Y151.696 E.08894
G1 X246.903 Y153.39 E.08898
G1 X245.214 Y154.525 E.08894
G1 X243.2 Y154.928 E.08977
G1 X176.8 Y154.928 E2.90216
G1 X174.804 Y154.532 E.08894
M73 P1 R210
G1 X172.899 Y153.181 E.10208
G1 X117.909 Y91.563 E3.60967
G1 X116.875 Y89.809 E.08899
G1 X116.582 Y88.081 E.0766
G1 X116.582 Y52.081 E1.57346
G1 X116.978 Y50.085 E.08894
G1 X118.106 Y48.391 E.08895
G1 X119.796 Y47.256 E.08898
G1 X121.81 Y46.853 E.08977
G1 X157.81 Y46.853 E1.57346
G1 X159.807 Y47.249 E.08898
G1 X161.493 Y48.369 E.08847
G1 X246.882 Y133.089 E5.25738
G1 X248.02 Y134.776 E.08894
G1 X248.428 Y136.8 E.09024
G1 X248.428 Y142.94 E.26836
G1 E-1 F3000
G1 X248.014 Y142.726 Z1.2 F794.406
G1 X139.81 Y86.867 F24000
G1 Z.2 F720
G1 E1 F1200
;TYPE:Perimeter
;WIDTH:0.499999
G1 F787.61
G1 X123.024 Y86.867 E.73367
G1 X123.024 Y53.295 E1.46734
G1 X156.596 Y53.295 E1.46734
M73 P1 R209
G1 X156.596 Y86.867 E1.46734
G1 X139.87 Y86.867 E.73105
G1 X139.81 Y87.324 F24000
G1 F787.61
G1 X122.567 Y87.324 E.75364
G1 X122.567 Y52.838 E1.50729
G1 X157.053 Y52.838 E1.50729
G1 X157.053 Y87.324 E1.50729
G1 X139.87 Y87.324 E.75102
G1 X139.81 Y87.781 F24000
;TYPE:External perimeter
G1 F787.61
G1 X122.11 Y87.781 E.77362
G1 X122.11 Y52.381 E1.54724
G1 X157.51 Y52.381 E1.54724
G1 X157.51 Y87.781 E1.54724
G1 X139.87 Y87.781 E.771
G1 X139.47 Y87.781 F24000
G1 E-1 F3000
G1 X139.681 Y87.365 Z1.2 F794.432
G1 X156.413 Y54.411 F24000
G1 Z.2 F720
G1 E1 F1200
;TYPE:Solid infill
;WIDTH:0.503949
G1 F780.862
G1 X155.687 Y53.684 E.04529
G1 X155.035 Y53.684 E.02874
G1 X156.208 Y54.857 E.07313
G1 X156.208 Y55.509 E.02874
G1 X154.383 Y53.684 E.11378
G1 X153.731 Y53.684 E.02874
G1 X156.208 Y56.161 E.15443
G1 X156.208 Y56.813 E.02874
G1 X153.079 Y53.684 E.19508
G1 X152.427 Y53.684 E.02874
G1 X156.208 Y57.465 E.23573
G1 X156.208 Y58.117 E.02874
G1 X151.775 Y53.684 E.27638
G1 X151.123 Y53.684 E.02874
G1 X156.208 Y58.769 E.31703
G1 X156.208 Y59.421 E.02874
G1 X150.471 Y53.684 E.35768
G1 X149.819 Y53.684 E.02874
G1 X156.208 Y60.073 E.39833
G1 X156.208 Y60.725 E.02874
G1 X149.167 Y53.684 E.43897
G1 X148.515 Y53.684 E.02874
G1 X156.208 Y61.377 E.47962
G1 X156.208 Y62.029 E.02874
G1 X147.863 Y53.684 E.52027
G1 X147.211 Y53.684 E.02874
G1 X156.208 Y62.681 E.56092
G1 X156.208 Y63.333 E.02874
G1 X146.559 Y53.684 E.60157
G1 X145.907 Y53.684 E.02874
G1 X156.208 Y63.985 E.64222
G1 X156.208 Y64.637 E.02874
G1 X145.255 Y53.684 E.68287
G1 X144.603 Y53.684 E.02874
G1 X156.208 Y65.289 E.72352
G1 X156.208 Y65.941 E.02874
G1 X143.951 Y53.684 E.76417
G1 X143.299 Y53.684 E.02874
G1 X156.208 Y66.593 E.80482
G1 X156.208 Y67.245 E.02874
G1 X142.647 Y53.684 E.84547
G1 X141.995 Y53.684 E.02874
G1 X156.208 Y67.897 E.88612
G1 X156.208 Y68.549 E.02874
G1 X141.343 Y53.684 E.92677
G1 X140.691 Y53.684 E.02874
G1 X156.208 Y69.201 E.96742
G1 X156.208 Y69.853 E.02874
G1 X140.039 Y53.684 E1.00806
G1 X139.387 Y53.684 E.02874
G1 X156.208 Y70.505 E1.04871
G1 X156.208 Y71.157 E.02874
G1 X138.735 Y53.684 E1.08936
G1 X138.083 Y53.684 E.02874
G1 X156.208 Y71.809 E1.13001
G1 X156.208 Y72.461 E.02874
M73 P1 R208
G1 X137.431 Y53.684 E1.17066
G1 X136.779 Y53.684 E.02874
G1 X156.208 Y73.113 E1.21131
G1 X156.208 Y73.765 E.02874
G1 X136.127 Y53.684 E1.25196
G1 X135.475 Y53.684 E.02874
G1 X156.208 Y74.417 E1.29261
G1 X156.208 Y75.069 E.02874
G1 X134.823 Y53.684 E1.33326
G1 X134.171 Y53.684 E.02874
G1 X156.208 Y75.721 E1.37391
G1 X156.208 Y76.373 E.02874
G1 X133.519 Y53.684 E1.41456
G1 X132.867 Y53.684 E.02874
G1 X156.208 Y77.025 E1.45521
G1 X156.208 Y77.677 E.02874
G1 X132.215 Y53.684 E1.49586
G1 X131.563 Y53.684 E.02874
G1 X156.208 Y78.329 E1.5365
G1 X156.208 Y78.981 E.02874
G1 X130.911 Y53.684 E1.57715
G1 X130.259 Y53.684 E.02874
G1 X156.208 Y79.633 E1.6178
G1 X156.208 Y80.285 E.02874
G1 X129.607 Y53.684 E1.65845
G1 X128.955 Y53.684 E.02874
G1 X156.208 Y80.937 E1.6991
G1 X156.208 Y81.589 E.02874
G1 X128.303 Y53.684 E1.73975
G1 X127.651 Y53.684 E.02874
M73 P2 R208
G1 X156.208 Y82.241 E1.7804
G1 X156.208 Y82.893 E.02874
G1 X126.999 Y53.684 E1.82105
G1 X126.347 Y53.684 E.02874
G1 X156.208 Y83.545 E1.8617
G1 X156.208 Y84.197 E.02874
G1 X125.695 Y53.684 E1.90235
G1 X125.043 Y53.684 E.02874
G1 X156.208 Y84.849 E1.943
G1 X156.208 Y85.501 E.02874
G1 X124.391 Y53.684 E1.98365
G1 X123.739 Y53.684 E.02874
G1 X156.208 Y86.152 E2.02426
G1 X156.208 Y86.478 E.01437
M73 P2 R207
G1 X155.882 Y86.478 E.01437
G1 X123.413 Y54.01 E2.02426
G1 X123.413 Y54.662 E.02874
G1 X155.23 Y86.478 E1.98362
G1 X154.578 Y86.478 E.02874
G1 X123.413 Y55.314 E1.94297
G1 X123.413 Y55.966 E.02874
G1 X153.926 Y86.478 E1.90232
G1 X153.274 Y86.478 E.02874
G1 X123.413 Y56.618 E1.86167
G1 X123.413 Y57.27 E.02874
G1 X152.622 Y86.478 E1.82102
G1 X151.97 Y86.478 E.02874
G1 X123.413 Y57.922 E1.78037
G1 X123.413 Y58.574 E.02874
G1 X151.318 Y86.478 E1.73972
G1 X150.666 Y86.478 E.02874
G1 X123.413 Y59.226 E1.69907
G1 X123.413 Y59.878 E.02874
G1 X150.014 Y86.478 E1.65842
G1 X149.362 Y86.478 E.02874
G1 X123.413 Y60.53 E1.61777
G1 X123.413 Y61.182 E.02874
G1 X148.71 Y86.478 E1.57712
G1 X148.058 Y86.478 E.02874
G1 X123.413 Y61.834 E1.53647
G1 X123.413 Y62.486 E.02874
G1 X147.406 Y86.478 E1.49582
G1 X146.754 Y86.478 E.02874
G1 X123.413 Y63.138 E1.45518
G1 X123.413 Y63.79 E.02874
G1 X146.102 Y86.478 E1.41453
G1 X145.45 Y86.478 E.02874
G1 X123.413 Y64.442 E1.37388
G1 X123.413 Y65.094 E.02874
G1 X144.798 Y86.478 E1.33323
G1 X144.146 Y86.478 E.02874
G1 X123.413 Y65.746 E1.29258
G1 X123.413 Y66.398 E.02874
G1 X143.494 Y86.478 E1.25193
G1 X142.842 Y86.478 E.02874
M73 P2 R206
G1 X123.413 Y67.05 E1.21128
G1 X123.413 Y67.702 E.02874
G1 X142.19 Y86.478 E1.17063
G1 X141.538 Y86.478 E.02874
G1 X123.413 Y68.354 E1.12998
G1 X123.413 Y69.006 E.02874
G1 X140.886 Y86.478 E1.08933
G1 X140.234 Y86.478 E.02874
G1 X123.413 Y69.658 E1.04868
G1 X123.413 Y70.31 E.02874
G1 X139.582 Y86.478 E1.00803
G1 X138.93 Y86.478 E.02874
G1 X123.413 Y70.962 E.96738
G1 X123.413 Y71.614 E.02874
G1 X138.278 Y86.478 E.92673
G1 X137.626 Y86.478 E.02874
G1 X123.413 Y72.266 E.88609
G1 X123.413 Y72.918 E.02874
G1 X136.974 Y86.478 E.84544
G1 X136.322 Y86.478 E.02874
G1 X123.413 Y73.57 E.80479
G1 X123.413 Y74.222 E.02874
G1 X135.67 Y86.478 E.76414
G1 X135.018 Y86.478 E.02874
G1 X123.413 Y74.874 E.72349
G1 X123.413 Y75.526 E.02874
G1 X134.366 Y86.478 E.68284
G1 X133.714 Y86.478 E.02874
G1 X123.413 Y76.178 E.64219
G1 X123.413 Y76.83 E.02874
G1 X133.062 Y86.478 E.60154
G1 X132.41 Y86.478 E.02874
G1 X123.413 Y77.482 E.56089
G1 X123.413 Y78.134 E.02874
G1 X131.758 Y86.478 E.52024
G1 X131.106 Y86.478 E.02874
G1 X123.413 Y78.786 E.47959
G1 X123.413 Y79.438 E.02874
G1 X130.454 Y86.478 E.43894
G1 X129.802 Y86.478 E.02874
G1 X123.413 Y80.09 E.39829
G1 X123.413 Y80.742 E.02874
G1 X129.15 Y86.478 E.35764
G1 X128.498 Y86.478 E.02874
G1 X123.413 Y81.394 E.317
G1 X123.413 Y82.046 E.02874
G1 X127.846 Y86.478 E.27635
G1 X127.194 Y86.478 E.02874
G1 X123.413 Y82.698 E.2357
G1 X123.413 Y83.35 E.02874
G1 X126.542 Y86.478 E.19505
G1 X125.89 Y86.478 E.02874
G1 X123.413 Y84.002 E.1544
G1 X123.413 Y84.654 E.02874
G1 X125.238 Y86.478 E.11375
G1 X124.586 Y86.478 E.02874
G1 X123.413 Y85.306 E.0731
G1 X123.413 Y85.958 E.02874
G1 X124.14 Y86.684 E.04529
;LAYER_CHANGE
;Z:0.4
;HEIGHT:0.2
;BEFORE_LAYER_CHANGE
G92 E0.0
;0.4

G1 E-1 F3000
G1 X124.14 Y86.684 Z.2 F24000
G1 X124.606 Y86.695 Z1.2 F794.432
G1 X139.81 Y87.042 Z1.2 F24000
G1 Z.4 F720
G1 E1 F1200
;TYPE:Perimeter
;WIDTH:0.449999
;HEIGHT:0.2
G1 F884.349
G1 X122.849 Y87.042 E.66023
G1 X122.849 Y53.12 E1.32045
G1 X156.771 Y53.12 E1.32045
G1 X156.771 Y87.042 E1.32045
G1 X139.87 Y87.042 E.65789
G1 X139.81 Y87.449 F24000
M73 P3 R206
G1 F884.349
G1 X122.442 Y87.449 E.67607
G1 X122.442 Y52.713 E1.35214
G1 X157.178 Y52.713 E1.35214
G1 X157.178 Y87.449 E1.35214
G1 X139.87 Y87.449 E.67373
G1 X139.81 Y87.856 F24000
;TYPE:External perimeter
G1 F884.349
G1 X122.035 Y87.856 E.69191
G1 X122.035 Y52.306 E1.38382
G1 X157.585 Y52.306 E1.38382
G1 X157.585 Y87.856 E1.38382
G1 X139.87 Y87.856 E.68958
M73 P3 R205
G1 X139.47 Y87.856 F24000
G1 E-1 F3000
G1 X139.272 Y87.434 Z1.4 F794.432
G1 X123.306 Y53.499 F24000
G1 Z.4 F720
G1 E1 F1200
;TYPE:Solid infill
;WIDTH:0.548766
G1 F711.679
G2 X123.289 Y53.56 I-.058 J.017 E.0152
;WIDTH:0.449999
G1 F884.349
G1 X123.195 Y54.211 E.0256
G1 X123.94 Y53.466 E.04101
G1 X124.033 Y53.394 E.00458
;WIDTH:0.41646
G1 F963.754
G1 X124.126 Y53.323 E.00418
;WIDTH:0.38292
G1 F1058.823
G3 X124.066 Y53.263 I-.02 J-.04 E.00362
G1 X124.137 Y53.282 E.00239
;WIDTH:0.449999
G1 F884.349
G1 X124.515 Y53.466 E.01636
G1 X123.195 Y54.786 E.07267
G1 X123.195 Y55.362 E.02242
G1 X125.091 Y53.466 E.10437
G1 X125.667 Y53.466 E.02242
G1 X123.195 Y55.938 E.13608
G1 X123.195 Y56.513 E.02238
G1 X126.242 Y53.466 E.16774
G1 X126.818 Y53.466 E.02242
G1 X123.195 Y57.089 E.19945
G1 X123.195 Y57.665 E.02242
G1 X127.394 Y53.466 E.23115
G1 X127.97 Y53.466 E.02242
G1 X123.195 Y58.241 E.26286
G1 X123.195 Y58.816 E.02238
G1 X128.545 Y53.466 E.29452
G1 X129.121 Y53.466 E.02242
G1 X123.195 Y59.392 E.32623
G1 X123.195 Y59.968 E.02242
G1 X129.697 Y53.466 E.35793
G1 X130.272 Y53.466 E.02238
G1 X123.195 Y60.543 E.38959
