; generated by PrusaSlicer 2.9.5 on 2026-06-18 at 13:59:20 UTC

; 

; external perimeters extrusion width = 0.45mm
; perimeters extrusion width = 0.45mm
; infill extrusion width = 0.45mm
; solid infill extrusion width = 0.45mm
; top infill extrusion width = 0.42mm
; support material extrusion width = 0.36mm
; first layer extrusion width = 0.50mm

; external perimeters extrusion width = 0.45mm
; perimeters extrusion width = 0.45mm
; infill extrusion width = 0.45mm
; solid infill extrusion width = 0.45mm
; top infill extrusion width = 0.42mm
; support material extrusion width = 0.36mm
; first layer extrusion width = 0.50mm

; external perimeters extrusion width = 0.45mm
; perimeters extrusion width = 0.45mm
; infill extrusion width = 0.45mm
; solid infill extrusion width = 0.45mm
; top infill extrusion width = 0.42mm
; support material extrusion width = 0.36mm
; first layer extrusion width = 0.50mm

; external perimeters extrusion width = 0.45mm
; perimeters extrusion width = 0.45mm
; infill extrusion width = 0.45mm
; solid infill extrusion width = 0.45mm
; top infill extrusion width = 0.42mm
; support material extrusion width = 0.36mm
; first layer extrusion width = 0.50mm

M73 P0 R184
;TYPE:Custom
M104 ; prevent pusaslicer from adding temperature commands
; run custom start G-code
T-1  ; clear tool selection
M144 S1 ; set bed as active
M140 S0 R0 ; set bed temp
G29 S1 ; activate mesh bed compensation and load saved heightmap

; turn off unused heaters



M104 T3 S0

; homming
G28 ; homing
; try picking tools used in print
G1 F24000
;
;T1
;T2
;
G0 Z5 ; add Z clearance
M190 S0 ; wait for bed temp

; set extruder temp
M104 T0 S220
M104 T1 S220
M104 T2 S240



;
; purge second tool
;
G1 F24000
T-1 ; park the tool
M109 T1 S220
T1 ; pick the tool
G92 E0 ; reset extruder position

G0 X320 Y155 Z10 F24000 ; move close to the sheet's edge
G0 E30 X310 Z0.2 F170 ; purge while moving towards the sheet
G0 X285 E39 F800 ; continue purging and wipe the nozzle
G0 X282 Z0.05 F8000 ; wipe, move close to the bed
G0 X279 Z0.2 F8000 ; wipe, move quickly away from the bed
G1 E-1.2 F2400 ; retract

G92 E0 ; reset extruder position

M104 S100 T1


;
; purge third tool
;
G1 F24000
T-1 ; park the tool
M109 T2 S240
T2 ; pick the tool
G92 E0 ; reset extruder position

G0 X320 Y135 Z10 F24000 ; move close to the sheet's edge
G0 E30 X310 Z0.2 F170 ; purge while moving towards the sheet
G0 X285 E39 F800 ; continue purging and wipe the nozzle
G0 X282 Z0.05 F8000 ; wipe, move close to the bed
M73 P0 R183
G0 X279 Z0.2 F8000 ; wipe, move quickly away from the bed
G1 E-1.2 F2400 ; retract

G92 E0 ; reset extruder position

M104 S100 T2


;
; purge initial tool
;
G1 F24000
T-1 ; park the tool
M109 T0 S220
T0 ; pick the tool
G92 E0 ; reset extruder position

G0 X320 Y195 Z10 F24000 ; move close to the sheet's edge
G0 E30 X310 Z0.2 F170 ; purge while moving towards the sheet
G0 X285 E39 F800 ; continue purging and wipe the nozzle
G0 X282 Z0.05 F8000 ; wipe, move close to the bed
G0 X279 Z0.2 F8000 ; wipe, move quickly away from the bed
G1 E-1.5 F2400 ; retract



G92 E0 ; reset extruder position

G21 ; set units to millimeters
G90 ; use absolute coordinates
M83 ; use relative distances for extrusion
; Change Tool-1 -> Tool0 (layer -1)

; check if tool is already active at startup
T0 ; tool already active, don't change tools
; Filament gcode
M107
;LAYER_CHANGE
;Z:0.2
;HEIGHT:0.2
G1 Z.2 F720
G1 X127.345 Y81.119 F24000
G1 Z.2 F720
G1 E1.5 F3000
;TYPE:Skirt/Brim
;WIDTH:0.5
;HEIGHT:0.2
G1 F1640.852
G1 X129.059 Y79.865 E.08314
G1 X131.5 Y79.314 E.09796
G1 X168.5 Y79.314 E1.44842
G1 X170.586 Y79.711 E.08313
G1 X171.74 Y80.328 E.05123
G1 X246.439 Y132.128 E3.5585
G1 X247.928 Y133.643 E.08316
G1 X248.756 Y135.598 E.08311
G1 X248.885 Y136.8 E.04732
G1 X248.885 Y149.7 E.50499
G1 X248.489 Y151.786 E.08312
G1 X247.355 Y153.581 E.08312
G1 X245.641 Y154.834 E.08311
G1 X243.2 Y155.385 E.09796
G1 X176.8 Y155.385 E2.59933
G1 X174.714 Y154.989 E.08312
G1 X173.343 Y154.213 E.06167
G1 X128.043 Y119.514 E2.23379
G1 X126.628 Y117.93 E.08315
G1 X125.814 Y115 E.11904
G1 X125.814 Y85 E1.1744
G1 X126.211 Y82.914 E.08313
G1 X127.313 Y81.17 E.08076
G1 E-1.5 F3000
G1 X239.5 Y140.5 F24000
G1 E1.5 F3000
;HEIGHT:0.2
;TYPE:Wipe tower
;WIDTH:0.5
G1 X239.500 Y142.500 E0.0760 F1641
G1 X180.500 E2.2424
G1 Y140.500 E0.0760
G1 X239.500 E2.2424
G1 Y142.500
G1 X238.500
;--------------------
; CP EMPTY GRID START
; layer #1
G1 Y142.000 E0.0190
G1 X181.000 E2.1854
G1 Y141.500 E0.0190
G1 X239.000 E2.2044
G1 Y141.000 E0.0190
G1 X181.000 E2.2044
G1 Y140.500 E0.0190
; CP EMPTY GRID END
;------------------






G1 X180.000 Y140.000
G1 X240.000 E2.2804
G1 Y146.500 E0.2470
G1 X180.000 E2.2804
G1 Y140.000 E0.2470
G1 X179.543 Y139.543
G1 X240.457 E2.3151
G1 Y146.957 E0.2818
G1 X179.543 E2.3151
G1 Y139.543 E0.2818
G1 X179.086 Y139.086
G1 X240.914 E2.3499
G1 Y147.414 E0.3165
G1 X179.086 E2.3499
G1 Y139.086 E0.3165
G1 X178.629 Y138.629
G1 X241.371 E2.3846
G1 Y147.871 E0.3513
G1 X178.629 E2.3846
G1 Y138.629 E0.3513
G1 X178.172 Y138.172
G1 X241.828 E2.4194
G1 Y148.328 E0.3860
G1 X178.172 E2.4194
G1 Y138.172 E0.3860
M73 P0 R182
G1 X177.715 Y137.715
G1 X242.285 E2.4541
G1 Y148.785 E0.4208
G1 X177.715 E2.4541
G1 Y137.715 E0.4208
G1 X177.258 Y137.258
G1 X242.742 E2.4888
G1 Y149.242 E0.4555
G1 X177.258 E2.4888
G1 Y137.258 E0.4555
G1 X176.800 Y136.800
G1 X243.200 E2.5236
G1 Y149.700 E0.4902
G1 X176.800 E2.5236
G1 Y136.800 E0.4902
G1 X239.750 Y146.250 F7200
;HEIGHT:0.2
;TYPE:Wipe tower
;WIDTH:0.5
;--------------------
; CP TOOLCHANGE START
; toolchange #1
; material : FLEX -> FLEX
;--------------------
M220 S100
; CP TOOLCHANGE UNLOAD
;WIDTH:1
;WIDTH:0.5
G4 S0
G1 E-1.2 F3000
; Filament-specific end gcode 
;END gcode for filament
; Change Tool0 -> Tool1 (layer 0)

  ; run tool change as expected
G1 E-2 F2000 ; retract filament
T-1 ; drop off current tool
M109 S220 T1
T1      ; pick up next tool
	; if layer height is above the minimum, enable fan
	               M106 S255 ; set part cooling fan based on filament profile
	
; Filament gcode

G1 F24000
G1 X239.250 Y145.000
G1 Z.2 F720
G1 E1.2 F1200
G4 S0
G1 Y145.500
; CP TOOLCHANGE WIPE
;WIDTH:0.5
G1 X180.250 E2.2424 F656
G1 X181.000 Y145.000 E0.0343
G1 X239.750 E2.2329
G1 X239.000 Y144.500 E0.0343
G1 X181.000 E2.2044
G1 Y144.000 E0.0190
M73 P1 R182
G1 X239.000 E2.2044
G1 Y143.500 E0.0190
G1 X180.250 E2.2329
G1 X181.000 Y143.000 E0.0343
G1 X239.750 E2.2329
;WIDTH:0.5
G1 F24000
G4 S0
G92 E0
; CP TOOLCHANGE END
;------------------



G1 E-.7 F2400
G1 X248.428 Y143 F24000
G1 E.7 F1200
;TYPE:Skirt/Brim
;WIDTH:0.5
;HEIGHT:0.2
G1 F656.341
G1 X248.428 Y149.7 E.29284
G1 X248.032 Y151.696 E.08894
G1 X246.903 Y153.39 E.08898
G1 X245.214 Y154.525 E.08894
G1 X243.2 Y154.928 E.08977
G1 X176.8 Y154.928 E2.90216
G1 X174.804 Y154.532 E.08894
G1 X173.621 Y153.85 E.05968
G1 X128.321 Y119.151 E2.49404
G1 X126.977 Y117.622 E.08898
M73 P1 R181
G1 X126.271 Y115 E.11868
G1 X126.271 Y85 E1.31122
G1 X126.668 Y83.004 E.08895
G1 X127.796 Y81.31 E.08895
G1 X129.486 Y80.175 E.08898
G1 X131.5 Y79.771 E.08978
G1 X168.5 Y79.771 E1.61717
G1 X170.496 Y80.168 E.08895
G1 X171.479 Y80.703 E.04892
G1 X246.179 Y132.504 E3.97314
G1 X247.594 Y133.967 E.08896
G1 X248.428 Y136.8 E.12908
G1 X248.428 Y142.94 E.26836
G1 E-.7 F2400
G1 X150 Y113.786 F24000
G1 E.7 F1200
;TYPE:Perimeter
;WIDTH:0.499999
G1 F656.342
G1 X132.714 Y113.786 E.75552
G1 X132.714 Y86.214 E1.2051
G1 X167.286 Y86.214 E1.51105
G1 X167.286 Y113.786 E1.2051
G1 X150.06 Y113.786 E.7529
G1 X150 Y114.243 F24000
G1 F656.342
G1 X132.257 Y114.243 E.7755
G1 X132.257 Y85.757 E1.24504
G1 X167.743 Y85.757 E1.55099
G1 X167.743 Y114.243 E1.24504
G1 X150.06 Y114.243 E.77287
G1 X150 Y114.7 F24000
;TYPE:External perimeter
G1 F656.342
G1 X131.8 Y114.7 E.79547
G1 X131.8 Y85.3 E1.28499
G1 X168.2 Y85.3 E1.59094
G1 X168.2 Y114.7 E1.28499
G1 X150.06 Y114.7 E.79285
G1 X149.66 Y114.7 F24000
G1 E-.7 F2400
G1 X166.178 Y86.397 F24000
G1 E.7 F1200
;TYPE:Solid infill
;WIDTH:0.500704
G1 F655.331
G1 X166.897 Y87.117 E.04454
G1 X166.897 Y87.764 E.02832
G1 X165.736 Y86.603 E.07187
G1 X165.088 Y86.603 E.02837
G1 X166.897 Y88.412 E.11199
G1 X166.897 Y89.059 E.02832
G1 X164.441 Y86.603 E.15204
G1 X163.794 Y86.603 E.02832
G1 X166.897 Y89.706 E.1921
G1 X166.897 Y90.354 E.02837
G1 X163.146 Y86.603 E.23221
G1 X162.499 Y86.603 E.02832
M73 P1 R180
G1 X166.897 Y91.001 E.27227
G1 X166.897 Y91.649 E.02837
G1 X161.851 Y86.603 E.31238
G1 X161.204 Y86.603 E.02832
G1 X166.897 Y92.296 E.35243
G1 X166.897 Y92.943 E.02832
G1 X160.557 Y86.603 E.39249
G1 X159.909 Y86.603 E.02837
G1 X166.897 Y93.591 E.4326
G1 X166.897 Y94.238 E.02832
G1 X159.262 Y86.603 E.47266
G1 X158.614 Y86.603 E.02837
G1 X166.897 Y94.886 E.51277
G1 X166.897 Y95.533 E.02832
G1 X157.967 Y86.603 E.55283
G1 X157.32 Y86.603 E.02832
G1 X166.897 Y96.18 E.59288
G1 X166.897 Y96.828 E.02837
G1 X156.672 Y86.603 E.633
G1 X156.025 Y86.603 E.02832
G1 X166.897 Y97.475 E.67305
G1 X166.897 Y98.123 E.02837
G1 X155.377 Y86.603 E.71316
G1 X154.73 Y86.603 E.02832
G1 X166.897 Y98.77 E.75322
G1 X166.897 Y99.417 E.02832
G1 X154.083 Y86.603 E.79327
G1 X153.435 Y86.603 E.02837
G1 X166.897 Y100.065 E.83339
G1 X166.897 Y100.712 E.02832
G1 X152.788 Y86.603 E.87344
G1 X152.14 Y86.603 E.02837
G1 X166.897 Y101.36 E.91356
G1 X166.897 Y102.007 E.02832
G1 X151.493 Y86.603 E.95361
G1 X150.846 Y86.603 E.02832
M73 P2 R180
G1 X166.897 Y102.654 E.99366
G1 X166.897 Y103.302 E.02837
G1 X150.198 Y86.603 E1.03378
G1 X149.551 Y86.603 E.02832
G1 X166.897 Y103.949 E1.07383
G1 X166.897 Y104.597 E.02837
G1 X148.903 Y86.603 E1.11395
G1 X148.256 Y86.603 E.02832
G1 X166.897 Y105.244 E1.154
G1 X166.897 Y105.892 E.02837
G1 X147.609 Y86.603 E1.19409
G1 X146.961 Y86.603 E.02837
G1 X166.897 Y106.539 E1.23417
G1 X166.897 Y107.186 E.02832
G1 X146.314 Y86.603 E1.27422
G1 X145.666 Y86.603 E.02837
G1 X166.897 Y107.834 E1.31434
G1 X166.897 Y108.481 E.02832
G1 X145.019 Y86.603 E1.35439
G1 X144.371 Y86.603 E.02837
G1 X166.897 Y109.129 E1.39451
G1 X166.897 Y109.776 E.02832
G1 X143.724 Y86.603 E1.43456
G1 X143.077 Y86.603 E.02832
G1 X166.897 Y110.423 E1.47462
G1 X166.897 Y111.071 E.02837
G1 X142.429 Y86.603 E1.51473
G1 X141.782 Y86.603 E.02832
M73 P2 R179
G1 X166.897 Y111.718 E1.55479
G1 X166.897 Y112.366 E.02837
G1 X141.134 Y86.603 E1.5949
G1 X140.487 Y86.603 E.02832
G1 X166.897 Y113.013 E1.63496
G1 X166.897 Y113.397 E.01681
G1 X166.634 Y113.397 E.01151
G1 X139.84 Y86.603 E1.65873
G1 X139.192 Y86.603 E.02837
G1 X165.987 Y113.397 E1.65876
G1 X165.339 Y113.397 E.02837
G1 X138.545 Y86.603 E1.65873
G1 X137.897 Y86.603 E.02837
G1 X164.692 Y113.397 E1.65876
G1 X164.045 Y113.397 E.02832
G1 X137.25 Y86.603 E1.65876
G1 X136.603 Y86.603 E.02832
G1 X163.397 Y113.397 E1.65873
G1 X162.75 Y113.397 E.02832
G1 X135.955 Y86.603 E1.65876
G1 X135.308 Y86.603 E.02832
G1 X162.102 Y113.397 E1.65873
G1 X161.455 Y113.397 E.02832
G1 X134.66 Y86.603 E1.65876
G1 X134.013 Y86.603 E.02832
G1 X160.808 Y113.397 E1.65876
G1 X160.16 Y113.397 E.02837
G1 X133.366 Y86.603 E1.65873
G1 X133.103 Y86.603 E.01151
G1 X133.103 Y86.987 E.01681
G1 X159.513 Y113.397 E1.63496
G1 X158.865 Y113.397 E.02837
G1 X133.103 Y87.635 E1.59484
G1 X133.103 Y88.282 E.02832
G1 X158.218 Y113.397 E1.55479
G1 X157.571 Y113.397 E.02832
M73 P2 R178
G1 X133.103 Y88.929 E1.51473
G1 X133.103 Y89.577 E.02837
G1 X156.923 Y113.397 E1.47462
G1 X156.276 Y113.397 E.02832
G1 X133.103 Y90.224 E1.43456
G1 X133.103 Y90.872 E.02837
G1 X155.628 Y113.397 E1.39445
G1 X154.981 Y113.397 E.02832
G1 X133.103 Y91.519 E1.35439
G1 X133.103 Y92.166 E.02832
M73 P3 R178
G1 X154.334 Y113.397 E1.31434
G1 X153.686 Y113.397 E.02837
G1 X133.103 Y92.814 E1.27422
G1 X133.103 Y93.461 E.02832
G1 X153.039 Y113.397 E1.23417
G1 X152.391 Y113.397 E.02837
G1 X133.103 Y94.109 E1.19406
G1 X133.103 Y94.756 E.02832
G1 X151.744 Y113.397 E1.154
G1 X151.097 Y113.397 E.02832
G1 X133.103 Y95.403 E1.11395
G1 X133.103 Y96.051 E.02837
G1 X150.449 Y113.397 E1.07383
G1 X149.802 Y113.397 E.02832
G1 X133.103 Y96.698 E1.03378
G1 X133.103 Y97.346 E.02837
G1 X149.154 Y113.397 E.99366
G1 X148.507 Y113.397 E.02832
G1 X133.103 Y97.993 E.95361
G1 X133.103 Y98.64 E.02832
G1 X147.86 Y113.397 E.91356
G1 X147.212 Y113.397 E.02837
G1 X133.103 Y99.288 E.87344
G1 X133.103 Y99.935 E.02832
G1 X146.565 Y113.397 E.83339
G1 X145.917 Y113.397 E.02837
G1 X133.103 Y100.583 E.79327
G1 X133.103 Y101.23 E.02832
G1 X145.27 Y113.397 E.75322
G1 X144.623 Y113.397 E.02832
G1 X133.103 Y101.877 E.71316
G1 X133.103 Y102.525 E.02837
G1 X143.975 Y113.397 E.67305
G1 X143.328 Y113.397 E.02832
G1 X133.103 Y103.172 E.633
G1 X133.103 Y103.82 E.02837
G1 X142.68 Y113.397 E.59288
G1 X142.033 Y113.397 E.02832
G1 X133.103 Y104.467 E.55283
G1 X133.103 Y105.114 E.02832
G1 X141.386 Y113.397 E.51277
G1 X140.738 Y113.397 E.02837
G1 X133.103 Y105.762 E.47266
G1 X133.103 Y106.409 E.02832
G1 X140.091 Y113.397 E.4326
G1 X139.443 Y113.397 E.02837
G1 X133.103 Y107.057 E.39249
G1 X133.103 Y107.704 E.02832
M73 P3 R177
G1 X138.796 Y113.397 E.35243
G1 X138.149 Y113.397 E.02832
G1 X133.103 Y108.351 E.31238
G1 X133.103 Y108.999 E.02837
G1 X137.501 Y113.397 E.27227
G1 X136.854 Y113.397 E.02832
G1 X133.103 Y109.646 E.23221
G1 X133.103 Y110.294 E.02837
G1 X136.206 Y113.397 E.1921
G1 X135.559 Y113.397 E.02832
G1 X133.103 Y110.941 E.15204
G1 X133.103 Y111.589 E.02837
G1 X134.911 Y113.397 E.11193
G1 X134.264 Y113.397 E.02832
G1 X133.103 Y112.236 E.07187
G1 X133.103 Y112.883 E.02832
G1 X133.822 Y113.603 E.04454
;LAYER_CHANGE
;Z:0.4
;HEIGHT:0.2
;BEFORE_LAYER_CHANGE
G92 E0.0
;0.4

G1 E-.7 F2400
G1 Z.4 F720
G1 X150 Y113.961 F24000
G1 E.7 F1200
;TYPE:Perimeter
;WIDTH:0.449999
;HEIGHT:0.2
G1 F736.958
G1 X132.539 Y113.961 E.67969
G1 X132.539 Y86.039 E1.08689
G1 X167.461 Y86.039 E1.35938
G1 X167.461 Y113.961 E1.08689
G1 X150.06 Y113.961 E.67735
G1 X150 Y114.368 F24000
G1 F736.958
G1 X132.132 Y114.368 E.69553
G1 X132.132 Y85.632 E1.11858
G1 X167.868 Y85.632 E1.39106
G1 X167.868 Y114.368 E1.11858
G1 X150.06 Y114.368 E.6932
G1 X150 Y114.775 F24000
;TYPE:External perimeter
G1 F736.958
G1 X131.725 Y114.775 E.71137
G1 X131.725 Y85.225 E1.15027
G1 X168.275 Y85.225 E1.42275
G1 X168.275 Y114.775 E1.15027
G1 X150.06 Y114.775 E.70904
G1 X149.66 Y114.775 F24000
G1 E-.7 F2400
G1 X132.996 Y86.418 F24000
G1 E.7 F1200
;TYPE:Solid infill
;WIDTH:0.548766
G1 F593.066
G2 X132.979 Y86.479 I-.059 J.017 E.0152
;WIDTH:0.449999
G1 F736.958
G1 X132.885 Y87.129 E.02557
G1 X133.629 Y86.385 E.04096
G1 X134.205 Y86.385 E.02242
G1 X132.885 Y87.705 E.07267
G1 X132.885 Y88.281 E.02242
G1 X134.781 Y86.385 E.10437
G1 X135.357 Y86.385 E.02242
G1 X132.885 Y88.857 E.13608
G1 X132.885 Y89.432 E.02238
G1 X135.932 Y86.385 E.16774
G1 X136.508 Y86.385 E.02242
G1 X132.885 Y90.008 E.19945
G1 X132.885 Y90.584 E.02242
G1 X137.084 Y86.385 E.23115
G1 X137.659 Y86.385 E.02238
G1 X132.885 Y91.159 E.26281
G1 X132.885 Y91.735 E.02242
G1 X138.235 Y86.385 E.29452
G1 X138.811 Y86.385 E.02242
G1 X132.885 Y92.311 E.32623
G1 X132.885 Y92.886 E.02238
G1 X139.386 Y86.385 E.35788
G1 X139.962 Y86.385 E.02242
G1 X132.885 Y93.462 E.38959
G1 X132.885 Y94.038 E.02242
G1 X140.538 Y86.385 E.4213
G1 X141.114 Y86.385 E.02242
G1 X132.885 Y94.614 E.453
G1 X132.885 Y95.189 E.02238
G1 X141.689 Y86.385 E.48466
G1 X142.265 Y86.385 E.02242
G1 X132.885 Y95.765 E.51637
G1 X132.885 Y96.341 E.02242
G1 X142.841 Y86.385 E.54808
G1 X143.416 Y86.385 E.02238
G1 X132.885 Y96.916 E.57973
G1 X132.885 Y97.492 E.02242
G1 X143.992 Y86.385 E.61144
G1 X144.568 Y86.385 E.02242
G1 X132.885 Y98.068 E.64315
G1 X132.885 Y98.643 E.02238
G1 X145.143 Y86.385 E.6748
G1 X145.719 Y86.385 E.02242
G1 X132.885 Y99.219 E.70651
G1 X132.885 Y99.795 E.02242
G1 X146.295 Y86.385 E.73822
G1 X146.871 Y86.385 E.02242
G1 X132.885 Y100.371 E.76993
G1 X132.885 Y100.946 E.02238
G1 X147.446 Y86.385 E.80158
G1 X148.022 Y86.385 E.02242
M73 P3 R176
G1 X132.885 Y101.522 E.83329
G1 X132.885 Y102.098 E.02242
G1 X148.598 Y86.385 E.865
G1 X149.173 Y86.385 E.02238
G1 X132.885 Y102.673 E.89665
G1 X132.885 Y103.249 E.02242
M73 P4 R176
G1 X149.749 Y86.385 E.92836
G1 X150.325 Y86.385 E.02242
