; generated by PrusaSlicer 2.9.5 on 2026-06-05 at 12:44:24 UTC

; 

; external perimeters extrusion width = 0.45mm
; perimeters extrusion width = 0.45mm
; infill extrusion width = 0.45mm
; solid infill extrusion width = 0.45mm
; top infill extrusion width = 0.42mm
; support material extrusion width = 0.36mm
; first layer extrusion width = 0.50mm

; external perimeters extrusion width = 0.45mm
; perimeters extrusion width = 0.45mm
; infill extrusion width = 0.45mm
; solid infill extrusion width = 0.45mm
; top infill extrusion width = 0.42mm
; support material extrusion width = 0.36mm
; first layer extrusion width = 0.50mm

; external perimeters extrusion width = 0.45mm
; perimeters extrusion width = 0.45mm
; infill extrusion width = 0.45mm
; solid infill extrusion width = 0.45mm
; top infill extrusion width = 0.42mm
; support material extrusion width = 0.36mm
; first layer extrusion width = 0.50mm

M73 P0 R161
;TYPE:Custom
M104 ; prevent pusaslicer from adding temperature commands
; run custom start G-code
T-1  ; clear tool selection
M144 S1 ; set bed as active
M140 S0 R0 ; set bed temp
G29 S1 ; activate mesh bed compensation and load saved heightmap

; turn off unused heaters



M104 T3 S0

; homming
G28 ; homing
; try picking tools used in print
G1 F24000
;
;T1
;T2
;
G0 Z5 ; add Z clearance
M190 S0 ; wait for bed temp

; set extruder temp
M104 T0 S220
M104 T1 S220
M104 T2 S240



;
; purge second tool
;
G1 F24000
T-1 ; park the tool
M109 T1 S220
T1 ; pick the tool
G92 E0 ; reset extruder position

G0 X320 Y155 Z10 F24000 ; move close to the sheet's edge
G0 E30 X310 Z0.2 F170 ; purge while moving towards the sheet
G0 X285 E39 F800 ; continue purging and wipe the nozzle
G0 X282 Z0.05 F8000 ; wipe, move close to the bed
G0 X279 Z0.2 F8000 ; wipe, move quickly away from the bed
G1 E-1.2 F2400 ; retract

G92 E0 ; reset extruder position

M104 S100 T1


;
; purge third tool
;
G1 F24000
T-1 ; park the tool
M109 T2 S240
T2 ; pick the tool
G92 E0 ; reset extruder position

G0 X320 Y135 Z10 F24000 ; move close to the sheet's edge
G0 E30 X310 Z0.2 F170 ; purge while moving towards the sheet
G0 X285 E39 F800 ; continue purging and wipe the nozzle
G0 X282 Z0.05 F8000 ; wipe, move close to the bed
G0 X279 Z0.2 F8000 ; wipe, move quickly away from the bed
G1 E-1.2 F2400 ; retract

G92 E0 ; reset extruder position

M104 S100 T2


;
; purge initial tool
;
G1 F24000
T-1 ; park the tool
M109 T0 S220
T0 ; pick the tool
G92 E0 ; reset extruder position

G0 X320 Y195 Z10 F24000 ; move close to the sheet's edge
G0 E30 X310 Z0.2 F170 ; purge while moving towards the sheet
G0 X285 E39 F800 ; continue purging and wipe the nozzle
G0 X282 Z0.05 F8000 ; wipe, move close to the bed
G0 X279 Z0.2 F8000 ; wipe, move quickly away from the bed
G1 E-1.5 F2400 ; retract



G92 E0 ; reset extruder position

G21 ; set units to millimeters
G90 ; use absolute coordinates
M83 ; use relative distances for extrusion
; Change Tool-1 -> Tool0 (layer -1)

; check if tool is already active at startup
T0 ; tool already active, don't change tools
; Filament gcode
M107
;LAYER_CHANGE
;Z:0.2
;HEIGHT:0.2
G1 Z.2 F720
G1 X92.229 Y88.895 F24000
G1 Z.2 F720
G1 E1.5 F3000
;TYPE:Skirt/Brim
;WIDTH:0.5
;HEIGHT:0.2
G1 F1640.852
G1 X115.969 Y64.265 E1.33915
G1 X117.702 Y63.039 E.0831
G1 X120.062 Y62.525 E.09455
G1 X156.062 Y62.525 E1.40927
G1 X158.148 Y62.922 E.08313
G1 X159.943 Y64.056 E.08312
G1 X161.197 Y65.77 E.08314
G1 X161.748 Y68.211 E.09796
G1 X161.748 Y88.211 E.78293
G1 X161.19 Y90.666 E.09856
G1 X137.945 Y139.222 E2.10738
G1 X136.686 Y140.932 E.08313
G1 X134.888 Y142.062 E.08313
G1 X132.816 Y142.453 E.08254
G1 X66.417 Y142.453 E2.59929
G1 X64.331 Y142.056 E.08313
G1 X62.536 Y140.922 E.08312
G1 X61.282 Y139.208 E.08314
G1 X60.732 Y136.767 E.09795
G1 X60.732 Y123.868 E.50495
G1 X61.128 Y121.782 E.08312
G1 X62.324 Y119.922 E.08657
G1 X92.187 Y88.938 E1.68458
G1 E-1.5 F3000
G1 X129.117 Y127.568 F24000
G1 E1.5 F3000
;HEIGHT:0.2
;TYPE:Wipe tower
;WIDTH:0.5
G1 X129.117 Y129.568 E0.0760 F1641
G1 X70.117 E2.2424
G1 Y127.568 E0.0760
G1 X129.117 E2.2424
G1 Y129.568
G1 X128.117
;--------------------
; CP EMPTY GRID START
; layer #1
G1 Y129.068 E0.0190
G1 X70.617 E2.1854
G1 Y128.568 E0.0190
G1 X128.617 E2.2044
G1 Y128.068 E0.0190
G1 X70.617 E2.2044
G1 Y127.568 E0.0190
M73 P0 R160
; CP EMPTY GRID END
;------------------






G1 X69.617 Y127.068
G1 X129.617 E2.2804
G1 Y133.568 E0.2470
G1 X69.617 E2.2804
G1 Y127.068 E0.2470
G1 X69.160 Y126.611
G1 X130.074 E2.3151
G1 Y134.025 E0.2818
G1 X69.160 E2.3151
G1 Y126.611 E0.2818
G1 X68.703 Y126.154
G1 X130.531 E2.3499
G1 Y134.482 E0.3165
G1 X68.703 E2.3499
G1 Y126.154 E0.3165
G1 X68.246 Y125.697
G1 X130.988 E2.3846
G1 Y134.939 E0.3513
G1 X68.246 E2.3846
G1 Y125.697 E0.3513
G1 X67.789 Y125.240
G1 X131.445 E2.4194
G1 Y135.396 E0.3860
G1 X67.789 E2.4194
G1 Y125.240 E0.3860
G1 X67.332 Y124.783
G1 X131.902 E2.4541
G1 Y135.853 E0.4208
G1 X67.332 E2.4541
G1 Y124.783 E0.4208
G1 X66.875 Y124.326
G1 X132.359 E2.4888
G1 Y136.310 E0.4555
G1 X66.875 E2.4888
G1 Y124.326 E0.4555
G1 X66.417 Y123.868
G1 X132.817 E2.5236
G1 Y136.768 E0.4902
G1 X66.417 E2.5236
G1 Y123.868 E0.4902
G1 X129.367 Y133.318 F7200
;HEIGHT:0.2
;TYPE:Wipe tower
;WIDTH:0.5
;--------------------
; CP TOOLCHANGE START
; toolchange #1
; material : FLEX -> FLEX
;--------------------
M220 S100
; CP TOOLCHANGE UNLOAD
;WIDTH:1
;WIDTH:0.5
G4 S0
G1 E-1.2 F3000
; Filament-specific end gcode 
;END gcode for filament
; Change Tool0 -> Tool1 (layer 0)

  ; run tool change as expected
G1 E-2 F2000 ; retract filament
T-1 ; drop off current tool
M109 S220 T1
T1      ; pick up next tool
	; if layer height is above the minimum, enable fan
	               M106 S255 ; set part cooling fan based on filament profile
	
; Filament gcode

G1 F24000
G1 X128.867 Y132.068
G1 Z.2 F720
G1 E1.2 F1200
G4 S0
G1 Y132.568
; CP TOOLCHANGE WIPE
;WIDTH:0.5
G1 X69.867 E2.2424 F788
G1 X70.617 Y132.068 E0.0343
M73 P1 R160
G1 X129.367 E2.2329
G1 X128.617 Y131.568 E0.0343
G1 X70.617 E2.2044
G1 Y131.068 E0.0190
G1 X128.617 E2.2044
G1 Y130.568 E0.0190
M73 P1 R159
G1 X69.867 E2.2329
G1 X70.617 Y130.068 E0.0343
G1 X129.367 E2.2329
;WIDTH:0.5
G1 F24000
G4 S0
G92 E0
; CP TOOLCHANGE END
;------------------



G1 E-1 F3000
G1 X129.787 Y130.269 Z1.2 F794.432
G1 X139.498 Y134.918 F24000
G1 Z.2 F720
G1 E1 F1200
;TYPE:Skirt/Brim
;WIDTH:0.5
;HEIGHT:0.2
G1 F787.609
G1 X137.532 Y139.025 E.19901
G1 X136.313 Y140.654 E.08893
G1 X134.564 Y141.695 E.08896
G1 X132.816 Y141.996 E.07752
G1 X66.417 Y141.996 E2.90212
G1 X64.421 Y141.599 E.08895
G1 X62.727 Y140.471 E.08895
G1 X61.592 Y138.781 E.08898
G1 X61.189 Y136.767 E.08977
G1 X61.189 Y123.868 E.56378
G1 X61.585 Y121.871 E.08898
G1 X62.653 Y120.239 E.08525
G1 X116.298 Y64.583 E3.3786
G1 X117.968 Y63.42 E.08895
G1 X120.062 Y62.982 E.0935
G1 X156.062 Y62.982 E1.57346
G1 X158.059 Y63.379 E.08899
G1 X159.753 Y64.507 E.08895
G1 X160.887 Y66.197 E.08895
G1 X161.291 Y68.211 E.08978
G1 X161.291 Y88.211 E.87415
G1 X160.778 Y90.469 E.10121
G1 X139.524 Y134.864 E2.15129
G1 E-1 F3000
G1 X139.51 Y134.398 Z1.2 F794.473
G1 X138.062 Y86.54 F24000
G1 Z.2 F720
G1 E1 F1200
;TYPE:Perimeter
;WIDTH:0.499999
G1 F787.61
G1 X121.733 Y86.54 E.7137
G1 X121.733 Y69.882 E.72807
G1 X154.391 Y69.882 E1.42739
G1 X154.391 Y86.54 E.72807
G1 X138.122 Y86.54 E.71107
G1 X138.062 Y86.997 F24000
G1 F787.61
G1 X121.276 Y86.997 E.73367
G1 X121.276 Y69.425 E.76802
G1 X154.848 Y69.425 E1.46734
G1 X154.848 Y86.997 E.76802
G1 X138.122 Y86.997 E.73105
G1 X138.062 Y87.454 F24000
G1 F787.61
G1 X120.819 Y87.454 E.75364
G1 X120.819 Y68.968 E.80797
G1 X155.305 Y68.968 E1.50729
G1 X155.305 Y87.454 E.80797
G1 X138.122 Y87.454 E.75102
G1 X138.062 Y87.911 F24000
;TYPE:External perimeter
G1 F787.61
G1 X120.362 Y87.911 E.77362
G1 X120.362 Y68.511 E.84792
M73 P1 R158
G1 X155.762 Y68.511 E1.54724
G1 X155.762 Y87.911 E.84792
G1 X138.122 Y87.911 E.771
G1 X137.722 Y87.911 F24000
G1 E-1 F3000
G1 X138.029 Y87.56 Z1.2 F794.432
G1 X153.28 Y70.065 F24000
G1 Z.2 F720
G1 E1 F1200
;TYPE:Solid infill
;WIDTH:0.501833
G1 F784.462
G1 X154.002 Y70.787 E.04481
G1 X154.002 Y71.436 E.02848
G1 X152.837 Y70.271 E.0723
G1 X152.188 Y70.271 E.02848
G1 X154.002 Y72.085 E.11258
G1 X154.002 Y72.734 E.02848
G1 X151.539 Y70.271 E.15285
G1 X150.89 Y70.271 E.02848
G1 X154.002 Y73.383 E.19313
G1 X154.002 Y74.032 E.02848
G1 X150.241 Y70.271 E.23341
G1 X149.592 Y70.271 E.02848
G1 X154.002 Y74.681 E.27368
G1 X154.002 Y75.33 E.02848
G1 X148.943 Y70.271 E.31396
G1 X148.294 Y70.271 E.02848
G1 X154.002 Y75.979 E.35423
G1 X154.002 Y76.628 E.02848
G1 X147.645 Y70.271 E.39451
G1 X146.996 Y70.271 E.02848
G1 X154.002 Y77.277 E.43479
G1 X154.002 Y77.926 E.02848
G1 X146.347 Y70.271 E.47506
G1 X145.698 Y70.271 E.02848
G1 X154.002 Y78.575 E.51534
G1 X154.002 Y79.224 E.02848
G1 X145.049 Y70.271 E.55562
G1 X144.4 Y70.271 E.02848
G1 X154.002 Y79.873 E.59589
G1 X154.002 Y80.522 E.02848
G1 X143.751 Y70.271 E.63617
G1 X143.102 Y70.271 E.02848
G1 X154.002 Y81.171 E.67645
G1 X154.002 Y81.82 E.02848
G1 X142.453 Y70.271 E.71672
G1 X141.804 Y70.271 E.02848
G1 X154.002 Y82.469 E.757
G1 X154.002 Y83.118 E.02848
G1 X141.155 Y70.271 E.79728
G1 X140.506 Y70.271 E.02848
G1 X154.002 Y83.767 E.83755
G1 X154.002 Y84.416 E.02848
M73 P2 R158
G1 X139.857 Y70.271 E.87783
G1 X139.208 Y70.271 E.02848
G1 X154.002 Y85.065 E.91811
G1 X154.002 Y85.714 E.02848
G1 X138.559 Y70.271 E.95838
G1 X137.91 Y70.271 E.02848
G1 X153.79 Y86.151 E.9855
G1 X153.141 Y86.151 E.02848
G1 X137.261 Y70.271 E.9855
G1 X136.612 Y70.271 E.02848
G1 X152.492 Y86.151 E.9855
G1 X151.843 Y86.151 E.02848
G1 X135.963 Y70.271 E.9855
G1 X135.314 Y70.271 E.02848
G1 X151.194 Y86.151 E.9855
G1 X150.545 Y86.151 E.02848
G1 X134.665 Y70.271 E.9855
G1 X134.016 Y70.271 E.02848
G1 X149.896 Y86.151 E.9855
G1 X149.247 Y86.151 E.02848
G1 X133.367 Y70.271 E.9855
G1 X132.718 Y70.271 E.02848
G1 X148.598 Y86.151 E.9855
G1 X147.949 Y86.151 E.02848
G1 X132.069 Y70.271 E.9855
G1 X131.42 Y70.271 E.02848
G1 X147.3 Y86.151 E.9855
G1 X146.651 Y86.151 E.02848
G1 X130.771 Y70.271 E.9855
G1 X130.122 Y70.271 E.02848
G1 X146.002 Y86.151 E.9855
G1 X145.353 Y86.151 E.02848
G1 X129.473 Y70.271 E.9855
G1 X128.824 Y70.271 E.02848
G1 X144.704 Y86.151 E.9855
G1 X144.055 Y86.151 E.02848
G1 X128.175 Y70.271 E.9855
G1 X127.526 Y70.271 E.02848
G1 X143.406 Y86.151 E.9855
G1 X142.757 Y86.151 E.02848
M73 P2 R157
G1 X126.877 Y70.271 E.9855
G1 X126.228 Y70.271 E.02848
G1 X142.108 Y86.151 E.9855
G1 X141.459 Y86.151 E.02848
G1 X125.579 Y70.271 E.9855
G1 X124.93 Y70.271 E.02848
G1 X140.81 Y86.151 E.9855
G1 X140.161 Y86.151 E.02848
G1 X124.281 Y70.271 E.9855
G1 X123.632 Y70.271 E.02848
G1 X139.512 Y86.151 E.9855
G1 X138.863 Y86.151 E.02848
G1 X122.983 Y70.271 E.9855
G1 X122.334 Y70.271 E.02848
G1 X138.214 Y86.151 E.9855
G1 X137.565 Y86.151 E.02848
G1 X122.122 Y70.708 E.95838
G1 X122.122 Y71.357 E.02848
G1 X136.916 Y86.151 E.91811
G1 X136.267 Y86.151 E.02848
G1 X122.122 Y72.006 E.87783
G1 X122.122 Y72.655 E.02848
G1 X135.618 Y86.151 E.83755
G1 X134.969 Y86.151 E.02848
G1 X122.122 Y73.304 E.79728
G1 X122.122 Y73.953 E.02848
G1 X134.32 Y86.151 E.757
G1 X133.671 Y86.151 E.02848
G1 X122.122 Y74.602 E.71672
G1 X122.122 Y75.251 E.02848
G1 X133.022 Y86.151 E.67645
G1 X132.373 Y86.151 E.02848
G1 X122.122 Y75.9 E.63617
G1 X122.122 Y76.549 E.02848
G1 X131.724 Y86.151 E.59589
G1 X131.075 Y86.151 E.02848
G1 X122.122 Y77.198 E.55562
G1 X122.122 Y77.847 E.02848
G1 X130.426 Y86.151 E.51534
G1 X129.777 Y86.151 E.02848
G1 X122.122 Y78.496 E.47506
G1 X122.122 Y79.145 E.02848
G1 X129.128 Y86.151 E.43479
G1 X128.479 Y86.151 E.02848
G1 X122.122 Y79.794 E.39451
G1 X122.122 Y80.443 E.02848
G1 X127.83 Y86.151 E.35423
G1 X127.181 Y86.151 E.02848
G1 X122.122 Y81.092 E.31396
G1 X122.122 Y81.741 E.02848
G1 X126.532 Y86.151 E.27368
G1 X125.883 Y86.151 E.02848
G1 X122.122 Y82.39 E.23341
G1 X122.122 Y83.039 E.02848
G1 X125.234 Y86.151 E.19313
G1 X124.585 Y86.151 E.02848
G1 X122.122 Y83.688 E.15285
G1 X122.122 Y84.337 E.02848
G1 X123.936 Y86.151 E.11258
G1 X123.287 Y86.151 E.02848
G1 X122.122 Y84.986 E.0723
G1 X122.122 Y85.635 E.02848
G1 X122.844 Y86.357 E.04481
;LAYER_CHANGE
;Z:0.4
;HEIGHT:0.2
;BEFORE_LAYER_CHANGE
G92 E0.0
;0.4

G1 E-1 F3000
G1 X122.844 Y86.357 Z.2 F24000
G1 X123.31 Y86.369 Z1.2 F794.432
G1 X138.062 Y86.765 Z1.2 F24000
G1 Z.4 F720
G1 E1 F1200
;TYPE:Perimeter
;WIDTH:0.449999
;HEIGHT:0.2
G1 F884.349
G1 X121.508 Y86.765 E.64438
G1 X121.508 Y69.657 E.66595
G1 X154.616 Y69.657 E1.28876
G1 X154.616 Y86.765 E.66595
G1 X138.122 Y86.765 E.64205
G1 X138.062 Y87.172 F24000
G1 F884.349
G1 X121.101 Y87.172 E.66023
G1 X121.101 Y69.25 E.69763
G1 X155.023 Y69.25 E1.32045
G1 X155.023 Y87.172 E.69763
G1 X138.122 Y87.172 E.65789
G1 X138.062 Y87.579 F24000
G1 F884.349
G1 X120.694 Y87.579 E.67607
G1 X120.694 Y68.843 E.72932
G1 X155.43 Y68.843 E1.35214
G1 X155.43 Y87.579 E.72932
G1 X138.122 Y87.579 E.67373
G1 X138.062 Y87.986 F24000
;TYPE:External perimeter
G1 F884.349
G1 X120.287 Y87.986 E.69191
G1 X120.287 Y68.436 E.761
G1 X155.837 Y68.436 E1.38382
M73 P2 R156
G1 X155.837 Y87.986 E.761
M73 P3 R156
G1 X138.122 Y87.986 E.68958
G1 X137.722 Y87.986 F24000
G1 E-1 F3000
G1 X137.415 Y87.636 Z1.4 F794.432
G1 X121.965 Y70.036 F24000
G1 Z.4 F720
G1 E1 F1200
;TYPE:Solid infill
;WIDTH:0.548766
G1 F711.679
G2 X121.949 Y70.097 I-.058 J.017 E.01522
;WIDTH:0.449999
G1 F884.349
G1 X122.599 Y70.003 E.02557
G1 X121.788 Y70.82 E.04481
;WIDTH:0.41646
G1 F963.754
G1 X121.722 Y70.893 E.00352
;WIDTH:0.38292
G1 F1058.823
G1 X121.651 Y70.874 E.00239
G2 X121.711 Y70.934 I.04 J.02 E.00362
;WIDTH:0.449999
G1 F884.349
G1 X121.854 Y71.323 E.01613
G1 X123.174 Y70.003 E.07267
G1 X123.75 Y70.003 E.02242
G1 X121.854 Y71.899 E.10437
G1 X121.854 Y72.475 E.02242
G1 X124.326 Y70.003 E.13608
G1 X124.902 Y70.003 E.02242
G1 X121.854 Y73.05 E.16776
G1 X121.854 Y73.626 E.02242
G1 X125.477 Y70.003 E.19945
G1 X126.053 Y70.003 E.02242
G1 X121.854 Y74.202 E.23115
G1 X121.854 Y74.777 E.02238
G1 X126.629 Y70.003 E.26284
G1 X127.204 Y70.003 E.02238
G1 X121.854 Y75.353 E.29452
G1 X121.854 Y75.929 E.02242
G1 X127.78 Y70.003 E.32623
G1 X128.356 Y70.003 E.02242
G1 X121.854 Y76.505 E.35793
G1 X121.854 Y77.08 E.02238
G1 X128.931 Y70.003 E.38959
G1 X129.507 Y70.003 E.02242
G1 X121.854 Y77.656 E.4213
G1 X121.854 Y78.232 E.02242
G1 X130.083 Y70.003 E.453
G1 X130.659 Y70.003 E.02242
G1 X121.854 Y78.807 E.48469
G1 X121.854 Y79.383 E.02242
G1 X131.234 Y70.003 E.51637
G1 X131.81 Y70.003 E.02242
G1 X121.854 Y79.959 E.54808
G1 X121.854 Y80.534 E.02238
G1 X132.386 Y70.003 E.57976
G1 X132.961 Y70.003 E.02238
G1 X121.854 Y81.11 E.61144
G1 X121.854 Y81.686 E.02242
G1 X133.537 Y70.003 E.64315
G1 X134.113 Y70.003 E.02242
G1 X121.854 Y82.262 E.67486
G1 X121.854 Y82.837 E.02238
G1 X134.688 Y70.003 E.70651
G1 X135.264 Y70.003 E.02242
G1 X121.854 Y83.413 E.73822
G1 X121.854 Y83.989 E.02242
G1 X135.84 Y70.003 E.76993
G1 X136.416 Y70.003 E.02242
G1 X121.854 Y84.564 E.80161
G1 X121.854 Y85.14 E.02242
G1 X136.991 Y70.003 E.83329
G1 X137.567 Y70.003 E.02242
G1 X121.854 Y85.716 E.865
G1 X121.769 Y86.565 F24000
;WIDTH:0.38292
G1 F1058.823
G3 X121.709 Y86.505 I-.02 J-.041 E.00362
G1 X121.78 Y86.524 E.00239
;WIDTH:0.41646
G1 F963.754
G1 X121.817 Y86.407 E.00438
;WIDTH:0.449999
G1 F884.349
G1 X121.854 Y86.291 E.00474
G1 X138.143 Y70.003 E.89668
G1 X138.718 Y70.003 E.02238
G1 X122.303 Y86.419 E.90367
G1 X122.879 Y86.419 E.02242
G1 X139.294 Y70.003 E.90367
G1 X139.87 Y70.003 E.02242
G1 X123.454 Y86.419 E.9037
G1 X124.03 Y86.419 E.02242
G1 X140.445 Y70.003 E.90367
G1 X141.021 Y70.003 E.02242
G1 X124.606 Y86.419 E.90367
G1 X125.181 Y86.419 E.02238
G1 X141.597 Y70.003 E.9037
G1 X142.172 Y70.003 E.02238
G1 X125.757 Y86.419 E.90367
G1 X126.333 Y86.419 E.02242
G1 X142.748 Y70.003 E.90367
G1 X143.324 Y70.003 E.02242
G1 X126.908 Y86.419 E.9037
G1 X127.484 Y86.419 E.02242
G1 X143.9 Y70.003 E.9037
G1 X144.475 Y70.003 E.02238
G1 X128.06 Y86.419 E.90367
G1 X128.635 Y86.419 E.02238
G1 X145.051 Y70.003 E.9037
G1 X145.627 Y70.003 E.02242
G1 X129.211 Y86.419 E.9037
G1 X129.787 Y86.419 E.02242
G1 X146.202 Y70.003 E.90367
