; generated by PrusaSlicer 2.9.5 on 2026-06-08 at 07:11:33 UTC

; 

; external perimeters extrusion width = 0.45mm
; perimeters extrusion width = 0.45mm
; infill extrusion width = 0.45mm
; solid infill extrusion width = 0.45mm
; top infill extrusion width = 0.42mm
; support material extrusion width = 0.36mm
; first layer extrusion width = 0.50mm

; external perimeters extrusion width = 0.45mm
; perimeters extrusion width = 0.45mm
; infill extrusion width = 0.45mm
; solid infill extrusion width = 0.45mm
; top infill extrusion width = 0.42mm
; support material extrusion width = 0.36mm
; first layer extrusion width = 0.50mm

; external perimeters extrusion width = 0.45mm
; perimeters extrusion width = 0.45mm
; infill extrusion width = 0.45mm
; solid infill extrusion width = 0.45mm
; top infill extrusion width = 0.42mm
; support material extrusion width = 0.36mm
; first layer extrusion width = 0.50mm

M73 P0 R116
;TYPE:Custom
M104 ; prevent pusaslicer from adding temperature commands
; run custom start G-code
T-1  ; clear tool selection
M144 S1 ; set bed as active
M140 S0 R0 ; set bed temp
G29 S1 ; activate mesh bed compensation and load saved heightmap

; turn off unused heaters



M104 T3 S0

; homming
G28 ; homing
; try picking tools used in print
G1 F24000
;
;T1
;T2
;
G0 Z5 ; add Z clearance
M190 S0 ; wait for bed temp

; set extruder temp
M104 T0 S220
M104 T1 S220
M104 T2 S240



;
; purge second tool
;
G1 F24000
T-1 ; park the tool
M109 T1 S220
T1 ; pick the tool
G92 E0 ; reset extruder position

G0 X320 Y155 Z10 F24000 ; move close to the sheet's edge
G0 E30 X310 Z0.2 F170 ; purge while moving towards the sheet
G0 X285 E39 F800 ; continue purging and wipe the nozzle
G0 X282 Z0.05 F8000 ; wipe, move close to the bed
G0 X279 Z0.2 F8000 ; wipe, move quickly away from the bed
G1 E-1.2 F2400 ; retract

G92 E0 ; reset extruder position

M104 S100 T1


;
; purge third tool
;
G1 F24000
T-1 ; park the tool
M109 T2 S240
T2 ; pick the tool
G92 E0 ; reset extruder position

G0 X320 Y135 Z10 F24000 ; move close to the sheet's edge
G0 E30 X310 Z0.2 F170 ; purge while moving towards the sheet
G0 X285 E39 F800 ; continue purging and wipe the nozzle
G0 X282 Z0.05 F8000 ; wipe, move close to the bed
M73 P0 R115
G0 X279 Z0.2 F8000 ; wipe, move quickly away from the bed
G1 E-1.2 F2400 ; retract

G92 E0 ; reset extruder position

M104 S100 T2


;
; purge initial tool
;
G1 F24000
T-1 ; park the tool
M109 T0 S220
T0 ; pick the tool
G92 E0 ; reset extruder position

G0 X320 Y195 Z10 F24000 ; move close to the sheet's edge
G0 E30 X310 Z0.2 F170 ; purge while moving towards the sheet
G0 X285 E39 F800 ; continue purging and wipe the nozzle
G0 X282 Z0.05 F8000 ; wipe, move close to the bed
G0 X279 Z0.2 F8000 ; wipe, move quickly away from the bed
G1 E-1.5 F2400 ; retract



G92 E0 ; reset extruder position

G21 ; set units to millimeters
G90 ; use absolute coordinates
M83 ; use relative distances for extrusion
; Change Tool-1 -> Tool0 (layer -1)

; check if tool is already active at startup
T0 ; tool already active, don't change tools
; Filament gcode
M107
;LAYER_CHANGE
;Z:0.2
;HEIGHT:0.2
G1 Z.2 F720
G1 X127.845 Y86.119 F24000
G1 Z.2 F720
G1 E1.5 F3000
;TYPE:Skirt/Brim
;WIDTH:0.5
;HEIGHT:0.2
G1 F1640.852
G1 X129.559 Y84.865 E.08314
G1 X132 Y84.314 E.09796
G1 X168 Y84.314 E1.40927
G1 X171.004 Y85.173 E.12231
G1 X246.204 Y131.973 E3.46735
G1 X247.765 Y133.412 E.08311
G1 X248.69 Y135.323 E.08311
G1 X248.885 Y136.8 E.05832
G1 X248.885 Y149.7 E.50499
G1 X248.489 Y151.786 E.08312
G1 X247.355 Y153.581 E.08312
G1 X245.641 Y154.834 E.08311
G1 X243.2 Y155.385 E.09796
G1 X176.8 Y155.385 E2.59933
G1 X174.714 Y154.989 E.08312
G1 X173.03 Y153.955 E.07736
G1 X128.229 Y114.255 E2.34331
G1 X126.931 Y112.575 E.08311
G1 X126.314 Y110 E.10366
G1 X126.314 Y90 E.78293
G1 X126.711 Y87.914 E.08313
G1 X127.813 Y86.17 E.08076
G1 E-1.5 F3000
G1 X239.5 Y140.5 F24000
G1 E1.5 F3000
;HEIGHT:0.2
;TYPE:Wipe tower
;WIDTH:0.5
G1 X239.500 Y142.500 E0.0760 F1641
G1 X180.500 E2.2424
G1 Y140.500 E0.0760
G1 X239.500 E2.2424
G1 Y142.500
G1 X238.500
;--------------------
; CP EMPTY GRID START
; layer #1
G1 Y142.000 E0.0190
G1 X181.000 E2.1854
G1 Y141.500 E0.0190
G1 X239.000 E2.2044
G1 Y141.000 E0.0190
G1 X181.000 E2.2044
G1 Y140.500 E0.0190
; CP EMPTY GRID END
;------------------






G1 X180.000 Y140.000
G1 X240.000 E2.2804
G1 Y146.500 E0.2470
G1 X180.000 E2.2804
G1 Y140.000 E0.2470
G1 X179.543 Y139.543
G1 X240.457 E2.3151
G1 Y146.957 E0.2818
G1 X179.543 E2.3151
G1 Y139.543 E0.2818
G1 X179.086 Y139.086
G1 X240.914 E2.3499
G1 Y147.414 E0.3165
G1 X179.086 E2.3499
G1 Y139.086 E0.3165
G1 X178.629 Y138.629
G1 X241.371 E2.3846
G1 Y147.871 E0.3513
G1 X178.629 E2.3846
G1 Y138.629 E0.3513
M73 P1 R115
G1 X178.172 Y138.172
G1 X241.828 E2.4194
G1 Y148.328 E0.3860
G1 X178.172 E2.4194
G1 Y138.172 E0.3860
M73 P1 R114
G1 X177.715 Y137.715
G1 X242.285 E2.4541
G1 Y148.785 E0.4208
G1 X177.715 E2.4541
G1 Y137.715 E0.4208
G1 X177.258 Y137.258
G1 X242.742 E2.4888
G1 Y149.242 E0.4555
G1 X177.258 E2.4888
G1 Y137.258 E0.4555
G1 X176.800 Y136.800
G1 X243.200 E2.5236
G1 Y149.700 E0.4902
G1 X176.800 E2.5236
G1 Y136.800 E0.4902
G1 X239.750 Y146.250 F7200
;HEIGHT:0.2
;TYPE:Wipe tower
;WIDTH:0.5
;--------------------
; CP TOOLCHANGE START
; toolchange #1
; material : FLEX -> FLEX
;--------------------
M220 S100
; CP TOOLCHANGE UNLOAD
;WIDTH:1
;WIDTH:0.5
G4 S0
G1 E-1.2 F3000
; Filament-specific end gcode 
;END gcode for filament
; Change Tool0 -> Tool1 (layer 0)

  ; run tool change as expected
G1 E-2 F2000 ; retract filament
T-1 ; drop off current tool
M109 S220 T1
T1      ; pick up next tool
	; if layer height is above the minimum, enable fan
	               M106 S255 ; set part cooling fan based on filament profile
	
; Filament gcode

G1 F24000
G1 X239.250 Y145.000
G1 Z.2 F720
G1 E1.2 F1200
G4 S0
G1 Y145.500
; CP TOOLCHANGE WIPE
;WIDTH:0.5
G1 X180.250 E2.2424 F788
G1 X181.000 Y145.000 E0.0343
G1 X239.750 E2.2329
G1 X239.000 Y144.500 E0.0343
G1 X181.000 E2.2044
G1 Y144.000 E0.0190
G1 X239.000 E2.2044
G1 Y143.500 E0.0190
G1 X180.250 E2.2329
G1 X181.000 Y143.000 E0.0343
G1 X239.750 E2.2329
;WIDTH:0.5
G1 F24000
G4 S0
G92 E0
; CP TOOLCHANGE END
;------------------



G1 E-1 F3000
G1 X240.216 Y143 Z1.2 F794.432
G1 X248.428 Y143 F24000
G1 Z.2 F720
G1 E1 F1200
;TYPE:Skirt/Brim
;WIDTH:0.5
;HEIGHT:0.2
G1 F787.609
G1 X248.428 Y149.7 E.29284
G1 X248.032 Y151.696 E.08894
G1 X246.903 Y153.39 E.08898
G1 X245.214 Y154.525 E.08894
G1 X243.2 Y154.928 E.08977
G1 X176.8 Y154.928 E2.90216
G1 X174.804 Y154.532 E.08894
G1 X173.333 Y153.613 E.07581
G1 X128.532 Y113.913 E2.61632
G1 X127.301 Y112.293 E.08893
G1 X126.771 Y110 E.10286
G1 X126.771 Y90 E.87415
G1 X127.168 Y88.004 E.08895
G1 X128.296 Y86.31 E.08895
G1 X129.986 Y85.175 E.08898
G1 X132 Y84.771 E.08978
M73 P1 R113
G1 X168 Y84.771 E1.57346
G1 X170.763 Y85.561 E.1256
M73 P2 R113
G1 X245.962 Y132.361 E3.87127
G1 X247.448 Y133.753 E.08899
G1 X248.29 Y135.606 E.08896
G1 X248.428 Y136.8 E.05253
G1 X248.428 Y142.94 E.26836
G1 E-1 F3000
G1 X247.988 Y142.787 Z1.2 F794.404
G1 X150 Y108.786 F24000
G1 Z.2 F720
G1 E1 F1200
;TYPE:Perimeter
;WIDTH:0.499999
G1 F787.61
G1 X133.214 Y108.786 E.73367
G1 X133.214 Y91.214 E.76802
G1 X166.786 Y91.214 E1.46734
G1 X166.786 Y108.786 E.76802
G1 X150.06 Y108.786 E.73105
G1 X150 Y109.243 F24000
G1 F787.61
G1 X132.757 Y109.243 E.75364
G1 X132.757 Y90.757 E.80797
G1 X167.243 Y90.757 E1.50729
G1 X167.243 Y109.243 E.80797
G1 X150.06 Y109.243 E.75102
G1 X150 Y109.7 F24000
;TYPE:External perimeter
G1 F787.61
G1 X132.3 Y109.7 E.77362
G1 X132.3 Y90.3 E.84792
G1 X167.7 Y90.3 E1.54724
G1 X167.7 Y109.7 E.84792
G1 X150.06 Y109.7 E.771
G1 X149.66 Y109.7 F24000
G1 E-1 F3000
G1 X149.967 Y109.349 Z1.2 F794.432
G1 X165.677 Y91.397 F24000
G1 Z.2 F720
G1 E1 F1200
;TYPE:Solid infill
;WIDTH:0.500757
G1 F786.306
G1 X166.397 Y92.117 E.04458
G1 X166.397 Y92.764 E.02833
G1 X165.236 Y91.603 E.07188
G1 X164.588 Y91.603 E.02837
G1 X166.397 Y93.412 E.112
G1 X166.397 Y94.059 E.02833
G1 X163.941 Y91.603 E.15206
G1 X163.293 Y91.603 E.02837
G1 X166.397 Y94.707 E.19218
G1 X166.397 Y95.354 E.02833
G1 X162.646 Y91.603 E.23224
G1 X161.998 Y91.603 E.02837
G1 X166.397 Y96.002 E.27236
G1 X166.397 Y96.649 E.02833
G1 X161.351 Y91.603 E.31242
G1 X160.703 Y91.603 E.02837
G1 X166.397 Y97.297 E.35254
G1 X166.397 Y97.944 E.02833
G1 X160.056 Y91.603 E.3926
G1 X159.408 Y91.603 E.02837
G1 X166.397 Y98.592 E.43272
G1 X166.397 Y99.239 E.02833
G1 X158.761 Y91.603 E.47277
G1 X158.113 Y91.603 E.02837
G1 X166.397 Y99.887 E.51289
G1 X166.397 Y100.534 E.02833
G1 X157.466 Y91.603 E.55295
G1 X156.818 Y91.603 E.02837
G1 X166.397 Y101.182 E.59307
G1 X166.397 Y101.829 E.02833
G1 X156.171 Y91.603 E.63313
G1 X155.523 Y91.603 E.02837
G1 X166.397 Y102.477 E.67325
G1 X166.397 Y103.124 E.02833
G1 X154.876 Y91.603 E.71331
G1 X154.228 Y91.603 E.02837
G1 X166.397 Y103.772 E.75343
G1 X166.397 Y104.419 E.02833
G1 X153.581 Y91.603 E.79349
G1 X152.934 Y91.603 E.02833
G1 X166.397 Y105.066 E.83355
G1 X166.397 Y105.714 E.02837
G1 X152.286 Y91.603 E.87367
G1 X151.639 Y91.603 E.02833
G1 X166.397 Y106.361 E.91372
G1 X166.397 Y107.009 E.02837
G1 X150.991 Y91.603 E.95384
G1 X150.344 Y91.603 E.02833
G1 X166.397 Y107.656 E.9939
G1 X166.397 Y108.304 E.02837
M73 P2 R112
G1 X149.696 Y91.603 E1.03402
G1 X149.049 Y91.603 E.02833
G1 X165.843 Y108.397 E1.03978
G1 X165.196 Y108.397 E.02833
G1 X148.401 Y91.603 E1.03981
G1 X147.754 Y91.603 E.02833
G1 X164.548 Y108.397 E1.03978
G1 X163.901 Y108.397 E.02833
G1 X147.106 Y91.603 E1.03981
G1 X146.459 Y91.603 E.02833
G1 X163.253 Y108.397 E1.03978
G1 X162.606 Y108.397 E.02833
G1 X145.811 Y91.603 E1.03981
G1 X145.164 Y91.603 E.02833
M73 P3 R112
G1 X161.958 Y108.397 E1.03978
G1 X161.311 Y108.397 E.02833
G1 X144.516 Y91.603 E1.03981
G1 X143.869 Y91.603 E.02833
G1 X160.663 Y108.397 E1.03978
G1 X160.016 Y108.397 E.02833
G1 X143.221 Y91.603 E1.03981
G1 X142.574 Y91.603 E.02833
G1 X159.369 Y108.397 E1.03981
G1 X158.721 Y108.397 E.02837
G1 X141.926 Y91.603 E1.03981
G1 X141.279 Y91.603 E.02833
G1 X158.074 Y108.397 E1.03981
G1 X157.426 Y108.397 E.02837
G1 X140.631 Y91.603 E1.03981
G1 X139.984 Y91.603 E.02833
G1 X156.779 Y108.397 E1.03981
G1 X156.131 Y108.397 E.02837
G1 X139.336 Y91.603 E1.03981
G1 X138.689 Y91.603 E.02833
G1 X155.484 Y108.397 E1.03981
G1 X154.836 Y108.397 E.02837
G1 X138.042 Y91.603 E1.03978
G1 X137.394 Y91.603 E.02837
G1 X154.189 Y108.397 E1.03981
G1 X153.541 Y108.397 E.02837
G1 X136.747 Y91.603 E1.03978
G1 X136.099 Y91.603 E.02837
G1 X152.894 Y108.397 E1.03981
G1 X152.246 Y108.397 E.02837
G1 X135.452 Y91.603 E1.03978
G1 X134.804 Y91.603 E.02837
G1 X151.599 Y108.397 E1.03981
G1 X150.951 Y108.397 E.02837
G1 X134.157 Y91.603 E1.03978
G1 X133.603 Y91.603 E.02425
G1 X133.603 Y91.696 E.00407
G1 X150.304 Y108.397 E1.03402
G1 X149.656 Y108.397 E.02837
G1 X133.603 Y92.344 E.9939
G1 X133.603 Y92.991 E.02833
G1 X149.009 Y108.397 E.95384
G1 X148.361 Y108.397 E.02837
G1 X133.603 Y93.639 E.91372
G1 X133.603 Y94.286 E.02833
G1 X147.714 Y108.397 E.87367
G1 X147.066 Y108.397 E.02837
G1 X133.603 Y94.934 E.83355
G1 X133.603 Y95.581 E.02833
G1 X146.419 Y108.397 E.79349
G1 X145.771 Y108.397 E.02837
G1 X133.603 Y96.229 E.75337
G1 X133.603 Y96.876 E.02833
G1 X145.124 Y108.397 E.71331
G1 X144.476 Y108.397 E.02837
M73 P3 R111
G1 X133.603 Y97.524 E.67319
G1 X133.603 Y98.171 E.02833
G1 X143.829 Y108.397 E.63313
G1 X143.182 Y108.397 E.02833
G1 X133.603 Y98.818 E.59307
G1 X133.603 Y99.466 E.02837
G1 X142.534 Y108.397 E.55295
G1 X141.887 Y108.397 E.02833
G1 X133.603 Y100.113 E.51289
G1 X133.603 Y100.761 E.02837
G1 X141.239 Y108.397 E.47277
G1 X140.592 Y108.397 E.02833
G1 X133.603 Y101.408 E.43272
G1 X133.603 Y102.056 E.02837
G1 X139.944 Y108.397 E.3926
G1 X139.297 Y108.397 E.02833
G1 X133.603 Y102.703 E.35254
G1 X133.603 Y103.351 E.02837
G1 X138.649 Y108.397 E.31242
G1 X138.002 Y108.397 E.02833
G1 X133.603 Y103.998 E.27236
G1 X133.603 Y104.646 E.02837
G1 X137.354 Y108.397 E.23224
G1 X136.707 Y108.397 E.02833
G1 X133.603 Y105.293 E.19218
G1 X133.603 Y105.941 E.02837
G1 X136.059 Y108.397 E.15206
G1 X135.412 Y108.397 E.02833
G1 X133.603 Y106.588 E.112
G1 X133.603 Y107.236 E.02837
G1 X134.764 Y108.397 E.07188
G1 X134.117 Y108.397 E.02833
G1 X133.397 Y107.677 E.04458
;LAYER_CHANGE
;Z:0.4
;HEIGHT:0.2
;BEFORE_LAYER_CHANGE
G92 E0.0
;0.4

G1 E-1 F3000
G1 X133.397 Y107.677 Z.2 F24000
G1 X133.862 Y107.713 Z1.2 F794.432
G1 X150 Y108.961 Z1.2 F24000
G1 Z.4 F720
G1 E1 F1200
;TYPE:Perimeter
;WIDTH:0.449999
;HEIGHT:0.2
G1 F884.349
G1 X133.039 Y108.961 E.66023
G1 X133.039 Y91.039 E.69763
G1 X166.961 Y91.039 E1.32045
G1 X166.961 Y108.961 E.69763
G1 X150.06 Y108.961 E.65789
G1 X150 Y109.368 F24000
G1 F884.349
G1 X132.632 Y109.368 E.67607
G1 X132.632 Y90.632 E.72932
G1 X167.368 Y90.632 E1.35214
G1 X167.368 Y109.368 E.72932
M73 P4 R111
G1 X150.06 Y109.368 E.67373
G1 X150 Y109.775 F24000
;TYPE:External perimeter
G1 F884.349
G1 X132.225 Y109.775 E.69191
G1 X132.225 Y90.225 E.761
G1 X167.775 Y90.225 E1.38382
G1 X167.775 Y109.775 E.761
G1 X150.06 Y109.775 E.68958
G1 X149.66 Y109.775 F24000
G1 E-1 F3000
G1 X149.352 Y109.425 Z1.4 F794.432
G1 X133.496 Y91.418 F24000
G1 Z.4 F720
G1 E1 F1200
;TYPE:Solid infill
;WIDTH:0.548766
G1 F711.679
G2 X133.479 Y91.479 I-.059 J.017 E.0152
;WIDTH:0.449999
G1 F884.349
G1 X134.129 Y91.385 E.02557
G1 X133.319 Y92.202 E.04478
;WIDTH:0.41646
G1 F963.754
G1 X133.252 Y92.275 E.00354
;WIDTH:0.38292
G1 F1058.823
G1 X133.181 Y92.256 E.00239
G2 X133.241 Y92.316 I.04 J.02 E.00362
;WIDTH:0.449999
G1 F884.349
G1 X133.385 Y92.705 E.01615
G1 X134.705 Y91.385 E.07267
G1 X135.281 Y91.385 E.02242
G1 X133.385 Y93.281 E.10437
G1 X133.385 Y93.857 E.02242
G1 X135.857 Y91.385 E.13608
G1 X136.432 Y91.385 E.02238
G1 X133.385 Y94.432 E.16774
G1 X133.385 Y95.008 E.02242
G1 X137.008 Y91.385 E.19945
G1 X137.584 Y91.385 E.02242
G1 X133.385 Y95.584 E.23115
G1 X133.385 Y96.159 E.02238
G1 X138.159 Y91.385 E.26281
G1 X138.735 Y91.385 E.02242
G1 X133.385 Y96.735 E.29452
G1 X133.385 Y97.311 E.02242
G1 X139.311 Y91.385 E.32623
G1 X139.886 Y91.385 E.02238
G1 X133.385 Y97.886 E.35788
G1 X133.385 Y98.462 E.02242
G1 X140.462 Y91.385 E.38959
G1 X141.038 Y91.385 E.02242
G1 X133.385 Y99.038 E.4213
G1 X133.385 Y99.614 E.02242
G1 X141.614 Y91.385 E.453
G1 X142.189 Y91.385 E.02238
G1 X133.385 Y100.189 E.48466
G1 X133.385 Y100.765 E.02242
G1 X142.765 Y91.385 E.51637
G1 X143.341 Y91.385 E.02242
G1 X133.385 Y101.341 E.54808
G1 X133.385 Y101.916 E.02238
G1 X143.916 Y91.385 E.57973
G1 X144.492 Y91.385 E.02242
G1 X133.385 Y102.492 E.61144
G1 X133.385 Y103.068 E.02242
G1 X145.068 Y91.385 E.64315
G1 X145.643 Y91.385 E.02238
G1 X133.385 Y103.643 E.6748
G1 X133.385 Y104.219 E.02242
G1 X146.219 Y91.385 E.70651
G1 X146.795 Y91.385 E.02242
G1 X133.385 Y104.795 E.73822
G1 X133.385 Y105.371 E.02242
G1 X147.371 Y91.385 E.76993
G1 X147.946 Y91.385 E.02238
G1 X133.385 Y105.946 E.80158
G1 X133.385 Y106.522 E.02242
G1 X148.522 Y91.385 E.83329
G1 X149.098 Y91.385 E.02242
G1 X133.385 Y107.098 E.865
G1 X133.385 Y107.673 E.02238
G1 X149.673 Y91.385 E.89665
G1 X150.249 Y91.385 E.02242
G1 X133.385 Y108.249 E.92836
G1 X133.323 Y108.737 E.01915
M73 P4 R110
;WIDTH:0.38292
G1 F1058.823
G3 X133.263 Y108.677 I-.02 J-.04 E.00362
G1 X133.334 Y108.696 E.00239
;WIDTH:0.41646
G1 F963.754
G1 X133.465 Y108.655 E.0049
;WIDTH:0.449999
G1 F884.349
G1 X133.595 Y108.615 E.00529
G1 X150.825 Y91.385 E.94851
G1 X151.4 Y91.385 E.02238
G1 X134.171 Y108.615 E.94848
G1 X134.746 Y108.615 E.02238
G1 X151.976 Y91.385 E.94851
G1 X152.552 Y91.385 E.02242
G1 X135.322 Y108.615 E.94851
G1 X135.898 Y108.615 E.02242
G1 X153.127 Y91.385 E.94848
G1 X153.703 Y91.385 E.02242
G1 X136.474 Y108.615 E.94848
G1 X137.049 Y108.615 E.02238
G1 X154.279 Y91.385 E.94851
G1 X154.855 Y91.385 E.02242
G1 X137.625 Y108.615 E.94851
G1 X138.201 Y108.615 E.02242
G1 X155.43 Y91.385 E.94848
G1 X156.006 Y91.385 E.02242
G1 X138.776 Y108.615 E.94851
G1 X139.352 Y108.615 E.02242
G1 X156.582 Y91.385 E.94851
G1 X157.157 Y91.385 E.02238
G1 X139.928 Y108.615 E.94848
G1 X140.503 Y108.615 E.02238
G1 X157.733 Y91.385 E.94851
