; generated by PrusaSlicer 2.9.5 on 2026-06-16 at 10:48:35 UTC

; 

; external perimeters extrusion width = 0.45mm
; perimeters extrusion width = 0.45mm
; infill extrusion width = 0.45mm
; solid infill extrusion width = 0.45mm
; top infill extrusion width = 0.42mm
; support material extrusion width = 0.36mm
; first layer extrusion width = 0.50mm

; external perimeters extrusion width = 0.45mm
; perimeters extrusion width = 0.45mm
; infill extrusion width = 0.45mm
; solid infill extrusion width = 0.45mm
; top infill extrusion width = 0.42mm
; support material extrusion width = 0.36mm
; first layer extrusion width = 0.50mm

; external perimeters extrusion width = 0.45mm
; perimeters extrusion width = 0.45mm
; infill extrusion width = 0.45mm
; solid infill extrusion width = 0.45mm
; top infill extrusion width = 0.42mm
; support material extrusion width = 0.36mm
; first layer extrusion width = 0.50mm

; external perimeters extrusion width = 0.45mm
; perimeters extrusion width = 0.45mm
; infill extrusion width = 0.45mm
; solid infill extrusion width = 0.45mm
; top infill extrusion width = 0.42mm
; support material extrusion width = 0.36mm
; first layer extrusion width = 0.50mm

M73 P0 R180
;TYPE:Custom
M104 ; prevent pusaslicer from adding temperature commands
; run custom start G-code
T-1  ; clear tool selection
M144 S1 ; set bed as active
M140 S0 R0 ; set bed temp
G29 S1 ; activate mesh bed compensation and load saved heightmap

; turn off unused heaters



M104 T3 S0

; homming
G28 ; homing
; try picking tools used in print
G1 F24000
;
;T1
;T2
;
G0 Z5 ; add Z clearance
M190 S0 ; wait for bed temp

; set extruder temp
M104 T0 S220
M104 T1 S220
M104 T2 S240



;
; purge second tool
;
G1 F24000
T-1 ; park the tool
M109 T1 S220
T1 ; pick the tool
G92 E0 ; reset extruder position

G0 X320 Y155 Z10 F24000 ; move close to the sheet's edge
G0 E30 X310 Z0.2 F170 ; purge while moving towards the sheet
G0 X285 E39 F800 ; continue purging and wipe the nozzle
G0 X282 Z0.05 F8000 ; wipe, move close to the bed
G0 X279 Z0.2 F8000 ; wipe, move quickly away from the bed
G1 E-1.2 F2400 ; retract

G92 E0 ; reset extruder position

M104 S100 T1


;
; purge third tool
;
G1 F24000
T-1 ; park the tool
M109 T2 S240
T2 ; pick the tool
G92 E0 ; reset extruder position

G0 X320 Y135 Z10 F24000 ; move close to the sheet's edge
G0 E30 X310 Z0.2 F170 ; purge while moving towards the sheet
G0 X285 E39 F800 ; continue purging and wipe the nozzle
G0 X282 Z0.05 F8000 ; wipe, move close to the bed
G0 X279 Z0.2 F8000 ; wipe, move quickly away from the bed
G1 E-1.2 F2400 ; retract

G92 E0 ; reset extruder position

M104 S100 T2


;
; purge initial tool
;
G1 F24000
T-1 ; park the tool
M109 T0 S220
T0 ; pick the tool
G92 E0 ; reset extruder position

G0 X320 Y195 Z10 F24000 ; move close to the sheet's edge
G0 E30 X310 Z0.2 F170 ; purge while moving towards the sheet
G0 X285 E39 F800 ; continue purging and wipe the nozzle
G0 X282 Z0.05 F8000 ; wipe, move close to the bed
M73 P0 R179
G0 X279 Z0.2 F8000 ; wipe, move quickly away from the bed
G1 E-1.5 F2400 ; retract



G92 E0 ; reset extruder position

G21 ; set units to millimeters
G90 ; use absolute coordinates
M83 ; use relative distances for extrusion
; Change Tool-1 -> Tool0 (layer -1)

; check if tool is already active at startup
T0 ; tool already active, don't change tools
; Filament gcode
M107
;LAYER_CHANGE
;Z:0.2
;HEIGHT:0.2
G1 Z.2 F720
G1 X132.472 Y81.225 F24000
G1 Z.2 F720
G1 E1.5 F3000
;TYPE:Skirt/Brim
;WIDTH:0.5
;HEIGHT:0.2
G1 F1640.852
G1 X133.606 Y79.43 E.08312
G1 X135.32 Y78.176 E.08314
G1 X137.761 Y77.625 E.09796
G1 X162.239 Y77.625 E.95823
G1 X164.325 Y78.022 E.08313
G1 X165.373 Y78.567 E.04624
G1 X246.334 Y132.057 E3.7986
G1 X247.856 Y133.537 E.08311
G1 X248.728 Y135.473 E.08312
G1 X248.885 Y136.8 E.05231
G1 X248.885 Y149.7 E.50499
G1 X248.489 Y151.786 E.08312
G1 X247.355 Y153.581 E.08312
G1 X245.641 Y154.834 E.08311
G1 X243.2 Y155.385 E.09796
G1 X176.8 Y155.385 E2.59933
G1 X174.714 Y154.989 E.08312
G1 X173.129 Y154.041 E.0723
G1 X134.09 Y121.031 E2.00134
G1 X132.753 Y119.381 E.08314
G1 X132.076 Y116.689 E.10866
G1 X132.076 Y83.311 E1.30663
G1 X132.461 Y81.284 E.08077
G1 E-1.5 F3000
G1 X239.5 Y140.5 F24000
G1 E1.5 F3000
;HEIGHT:0.2
;TYPE:Wipe tower
;WIDTH:0.5
G1 X239.500 Y142.500 E0.0760 F1641
G1 X180.500 E2.2424
G1 Y140.500 E0.0760
G1 X239.500 E2.2424
G1 Y142.500
G1 X238.500
;--------------------
; CP EMPTY GRID START
; layer #1
G1 Y142.000 E0.0190
G1 X181.000 E2.1854
G1 Y141.500 E0.0190
G1 X239.000 E2.2044
G1 Y141.000 E0.0190
G1 X181.000 E2.2044
G1 Y140.500 E0.0190
; CP EMPTY GRID END
;------------------






G1 X180.000 Y140.000
G1 X240.000 E2.2804
G1 Y146.500 E0.2470
G1 X180.000 E2.2804
G1 Y140.000 E0.2470
G1 X179.543 Y139.543
G1 X240.457 E2.3151
G1 Y146.957 E0.2818
G1 X179.543 E2.3151
G1 Y139.543 E0.2818
G1 X179.086 Y139.086
G1 X240.914 E2.3499
G1 Y147.414 E0.3165
G1 X179.086 E2.3499
G1 Y139.086 E0.3165
G1 X178.629 Y138.629
G1 X241.371 E2.3846
G1 Y147.871 E0.3513
G1 X178.629 E2.3846
G1 Y138.629 E0.3513
G1 X178.172 Y138.172
G1 X241.828 E2.4194
G1 Y148.328 E0.3860
G1 X178.172 E2.4194
G1 Y138.172 E0.3860
G1 X177.715 Y137.715
G1 X242.285 E2.4541
G1 Y148.785 E0.4208
G1 X177.715 E2.4541
G1 Y137.715 E0.4208
G1 X177.258 Y137.258
G1 X242.742 E2.4888
G1 Y149.242 E0.4555
M73 P0 R178
G1 X177.258 E2.4888
G1 Y137.258 E0.4555
G1 X176.800 Y136.800
G1 X243.200 E2.5236
G1 Y149.700 E0.4902
G1 X176.800 E2.5236
G1 Y136.800 E0.4902
G1 X239.750 Y146.250 F7200
;HEIGHT:0.2
;TYPE:Wipe tower
;WIDTH:0.5
;--------------------
; CP TOOLCHANGE START
; toolchange #1
; material : FLEX -> FLEX
;--------------------
M220 S100
; CP TOOLCHANGE UNLOAD
;WIDTH:1
;WIDTH:0.5
G4 S0
G1 E-1.2 F3000
; Filament-specific end gcode 
;END gcode for filament
; Change Tool0 -> Tool1 (layer 0)

  ; run tool change as expected
G1 E-2 F2000 ; retract filament
T-1 ; drop off current tool
M109 S220 T1
T1      ; pick up next tool
	; if layer height is above the minimum, enable fan
	               M106 S255 ; set part cooling fan based on filament profile
	
; Filament gcode

G1 F24000
G1 X239.250 Y145.000
G1 Z.2 F720
G1 E1.2 F1200
G4 S0
G1 Y145.500
; CP TOOLCHANGE WIPE
;WIDTH:0.5
G1 X180.250 E2.2424 F656
G1 X181.000 Y145.000 E0.0343
G1 X239.750 E2.2329
G1 X239.000 Y144.500 E0.0343
G1 X181.000 E2.2044
G1 Y144.000 E0.0190
M73 P1 R178
G1 X239.000 E2.2044
G1 Y143.500 E0.0190
G1 X180.250 E2.2329
G1 X181.000 Y143.000 E0.0343
G1 X239.750 E2.2329
;WIDTH:0.5
G1 F24000
G4 S0
G92 E0
; CP TOOLCHANGE END
;------------------



G1 E-.7 F2400
G1 X248.428 Y143 F24000
G1 E.7 F1200
;TYPE:Skirt/Brim
;WIDTH:0.5
;HEIGHT:0.2
G1 F656.341
G1 X248.428 Y149.7 E.29284
G1 X248.032 Y151.696 E.08894
G1 X246.903 Y153.39 E.08898
G1 X245.214 Y154.525 E.08894
G1 X243.2 Y154.928 E.08977
G1 X176.8 Y154.928 E2.90216
G1 X174.804 Y154.532 E.08894
G1 X173.424 Y153.692 E.07061
G1 X134.385 Y120.681 E2.23454
G1 X133.117 Y119.09 E.08892
G1 X132.533 Y116.689 E.108
G1 X132.533 Y83.311 E1.45886
G1 X132.929 Y81.315 E.08894
G1 X134.058 Y79.621 E.08898
M73 P1 R177
G1 X135.747 Y78.486 E.08894
G1 X137.761 Y78.083 E.08977
G1 X162.239 Y78.083 E1.06987
G1 X165.121 Y78.949 E.13153
G1 X246.082 Y132.438 E4.24113
G1 X247.529 Y133.869 E.08895
G1 X248.32 Y135.744 E.08895
G1 X248.428 Y136.8 E.0464
G1 X248.428 Y142.94 E.26836
G1 E-.7 F2400
G1 X150 Y115.475 F24000
G1 E.7 F1200
;TYPE:Perimeter
;WIDTH:0.499999
G1 F656.342
G1 X138.976 Y115.475 E.48183
G1 X138.976 Y84.525 E1.35274
G1 X161.024 Y84.525 E.96366
G1 X161.024 Y115.475 E1.35274
G1 X150.06 Y115.475 E.47921
G1 X150 Y115.932 F24000
G1 F656.342
G1 X138.519 Y115.932 E.5018
G1 X138.519 Y84.068 E1.39269
G1 X161.481 Y84.068 E1.00361
G1 X161.481 Y115.932 E1.39269
G1 X150.06 Y115.932 E.49918
G1 X150 Y116.389 F24000
;TYPE:External perimeter
G1 F656.342
G1 X138.061 Y116.389 E.52182
G1 X138.061 Y83.611 E1.43264
G1 X161.939 Y83.611 E1.04364
G1 X161.939 Y116.389 E1.43264
G1 X150.06 Y116.389 E.5192
G1 X149.66 Y116.389 F24000
G1 E-.7 F2400
G1 X160.842 Y85.644 F24000
G1 E.7 F1200
;TYPE:Solid infill
;WIDTH:0.505707
G1 F648.246
G1 X160.111 Y84.914 E.04572
G1 X159.457 Y84.914 E.02894
G1 X160.636 Y86.093 E.07379
G1 X160.636 Y86.747 E.02894
G1 X158.802 Y84.914 E.11475
G1 X158.148 Y84.914 E.02894
G1 X160.636 Y87.402 E.15571
G1 X160.636 Y88.056 E.02894
G1 X157.493 Y84.914 E.19667
G1 X156.839 Y84.914 E.02894
G1 X160.636 Y88.711 E.23763
G1 X160.636 Y89.365 E.02894
G1 X156.184 Y84.914 E.27859
G1 X155.53 Y84.914 E.02894
G1 X160.636 Y90.02 E.31955
G1 X160.636 Y90.674 E.02894
G1 X154.875 Y84.914 E.36051
G1 X154.221 Y84.914 E.02894
G1 X160.636 Y91.329 E.40147
G1 X160.636 Y91.983 E.02894
G1 X153.566 Y84.914 E.44243
G1 X152.912 Y84.914 E.02894
G1 X160.636 Y92.638 E.48339
G1 X160.636 Y93.292 E.02894
G1 X152.257 Y84.914 E.52435
G1 X151.603 Y84.914 E.02894
G1 X160.636 Y93.947 E.56531
G1 X160.636 Y94.601 E.02894
G1 X150.948 Y84.914 E.60628
G1 X150.294 Y84.914 E.02894
G1 X160.636 Y95.256 E.64724
G1 X160.636 Y95.91 E.02894
G1 X149.64 Y84.914 E.68817
G1 X148.985 Y84.914 E.02899
G1 X160.636 Y96.565 E.72916
G1 X160.636 Y97.219 E.02894
G1 X148.331 Y84.914 E.77009
G1 X147.676 Y84.914 E.02899
M73 P1 R176
G1 X160.636 Y97.874 E.81108
G1 X160.636 Y98.528 E.02894
G1 X147.022 Y84.914 E.85201
G1 X146.367 Y84.914 E.02899
G1 X160.636 Y99.183 E.893
G1 X160.636 Y99.837 E.02894
G1 X145.713 Y84.914 E.93393
G1 X145.058 Y84.914 E.02899
G1 X160.636 Y100.491 E.97489
G1 X160.636 Y101.146 E.02899
G1 X144.404 Y84.914 E1.01585
G1 X143.749 Y84.914 E.02899
M73 P2 R176
G1 X160.636 Y101.8 E1.05681
G1 X160.636 Y102.455 E.02899
G1 X143.095 Y84.914 E1.09777
G1 X142.44 Y84.914 E.02899
G1 X160.636 Y103.109 E1.13873
G1 X160.636 Y103.764 E.02899
G1 X141.786 Y84.914 E1.17969
G1 X141.131 Y84.914 E.02899
G1 X160.636 Y104.418 E1.22065
G1 X160.636 Y105.073 E.02899
G1 X140.477 Y84.914 E1.26162
G1 X139.822 Y84.914 E.02899
G1 X160.636 Y105.727 E1.30258
G1 X160.636 Y106.382 E.02899
G1 X139.364 Y85.11 E1.33127
G1 X139.364 Y85.764 E.02894
G1 X160.636 Y107.036 E1.33127
G1 X160.636 Y107.691 E.02899
G1 X139.364 Y86.419 E1.33127
G1 X139.364 Y87.073 E.02894
G1 X160.636 Y108.345 E1.33127
G1 X160.636 Y109 E.02899
G1 X139.364 Y87.728 E1.33127
G1 X139.364 Y88.382 E.02894
G1 X160.636 Y109.654 E1.33127
G1 X160.636 Y110.309 E.02899
G1 X139.364 Y89.037 E1.33127
G1 X139.364 Y89.691 E.02894
G1 X160.636 Y110.963 E1.33127
G1 X160.636 Y111.618 E.02899
G1 X139.364 Y90.346 E1.33127
G1 X139.364 Y91 E.02894
G1 X160.636 Y112.272 E1.33127
G1 X160.636 Y112.927 E.02899
G1 X139.364 Y91.655 E1.33127
G1 X139.364 Y92.309 E.02894
M73 P2 R175
G1 X160.636 Y113.581 E1.33127
G1 X160.636 Y114.236 E.02899
G1 X139.364 Y92.964 E1.33127
G1 X139.364 Y93.618 E.02894
G1 X160.636 Y114.89 E1.33127
G1 X160.636 Y115.086 E.00867
G1 X160.178 Y115.086 E.02027
G1 X139.364 Y94.273 E1.30258
G1 X139.364 Y94.927 E.02894
G1 X159.523 Y115.086 E1.26162
G1 X158.869 Y115.086 E.02894
G1 X139.364 Y95.582 E1.22065
G1 X139.364 Y96.236 E.02894
G1 X158.214 Y115.086 E1.17969
G1 X157.56 Y115.086 E.02894
G1 X139.364 Y96.891 E1.13873
G1 X139.364 Y97.545 E.02894
G1 X156.905 Y115.086 E1.09777
G1 X156.251 Y115.086 E.02894
G1 X139.364 Y98.2 E1.05681
G1 X139.364 Y98.854 E.02894
G1 X155.596 Y115.086 E1.01585
G1 X154.942 Y115.086 E.02894
G1 X139.364 Y99.509 E.97489
G1 X139.364 Y100.163 E.02894
G1 X154.287 Y115.086 E.93393
G1 X153.633 Y115.086 E.02894
G1 X139.364 Y100.818 E.89297
G1 X139.364 Y101.472 E.02894
G1 X152.978 Y115.086 E.85201
G1 X152.324 Y115.086 E.02894
G1 X139.364 Y102.126 E.81108
G1 X139.364 Y102.781 E.02899
G1 X151.669 Y115.086 E.77009
G1 X151.015 Y115.086 E.02894
G1 X139.364 Y103.435 E.72916
G1 X139.364 Y104.09 E.02899
G1 X150.36 Y115.086 E.68817
G1 X149.706 Y115.086 E.02894
G1 X139.364 Y104.744 E.64724
G1 X139.364 Y105.399 E.02899
G1 X149.052 Y115.086 E.60628
G1 X148.397 Y115.086 E.02899
G1 X139.364 Y106.053 E.56531
G1 X139.364 Y106.708 E.02899
G1 X147.743 Y115.086 E.52435
G1 X147.088 Y115.086 E.02899
G1 X139.364 Y107.362 E.48339
G1 X139.364 Y108.017 E.02899
G1 X146.434 Y115.086 E.44243
G1 X145.779 Y115.086 E.02899
G1 X139.364 Y108.671 E.40147
G1 X139.364 Y109.326 E.02899
G1 X145.125 Y115.086 E.36051
G1 X144.47 Y115.086 E.02899
G1 X139.364 Y109.98 E.31955
G1 X139.364 Y110.635 E.02899
G1 X143.816 Y115.086 E.27859
G1 X143.161 Y115.086 E.02899
G1 X139.364 Y111.289 E.23763
G1 X139.364 Y111.944 E.02899
G1 X142.507 Y115.086 E.19667
G1 X141.852 Y115.086 E.02899
G1 X139.364 Y112.598 E.15571
G1 X139.364 Y113.253 E.02899
G1 X141.198 Y115.086 E.11475
G1 X140.543 Y115.086 E.02899
G1 X139.364 Y113.907 E.07379
G1 X139.364 Y114.562 E.02899
G1 X140.094 Y115.292 E.04569
;LAYER_CHANGE
;Z:0.4
;HEIGHT:0.2
;BEFORE_LAYER_CHANGE
G92 E0.0
;0.4

G1 E-.7 F2400
G1 Z.4 F720
G1 X150 Y115.65 F24000
G1 E.7 F1200
;TYPE:Perimeter
;WIDTH:0.449999
;HEIGHT:0.2
G1 F736.958
G1 X138.801 Y115.65 E.43593
G1 X138.801 Y84.35 E1.21839
G1 X161.199 Y84.35 E.87187
M73 P3 R174
G1 X161.199 Y115.65 E1.21839
G1 X150.06 Y115.65 E.4336
G1 X150 Y116.057 F24000
G1 F736.958
G1 X138.394 Y116.057 E.45178
G1 X138.394 Y83.943 E1.25007
G1 X161.606 Y83.943 E.90355
G1 X161.606 Y116.057 E1.25007
G1 X150.06 Y116.057 E.44944
G1 X150 Y116.464 F24000
;TYPE:External perimeter
G1 F736.958
G1 X137.986 Y116.464 E.46766
G1 X137.986 Y83.536 E1.28176
G1 X162.014 Y83.536 E.93532
G1 X162.014 Y116.464 E1.28176
G1 X150.06 Y116.464 E.46532
G1 X149.66 Y116.464 F24000
G1 E-.7 F2400
G1 X139.257 Y84.729 F24000
G1 E.7 F1200
;TYPE:Solid infill
;WIDTH:0.548766
G1 F593.066
G2 X139.241 Y84.79 I-.058 J.017 E.01522
;WIDTH:0.449999
G1 F736.958
G1 X139.147 Y85.441 E.0256
G1 X139.891 Y84.696 E.04098
G1 X139.984 Y84.624 E.00458
;WIDTH:0.41646
G1 F803.128
G1 X140.077 Y84.553 E.00418
;WIDTH:0.38292
G1 F882.353
G3 X140.017 Y84.492 I-.02 J-.041 E.0037
G1 X140.088 Y84.511 E.00239
;WIDTH:0.449999
G1 F736.958
G1 X140.467 Y84.696 E.01642
G1 X139.147 Y86.016 E.07267
G1 X139.147 Y86.592 E.02242
G1 X141.042 Y84.696 E.10435
G1 X141.618 Y84.696 E.02242
G1 X139.147 Y87.168 E.13606
G1 X139.147 Y87.743 E.02238
G1 X142.194 Y84.696 E.16774
G1 X142.769 Y84.696 E.02238
G1 X139.147 Y88.319 E.19942
G1 X139.147 Y88.895 E.02242
G1 X143.345 Y84.696 E.23113
G1 X143.921 Y84.696 E.02242
G1 X139.147 Y89.47 E.26281
G1 X139.147 Y90.046 E.02242
G1 X144.497 Y84.696 E.29452
G1 X145.072 Y84.696 E.02238
G1 X139.147 Y90.622 E.3262
G1 X139.147 Y91.198 E.02242
G1 X145.648 Y84.696 E.35791
G1 X146.224 Y84.696 E.02242
G1 X139.147 Y91.773 E.38959
G1 X139.147 Y92.349 E.02242
G1 X146.799 Y84.696 E.42127
G1 X147.375 Y84.696 E.02242
G1 X139.147 Y92.925 E.45298
G1 X139.147 Y93.5 E.02238
G1 X147.951 Y84.696 E.48466
G1 X148.526 Y84.696 E.02238
G1 X139.147 Y94.076 E.51634
G1 X139.147 Y94.652 E.02242
G1 X149.102 Y84.696 E.54805
G1 X149.678 Y84.696 E.02242
G1 X139.147 Y95.227 E.57973
G1 X139.147 Y95.803 E.02242
G1 X150.253 Y84.696 E.61141
G1 X150.829 Y84.696 E.02242
G1 X139.147 Y96.379 E.64312
G1 X139.147 Y96.954 E.02238
G1 X151.405 Y84.696 E.6748
G1 X151.981 Y84.696 E.02242
G1 X139.147 Y97.53 E.70651
G1 X139.147 Y98.106 E.02242
G1 X152.556 Y84.696 E.73819
G1 X153.132 Y84.696 E.02242
G1 X139.147 Y98.682 E.7699
G1 X139.147 Y99.257 E.02238
G1 X153.708 Y84.696 E.80158
G1 X154.283 Y84.696 E.02238
G1 X139.147 Y99.833 E.83326
G1 X139.147 Y100.409 E.02242
G1 X154.859 Y84.696 E.86497
G1 X155.435 Y84.696 E.02242
G1 X139.147 Y100.984 E.89665
G1 X139.147 Y101.56 E.02242
G1 X156.01 Y84.696 E.92833
G1 X156.586 Y84.696 E.02242
G1 X139.147 Y102.136 E.96004
G1 X139.147 Y102.711 E.02238
G1 X157.162 Y84.696 E.99172
G1 X157.738 Y84.696 E.02242
M73 P3 R173
G1 X139.147 Y103.287 E1.02343
G1 X139.147 Y103.863 E.02242
G1 X158.313 Y84.696 E1.05511
G1 X158.889 Y84.696 E.02242
G1 X139.147 Y104.439 E1.08682
G1 X139.147 Y105.014 E.02238
G1 X159.465 Y84.696 E1.1185
G1 X160.04 Y84.696 E.02238
G1 X139.147 Y105.59 E1.15018
G1 X139.147 Y106.166 E.02242
G1 X160.616 Y84.696 E1.18189
G1 X160.853 Y85.035 E.0161
G1 X139.147 Y106.741 E1.19491
G1 X139.147 Y107.317 E.02242
G1 X160.853 Y85.61 E1.19494
G1 X160.853 Y86.186 E.02242
G1 X139.147 Y107.893 E1.19494
G1 X139.147 Y108.468 E.02238
G1 X160.853 Y86.762 E1.19491
G1 X160.853 Y87.337 E.02238
